case-a2/ros2TopicPlotting/vignettes/ur3_move/joint_states.csv
2956,140000000,,shoulder_pan_joint,shoulder_lift_joint,elbow_joint,wrist_1_joint,wrist_2_joint,wrist_3_joint,-0.3651975067438151,-1.571014618995794,-0.36992576909646857,-0.3700824231747841,0.7399691352412177,7.457039026093071e-05,0.00646374883373893,-0.11492943679138988,-0.01527950471718209,-0.020392536256120836,0.013346701976541642,0.00035230126493240865,0.0,0.0,0.0,0.0,0.0,0.0
2956,160000000,,shoulder_pan_joint,shoulder_lift_joint,elbow_joint,wrist_1_joint,wrist_2_joint,wrist_3_joint,-0.3969669991524345,-1.5710218324978644,-0.4013496001651147,-0.4014963321391436,0.8028022142213489,7.213251067028636e-05,0.0505282551952701,-0.10923123594789375,-0.013881169024521495,-0.018130655318261052,0.014177376385350215,0.0003672765054810734,0.0,0.0,0.0,0.0,0.0,0.0
2956,180000000,,shoulder_pan_joint,shoulder_lift_joint,elbow_joint,wrist_1_joint,wrist_2_joint,wrist_3_joint,-0.42874924283219684,-1.5710410560013237,-0.4327750067741576,-0.43291372939492323,0.8656354573990441,-0.00034248383318313813,0.010763248560792443,-0.12480983848335611,-0.01655977415714957,-0.020814738130634725,0.013514124689010143,0.0003537828565988166,0.0,0.0,0.0,0.0,0.0,0.0
2956,200000000,,shoulder_pan_joint,shoulder_lift_joint,elbow_joint,wrist_1_joint,wrist_2_joint,wrist_3_joint,-0.4604940211348145,-1.5710849838146093,-0.4642040118551254,-0.46433738804650204,0.9284692028247914,-0.000399361709625623,0.03301036031836606,-0.14293489567464376,-0.019181034305187555,-0.02496208743119116,0.013604776736169444,0.0004284882730203332,0.0,0.0,0.0,0.0,0.0,0.0
2956,220000000,,shoulder_pan_joint,shoulder_lift_joint,elbow_joint,wrist_1_joint,wrist_2_joint,wrist_3_joint,-0.49209679459499256,-1.571104672261006,-0.4954418255784301,-0.4955669934178015,0.9909270726276054,-0.0005066265874029696,0.0333337078314985,-0.15930276686134193,-0.021532392301884112,-0.028128558615635735,0.013724397817848066,-0.1057607025582854,0.0,0.0,0.0,0.0,0.0,0.0
2956,240000000,,shoulder_pan_joint,shoulder_lift_joint,elbow_joint,wrist_1_joint,wrist_2_joint,wrist_3_joint,-0.5232091169950053,-1.5713278715914427,-0.5261315534086792,-0.52632566740066,1.052450469878976,-0.0006467078150418359,0.035872164035750345,-0.164594073333184,-0.02229589830529588,-0.028325182791864856,0.01386041472021271,-0.26220766779787363,0.0,0.0,0.0,0.0,0.0,0.0
2956,260000000,,shoulder_pan_joint,shoulder_lift_joint,elbow_joint,wrist_1_joint,wrist_2_joint,wrist_3_joint,-0.5545747981879501,-1.571808865544969,-0.557134601823682,-0.557202726382287,1.114452200555288,-0.0007640325317455066,0.03975035953847615,-0.1762093297751739,-0.02381556710004884,-0.03029893163899211,0.013524221002348846,-0.364176528315952,0.0,0.0,0.0,0.0,0.0,0.0
2956,280000000,,shoulder_pan_joint,shoulder_lift_joint,elbow_joint,wrist_1_joint,wrist_2_joint,wrist_3_joint,-0.5868547656353051,-1.5720420153569785,-0.5890972533685179,-0.5891540603138905,1.1783723280666587,-0.0008031738158615909,0.04751663768378595,-0.18535530011418883,-0.02525509970080897,-0.03183627510987336,0.012613804262190165,-0.40765453226537635,0.0,0.0,0.0,0.0,0.0,0.0
2956,300000000,,shoulder_pan_joint,shoulder_lift_joint,elbow_joint,wrist_1_joint,wrist_2_joint,wrist_3_joint,-0.6193687690825103,-1.5721898407872645,-0.6212599109359838,-0.6212984578059793,1.2426597515209226,-0.0009596581150557171,0.047563597141107514,-0.18874692105248855,-0.02552073760414919,-0.03157192098408024,0.012658858100471515,-0.4651298510192725,0.0,0.0,0.0,0.0,0.0,0.0
2956,320000000,,shoulder_pan_joint,shoulder_lift_joint,elbow_joint,wrist_1_joint,wrist_2_joint,wrist_3_joint,-0.649610725327296,-1.5723874309781012,-0.6511453025665004,-0.6511781384440232,1.3024076496083437,-0.0009688523221527134,0.04923784673075333,-0.19883764638199994,-0.027341621846398434,-0.03351496055933528,0.010458627753766297,-0.5079865009231925,0.0,0.0,0.0,0.0,0.0,0.0
2956,340000000,,shoulder_pan_joint,shoulder_lift_joint,elbow_joint,wrist_1_joint,wrist_2_joint,wrist_3_joint,-0.676808119312561,-1.5723386689757932,-0.6780259254319949,-0.6780487957362515,1.356161054203315,-0.000987949816042999,0.08633468297336548,-0.2100984732712068,-0.028825118207248646,-0.03509114126802382,0.009409152440521734,-0.4208680304075438,0.0,0.0,0.0,0.0,0.0,0.0
2956,360000000,,shoulder_pan_joint,shoulder_lift_joint,elbow_joint,wrist_1_joint,wrist_2_joint,wrist_3_joint,-0.7009532888446843,-1.5723242804442208,-0.7019075527885867,-0.7019230168416115,1.4039125304281486,-0.0009819616084101312,0.08278567677037131,-0.2153347231985131,-0.029687980558625537,-0.036021461545877764,0.007561109933602289,-0.42155646575851435,0.0,0.0,0.0,0.0,0.0,0.0
2956,380000000,,shoulder_pan_joint,shoulder_lift_joint,elbow_joint,wrist_1_joint,wrist_2_joint,wrist_3_joint,-0.7220737518891802,-1.5723921516634487,-0.7227892206603634,-0.722799284452516,1.4456646974463698,-0.000993030860734656,0.08055368477288288,-0.217946976354879,-0.030462688358496415,-0.0361221951854756,0.0057692590128987364,-0.4483388229145094,0.0,0.0,0.0,0.0,0.0,0.0
2956,400000000,,shoulder_pan_joint,shoulder_lift_joint,elbow_joint,wrist_1_joint,wrist_2_joint,wrist_3_joint,-0.74015929236446,-1.5724495678488974,-0.7406700656503773,-0.7406741912403341,1.481418409852017,-0.0009794216539704692,0.08081349156869896,-0.22012722793973633,-0.030814527578056583,-0.03607822191233356,0.0055435444211842655,-0.46590975922803807,0.0,0.0,0.0,0.0,0.0,0.0
2956,420000000,,shoulder_pan_joint,shoulder_lift_joint,elbow_joint,wrist_1_joint,wrist_2_joint,wrist_3_joint,-0.7552088383237425,-1.5724947012455335,-0.755550097376795,-0.7555492768380425,1.5111725358712782,-0.0009632219136657127,0.08063820766378221,-0.22220769773509347,-0.031231368766262813,-0.03610727028201188,0.004922951806663189,-0.4770145408744242,0.0,0.0,0.0,0.0,0.0,0.0
2956,440000000,,shoulder_pan_joint,shoulder_lift_joint,elbow_joint,wrist_1_joint,wrist_2_joint,wrist_3_joint,-0.7672207890455409,-1.57252869649189,-0.7674294375015869,-0.7674247176825499,1.534926013728084,-0.0009494745021418893,0.08042726728650695,-0.2239818590069167,-0.03158549024469948,-0.03616943666739614,0.00440364480767598,-0.48478322500742244,0.0,0.0,0.0,0.0,0.0,0.0
2956,460000000,,shoulder_pan_joint,shoulder_lift_joint,elbow_joint,wrist_1_joint,wrist_2_joint,wrist_3_joint,-0.77619868473918,-1.5725469133500631,-0.7763080249859593,-0.776300083718267,1.5526796586792644,-0.0009581125744908547,0.08176551306652752,-0.2249535270173586,-0.03183316453342644,-0.03598693425664401,0.0043848821011668124,-0.506314600345555,0.0,0.0,0.0,0.0,0.0,0.0
2956,480000000,,shoulder_pan_joint,shoulder_lift_joint,elbow_joint,wrist_1_joint,wrist_2_joint,wrist_3_joint,-0.7821351044691669,-1.5726148482040871,-0.7821865563668453,-0.7821767067004544,1.5644346300424914,-0.0008165583865009651,0.095237512971934,-0.23928138272027788,-0.03408059626797488,-0.03800102985068854,0.005132988981438644,-0.3985926567381127,0.0,0.0,0.0,0.0,0.0,0.0
2956,500000000,,shoulder_pan_joint,shoulder_lift_joint,elbow_joint,wrist_1_joint,wrist_2_joint,wrist_3_joint,-0.7850396630907834,-1.5725535612872017,-0.7850635991484332,-0.7850521444229726,1.570185437917896,-0.0009681220175394856,0.08481349722827237,-0.22673716066345156,-0.032229128544128405,-0.03596980484138057,0.004691394146754678,-0.5317451640761588,0.0,0.0,0.0,0.0,0.0,0.0
2956,520000000,,shoulder_pan_joint,shoulder_lift_joint,elbow_joint,wrist_1_joint,wrist_2_joint,wrist_3_joint,-0.7853429164097054,-1.5731711844528888,-0.7853796033778906,-0.7853520382646213,1.5708203707761452,-0.0008574164947949825,0.08190547197956799,-0.22616047487147295,-0.03210558753532122,-0.03591390232900804,0.004228452429276254,-0.5192064706088995,0.0,0.0,0.0,0.0,0.0,0.0
2956,540000000,,shoulder_pan_joint,shoulder_lift_joint,elbow_joint,wrist_1_joint,wrist_2_joint,wrist_3_joint,-0.7853593944810839,-1.5725312838866685,-0.7853789236725142,-0.7853685049971224,1.5708174516812452,-0.0009565819484462779,0.08661157846400384,-0.22916932747604624,-0.03259326229305204,-0.036666426022428755,0.004856844117764665,-0.5208794573368154,0.0,0.0,0.0,0.0,0.0,0.0
2956,560000000,,shoulder_pan_joint,shoulder_lift_joint,elbow_joint,wrist_1_joint,wrist_2_joint,wrist_3_joint,-0.7850113665505702,-1.5743192417012075,-0.7850443399398381,-0.7850215273919572,1.570206926833464,-0.001641091024638719,0.08287086321534361,-0.22582607538722765,-0.03207449750529279,-0.03575265885841128,0.004342497042999549,-0.5250501720028553,0.0,0.0,0.0,0.0,0.0,0.0
2956,580000000,,shoulder_pan_joint,shoulder_lift_joint,elbow_joint,wrist_1_joint,wrist_2_joint,wrist_3_joint,-0.784995924296835,-1.5725886092375205,-0.7893644242559779,-0.7823126279442079,1.570205304095622,-0.00164366166319585,0.08873387434288801,-0.23129552277294257,-0.03295489270676144,-0.03687560368270626,0.00501398263931507,-0.499241146558265,0.0,0.0,0.0,0.0,0.0,0.0
2956,600000000,,shoulder_pan_joint,shoulder_lift_joint,elbow_joint,wrist_1_joint,wrist_2_joint,wrist_3_joint,-0.785007336881268,-1.5650895550555681,-0.8097620991293475,-0.769535120603428,1.5702066173343132,-0.001652014542217195,0.08408946900296155,-0.22592007211843768,-0.03232094622295223,-0.035176549072513885,0.004511488556076748,-0.531813941656449,0.0,0.0,0.0,0.0,0.0,0.0
2956,620000000,,shoulder_pan_joint,shoulder_lift_joint,elbow_joint,wrist_1_joint,wrist_2_joint,wrist_3_joint,-0.7850044255014881,-1.5531343301339042,-0.8419450450698749,-0.7493725693599256,1.5702084539502854,-0.001536172489378984,0.09670217297655304,-0.23956584286427646,-0.03470900717543113,-0.0364997549119892,0.005093339774187675,-0.40711466105346217,0.0,0.0,0.0,0.0,0.0,0.0
2956,640000000,,shoulder_pan_joint,shoulder_lift_joint,elbow_joint,wrist_1_joint,wrist_2_joint,wrist_3_joint,-0.7849977149752227,-1.5414556795727208,-0.8730561014173368,-0.729879959288362,1.5702061367145168,-0.0016602091012316578,0.08659511456589432,-0.2266756054310205,-0.033021416814992155,-0.03387656550963103,0.004731339198120004,-0.535226105153339,0.0,0.0,0.0,0.0,0.0,0.0
2956,660000000,,shoulder_pan_joint,shoulder_lift_joint,elbow_joint,wrist_1_joint,wrist_2_joint,wrist_3_joint,-0.7849802149747251,-1.5332558358701869,-0.8966663926877185,-0.7150698432378011,1.5702095588112854,-0.0015475008632410692,0.08421269956168229,-0.22611246265680823,-0.03311140034578641,-0.03331663775478144,0.004271472171805252,-0.5229868637819903,0.0,0.0,0.0,0.0,0.0,0.0
2956,680000000,,shoulder_pan_joint,shoulder_lift_joint,elbow_joint,wrist_1_joint,wrist_2_joint,wrist_3_joint,-0.7849955023722099,-1.5231368577096394,-0.9225005218691864,-0.6987383402130609,1.5702063150965824,-0.0016580664324132854,0.0893676555198554,-0.22891278440527507,-0.03381497586502924,-0.03335836448787011,0.004901712923800816,-0.5267087137252426,0.0,0.0,0.0,0.0,0.0,0.0
2956,700000000,,shoulder_pan_joint,shoulder_lift_joint,elbow_joint,wrist_1_joint,wrist_2_joint,wrist_3_joint,-0.7850000560975525,-1.5111972995055796,-0.9567836772272011,-0.6764877399288229,1.570208176008138,-0.0015490946182561416,0.09958489751143877,-0.23999284014479116,-0.035914098386054305,-0.03371613412481156,0.005181218407917083,-0.4174758160084857,0.0,0.0,0.0,0.0,0.0,0.0
2956,720000000,,shoulder_pan_joint,shoulder_lift_joint,elbow_joint,wrist_1_joint,wrist_2_joint,wrist_3_joint,-0.785000544668554,-1.4976792998657942,-0.9960939149694008,-0.6506411777376346,1.570206784299284,-0.001662874154777505,0.0884648130113966,-0.22601245783412643,-0.034083378763485994,-0.030772111246312517,0.004593199819566841,-0.5410799897926314,0.0,0.0,0.0,0.0,0.0,0.0
2956,740000000,,shoulder_pan_joint,shoulder_lift_joint,elbow_joint,wrist_1_joint,wrist_2_joint,wrist_3_joint,-0.7849914780556357,-1.4845016266473507,-1.0344600386120373,-0.625428277788342,1.5702060771727213,-0.0016678906927705128,0.09211668156495999,-0.22876877908694576,-0.03489040369529217,-0.03052495872782446,0.004976797264503459,-0.5356247469236729,0.0,0.0,0.0,0.0,0.0,0.0
2956,760000000,,shoulder_pan_joint,shoulder_lift_joint,elbow_joint,wrist_1_joint,wrist_2_joint,wrist_3_joint,-0.7849967924609924,-1.4724293141691494,-1.0694327041343854,-0.6026238260027705,1.5702079622953553,-0.0015499405978731673,0.10202917155062698,-0.24052475730507777,-0.037158225563324376,-0.030936146066615322,0.005114006670004126,-0.4211906939043724,0.0,0.0,0.0,0.0,0.0,0.0
2956,780000000,,shoulder_pan_joint,shoulder_lift_joint,elbow_joint,wrist_1_joint,wrist_2_joint,wrist_3_joint,-0.7849968672722332,-1.4606288388154338,-1.1037100403356632,-0.5800887172520284,1.5702064632103943,-0.0016663607323543772,0.09083233281114944,-0.22609571827734376,-0.03515880128010951,-0.028196750260365278,0.00450939381749706,-0.5454209276132338,0.0,0.0,0.0,0.0,0.0,0.0
2956,800000000,,shoulder_pan_joint,shoulder_lift_joint,elbow_joint,wrist_1_joint,wrist_2_joint,wrist_3_joint,-0.7849877552380757,-1.4508089589426696,-1.1344391076934226,-0.5591546001177878,1.5702054932827822,-0.0016705310428664077,0.09417440520778034,-0.2286985247529097,-0.03587930417081897,-0.02805899249632826,0.004873261363140917,-0.5404417436596587,0.0,0.0,0.0,0.0,0.0,0.0
2956,820000000,,shoulder_pan_joint,shoulder_lift_joint,elbow_joint,wrist_1_joint,wrist_2_joint,wrist_3_joint,-0.7849941326159566,-1.4427329421235964,-1.1619276040558502,-0.5398361822316993,1.5702076401658749,-0.001550092767976352,0.10382119070400599,-0.24079077743146599,-0.03818297645595492,-0.028576231486171944,0.004981886215975596,-0.42447113844358664,0.0,0.0,0.0,0.0,0.0,0.0
2956,840000000,,shoulder_pan_joint,shoulder_lift_joint,elbow_joint,wrist_1_joint,wrist_2_joint,wrist_3_joint,-0.7849944165549037,-1.4344351977568248,-1.189442688851348,-0.5205571780697689,1.5702059875865313,-0.0016672576680649698,0.09240141890391126,-0.22583728604061287,-0.03599644950959502,-0.02598722292546818,0.00437800256099246,-0.5489057795477328,0.0,0.0,0.0,0.0,0.0,0.0
2956,860000000,,shoulder_pan_joint,shoulder_lift_joint,elbow_joint,wrist_1_joint,wrist_2_joint,wrist_3_joint,-0.7849849861238871,-1.4251732105507005,-1.2189143577615198,-0.5003238861974815,1.570204892100759,-0.0016710931660410822,0.09569240892559555,-0.22839301030919612,-0.03670223954429497,-0.025852028294557017,0.004726477484863434,-0.544390193207765,0.0,0.0,0.0,0.0,0.0,0.0
2956,880000000,,shoulder_pan_joint,shoulder_lift_joint,elbow_joint,wrist_1_joint,wrist_2_joint,wrist_3_joint,-0.7849915966808956,-1.416347993069425,-1.2479617354832238,-0.4801946817864957,1.570207177061464,-0.0015497522154310772,0.10538881397222837,-0.24078445771740553,-0.039113396693596925,-0.02630208888399954,0.004797014115465292,-0.427942009555618,0.0,0.0,0.0,0.0,0.0,0.0
2956,900000000,,shoulder_pan_joint,shoulder_lift_joint,elbow_joint,wrist_1_joint,wrist_2_joint,wrist_3_joint,-0.7849922206143551,-1.4087506584744833,-1.2748092249091414,-0.4608817930378599,1.5702054215850163,-0.0016680343508417295,0.09399402111510875,-0.22561300565455777,-0.03683929255052232,-0.023838935231571767,0.0041879797753532795,-0.5526689571542537,0.0,0.0,0.0,0.0,0.0,0.0
2956,920000000,,shoulder_pan_joint,shoulder_lift_joint,elbow_joint,wrist_1_joint,wrist_2_joint,wrist_3_joint,-0.7849821354049151,-1.4020670167539748,-1.3002883207442197,-0.44206120643140334,1.5702042564830192,-0.0016691530952961386,0.09724130664412674,-0.22807488302216644,-0.037523279790594,-0.023603919394909134,0.00454414619464576,-0.5481224521115988,0.0,0.0,0.0,0.0,0.0,0.0
2956,940000000,,shoulder_pan_joint,shoulder_lift_joint,elbow_joint,wrist_1_joint,wrist_2_joint,wrist_3_joint,-0.7849875679880469,-1.3953398142477775,-1.3259933410944607,-0.423149157666713,1.570206071448406,-0.001546983867880769,0.1067831544617003,-0.23848100292060936,-0.03985406599163566,-0.022611158284287614,0.0045021932368050285,-0.4279078967859882,0.0,0.0,0.0,0.0,0.0,0.0
2956,960000000,,shoulder_pan_joint,shoulder_lift_joint,elbow_joint,wrist_1_joint,wrist_2_joint,wrist_3_joint,-0.7849895283826589,-1.3879267551390129,-1.3526104188671768,-0.4039086808346335,1.5702048453292141,-0.0016666458309231302,0.09550505006750644,-0.22541465301958585,-0.037642004690027764,-0.021729555119685884,0.003979981310532264,-0.5566666589220542,0.0,0.0,0.0,0.0,0.0,0.0
2956,980000000,,shoulder_pan_joint,shoulder_lift_joint,elbow_joint,wrist_1_joint,wrist_2_joint,wrist_3_joint,-0.7849793961036289,-1.3808676774191682,-1.3787390060602398,-0.38481477614372395,1.570203583602602,-0.0016679094513252224,0.09880741415759109,-0.22786739764130898,-0.03834542519196338,-0.021417423984745887,0.004283482610023308,-0.5526969929954971,0.0,0.0,0.0,0.0,0.0,0.0
2957,0,,shoulder_pan_joint,shoulder_lift_joint,elbow_joint,wrist_1_joint,wrist_2_joint,wrist_3_joint,-0.7849837268895605,-1.375070226390104,-1.4032480198773278,-0.3661752680696928,1.5702055411980602,-0.0015421002794715477,0.1085269524933753,-0.23904565946718132,-0.04087455044527999,-0.02032364457310676,0.0041408392444907405,-0.4361304132876321,0.0,0.0,0.0,0.0,0.0,0.0
2957,20000000,,shoulder_pan_joint,shoulder_lift_joint,elbow_joint,wrist_1_joint,wrist_2_joint,wrist_3_joint,-0.784987502272771,-1.3699037793365525,-1.4267342396074216,-0.3478118099888219,1.5702042022407312,-0.0016675075486762836,0.0966055325088076,-0.22496484816356943,-0.03835005790425272,-0.019752112722147275,0.0037148492542929783,-0.561459419919588,0.0,0.0,0.0,0.0,0.0,0.0
2957,40000000,,shoulder_pan_joint,shoulder_lift_joint,elbow_joint,wrist_1_joint,wrist_2_joint,wrist_3_joint,-0.7849779042235383,-1.3646477669703634,-1.4503826122028602,-0.32939761207396145,1.57020289205456,-0.0016837666743105828,0.09979669672936145,-0.22742119807815275,-0.039038561285536955,-0.019437132311233007,0.0040313084115647865,-0.5615383716896472,0.0,0.0,0.0,0.0,0.0,0.0
2957,60000000,,shoulder_pan_joint,shoulder_lift_joint,elbow_joint,wrist_1_joint,wrist_2_joint,wrist_3_joint,-0.7849810079285096,-1.3589973233899295,-1.474709201105484,-0.3107966297742317,1.5702049915170404,-0.0015694398416314925,0.10995332203793809,-0.2393832871119846,-0.04177876745986786,-0.01820927156358898,0.0039006945687534156,-0.4465251334472805,0.0,0.0,0.0,0.0,0.0,0.0
2957,80000000,,shoulder_pan_joint,shoulder_lift_joint,elbow_joint,wrist_1_joint,wrist_2_joint,wrist_3_joint,-0.7849852060144649,-1.353526172284699,-1.4986565989500367,-0.29227008448413905,1.5702035127388898,-0.0016695487069027237,0.09764973352797654,-0.22440580604746496,-0.039019011175224994,-0.01780058340197377,0.003419412622737754,-0.5650975021800746,0.0,0.0,0.0,0.0,0.0,0.0
2957,100000000,,shoulder_pan_joint,shoulder_lift_joint,elbow_joint,wrist_1_joint,wrist_2_joint,wrist_3_joint,-0.7849760796023943,-1.3491445140071185,-1.521327593368344,-0.273958770907778,1.5702021599626867,-0.0016831583794063576,0.10086745514537696,-0.22680957785080336,-0.03971396947802719,-0.017375868330387734,0.0037360518087233355,-0.5650867350051502,0.0,0.0,0.0,0.0,0.0,0.0
2957,120000000,,shoulder_pan_joint,shoulder_lift_joint,elbow_joint,wrist_1_joint,wrist_2_joint,wrist_3_joint,-0.7849789076505651,-1.3455553844354835,-1.5431832507598742,-0.25576860988092687,1.570204381773543,-0.0015925437923227648,0.11117133292572626,-0.23923222709014108,-0.04259216022421175,-0.01597906976254948,0.003634725074623882,-0.45242566777331844,0.0,0.0,0.0,0.0,0.0,0.0
2957,140000000,,shoulder_pan_joint,shoulder_lift_joint,elbow_joint,wrist_1_joint,wrist_2_joint,wrist_3_joint,-0.7849822209086534,-1.3417123215375693,-1.5651626713715485,-0.23755510791235324,1.570202156316702,-0.0016714456252469034,0.09862870629946008,-0.22211172094709203,-0.03965648039156089,-0.014375189479650108,0.003041376035270188,-0.5636249358520269,0.0,0.0,0.0,0.0,0.0,0.0
2957,160000000,,shoulder_pan_joint,shoulder_lift_joint,elbow_joint,wrist_1_joint,wrist_2_joint,wrist_3_joint,-0.7849749805328674,-1.337492783510192,-1.587682926411686,-0.21925806088988775,1.5702014126117492,-0.0016920419816974785,0.10162803532915882,-0.22605505817859906,-0.04031279358112361,-0.015396989505173542,0.0034237641604669897,-0.5692809878381775,0.0,0.0,0.0,0.0,0.0,0.0
2957,180000000,,shoulder_pan_joint,shoulder_lift_joint,elbow_joint,wrist_1_joint,wrist_2_joint,wrist_3_joint,-0.784977319879804,-1.3336390148709736,-1.6098921449561345,-0.20097302359063818,1.570203668805119,-0.001586308086427124,0.112143172738072,-0.23835169427258063,-0.04329167082072294,-0.013564874103836555,0.0033204490206363985,-0.4532759447830812,0.0,0.0,0.0,0.0,0.0,0.0
2957,200000000,,shoulder_pan_joint,shoulder_lift_joint,elbow_joint,wrist_1_joint,wrist_2_joint,wrist_3_joint,-0.7849812279930637,-1.3306753325510208,-1.631044084474115,-0.1827199258972101,1.5702016361640538,-0.0016607109237813944,0.09952804136391108,-0.2221894608377173,-0.04029216459828011,-0.012960706881914974,0.0027384114847951724,-0.5663501498811563,0.0,0.0,0.0,0.0,0.0,0.0
2957,220000000,,shoulder_pan_joint,shoulder_lift_joint,elbow_joint,wrist_1_joint,wrist_2_joint,wrist_3_joint,-0.7849727681194691,-1.3284434184341105,-1.6515177978748135,-0.16447169962779729,1.5702005864889186,-0.0016781074640217497,0.1022261869893275,-0.22506848753587266,-0.04086547409389696,-0.013346570585158313,0.0030662069963358837,-0.5700329325864737,0.0,0.0,0.0,0.0,0.0,0.0
2957,240000000,,shoulder_pan_joint,shoulder_lift_joint,elbow_joint,wrist_1_joint,wrist_2_joint,wrist_3_joint,-0.7849763550436037,-1.3261948160737376,-1.6720922222512549,-0.14621266490735074,1.5702029182832318,-0.0015800175838389663,0.11279341800945064,-0.23728356835590114,-0.04392355359899769,-0.011146899427587842,0.002975261097641624,-0.45320688264011894,0.0,0.0,0.0,0.0,0.0,0.0
2957,260000000,,shoulder_pan_joint,shoulder_lift_joint,elbow_joint,wrist_1_joint,wrist_2_joint,wrist_3_joint,-0.7849793780756951,-1.3233605217054292,-1.6931143664322557,-0.12795089098173662,1.5702004236334037,-0.001660079752753063,0.10024893108479231,-0.22050634902985294,-0.04090603114831215,-0.010068879977690015,0.002286244722927551,-0.5654054439753788,0.0,0.0,0.0,0.0,0.0,0.0
2957,280000000,,shoulder_pan_joint,shoulder_lift_joint,elbow_joint,wrist_1_joint,wrist_2_joint,wrist_3_joint,-0.7849710446552152,-1.3209219434305375,-1.7133482313547708,-0.11016497051123775,1.5701998182471772,-0.001688902906993306,0.10265206173902106,-0.22411047494488406,-0.041359684935269536,-0.011506847945781162,0.0026787430660793476,-0.5735116754034084,0.0,0.0,0.0,0.0,0.0,0.0
2957,300000000,,shoulder_pan_joint,shoulder_lift_joint,elbow_joint,wrist_1_joint,wrist_2_joint,wrist_3_joint,-0.7849753955399565,-1.3196594263234882,-1.730716911699771,-0.0941258539367853,1.5702023049796887,-0.0015913038453962969,0.11353519573008167,-0.23674155949640502,-0.04455230476412386,-0.009101362696723903,0.002620398845259886,-0.4566441451255572,0.0,0.0,0.0,0.0,0.0,0.0
2957,320000000,,shoulder_pan_joint,shoulder_lift_joint,elbow_joint,wrist_1_joint,wrist_2_joint,wrist_3_joint,-0.7849786494917232,-1.3189865814612256,-1.7460634835378244,-0.07937142084411697,1.5701995184172999,-0.0016587869794300047,0.10069378204207977,-0.21947637062906628,-0.04140812108365399,-0.008000941653775073,0.0018762059834227657,-0.5663266768397626,0.0,0.0,0.0,0.0,0.0,0.0
2957,340000000,,shoulder_pan_joint,shoulder_lift_joint,elbow_joint,wrist_1_joint,wrist_2_joint,wrist_3_joint,-0.7849701592368286,-1.3182994553376233,-1.7616288475882795,-0.06450064881249418,1.5701989700674712,-0.001680028234648745,0.10285382257109846,-0.22284585454474692,-0.04175848954294903,-0.00954493939093648,0.0023399014342610908,-0.5728122937050714,0.0,0.0,0.0,0.0,0.0,0.0
2957,360000000,,shoulder_pan_joint,shoulder_lift_joint,elbow_joint,wrist_1_joint,wrist_2_joint,wrist_3_joint,-0.7849751414837396,-1.3171958462745197,-1.7784923807165551,-0.048809650401601345,1.5702015998851788,-0.0015854371666819134,0.1138620448871133,-0.23569486765956676,-0.04500044998195463,-0.007148055930935593,0.002320926775144963,-0.4559122507673732,0.0,0.0,0.0,0.0,0.0,0.0
2957,380000000,,shoulder_pan_joint,shoulder_lift_joint,elbow_joint,wrist_1_joint,wrist_2_joint,wrist_3_joint,-0.7849783875564169,-1.3165913164764191,-1.7877542702031555,-0.04007247873903985,1.570198835110264,-0.001649826819276612,0.1009518410688795,-0.21869349673467003,-0.04176741852896093,-0.0065184564016258495,0.001595979849516732,-0.5649842306697253,0.0,0.0,0.0,0.0,0.0,0.0
2957,400000000,,shoulder_pan_joint,shoulder_lift_joint,elbow_joint,wrist_1_joint,wrist_2_joint,wrist_3_joint,-0.7849694684609805,-1.3167766756207824,-1.7867186201445264,-0.040926787020264754,1.5701984057173366,-0.0016774394720027175,0.10304626881756265,-0.22197223591860038,-0.04199414281745839,-0.00824359591467827,0.002140761012861349,-0.5714607067580142,0.0,0.0,0.0,0.0,0.0,0.0
2957,420000000,,shoulder_pan_joint,shoulder_lift_joint,elbow_joint,wrist_1_joint,wrist_2_joint,wrist_3_joint,-0.7849751098014313,-1.3168546446786058,-1.7867185848163398,-0.04092472648749368,1.5702015073358018,-0.0015852815704695544,0.11388119715359726,-0.2355562501792577,-0.04507722692627103,-0.006850419403064523,0.002257368335980503,-0.45588601576532445,0.0,0.0,0.0,0.0,0.0,0.0
2957,440000000,,shoulder_pan_joint,shoulder_lift_joint,elbow_joint,wrist_1_joint,wrist_2_joint,wrist_3_joint,-0.7849786333352942,-1.3167755049767278,-1.7867176137525664,-0.040925282234930194,1.5701988675320795,-0.0016501255462211262,0.10088942345441422,-0.21871223904288145,-0.041755834846899265,-0.006569691169945879,0.0015896745829602626,-0.56501098892707,0.0,0.0,0.0,0.0,0.0,0.0
2957,460000000,,shoulder_pan_joint,shoulder_lift_joint,elbow_joint,wrist_1_joint,wrist_2_joint,wrist_3_joint,-0.7849054068687975,-1.3186565435278252,-1.7867086035752866,-0.04088250161140472,1.570214418345385,-0.0023237951231065423,0.10286640973386892,-0.2217366069958387,-0.04199563109895743,-0.008027834852943228,0.002138620531329599,-0.5706499685929523,0.0,0.0,0.0,0.0,0.0,0.0
2957,480000000,,shoulder_pan_joint,shoulder_lift_joint,elbow_joint,wrist_1_joint,wrist_2_joint,wrist_3_joint,-0.7868022072181313,-1.3209478652300524,-1.785065264918316,-0.04031644633881548,1.5721086400475537,-0.0022218170310424057,0.11367695846608022,-0.23571329212592457,-0.045123928501145216,-0.006725303478698819,0.0022133608298609136,-0.4546816773759421,0.0,0.0,0.0,0.0,0.0,0.0
2957,500000000,,shoulder_pan_joint,shoulder_lift_joint,elbow_joint,wrist_1_joint,wrist_2_joint,wrist_3_joint,-0.7957263395676311,-1.3313822188392228,-1.7773104192727942,-0.03765445911156906,1.5810326361654568,-0.0022559688766357056,0.11369595014368775,-0.23669822923170475,-0.04527990641437185,-0.006645314647834355,0.0021453917907694325,-0.4619944271156969,0.0,0.0,0.0,0.0,0.0,0.0
2957,520000000,,shoulder_pan_joint,shoulder_lift_joint,elbow_joint,wrist_1_joint,wrist_2_joint,wrist_3_joint,-0.8098106015345383,-1.347850688882943,-1.765073495013679,-0.03345421082652855,1.5951140563121733,-0.002290414659425366,0.11342631937451383,-0.23895351346936355,-0.045646930076228553,-0.006636746996738996,0.0017793123789185822,-0.45646897798585195,0.0,0.0,0.0,0.0,0.0,0.0
2957,540000000,,shoulder_pan_joint,shoulder_lift_joint,elbow_joint,wrist_1_joint,wrist_2_joint,wrist_3_joint,-0.8234248283066359,-1.3637710128742349,-1.7532441187531962,-0.029393665226571386,1.6087265525204586,-0.002323665026485955,0.11309174237109003,-0.24116109551820974,-0.046003572275602034,-0.006650240925700102,0.0013678194840131552,-0.4511500021675758,0.0,0.0,0.0,0.0,0.0,0.0
2957,560000000,,shoulder_pan_joint,shoulder_lift_joint,elbow_joint,wrist_1_joint,wrist_2_joint,wrist_3_joint,-0.8337526504115935,-1.3757616053309727,-1.7442665066930347,-0.026313364851727528,1.619053623779533,-0.002458237324179713,0.10147622409771817,-0.22817653189253795,-0.043240891383544255,-0.006883206745515902,0.001038214313834912,-0.5624464077249189,0.0,0.0,0.0,0.0,0.0,0.0
2957,580000000,,shoulder_pan_joint,shoulder_lift_joint,elbow_joint,wrist_1_joint,wrist_2_joint,wrist_3_joint,-0.8465696756608274,-1.391922673235312,-1.7315506699499643,-0.022986656522599347,1.6318682859674238,-0.002401358762098127,0.11308673805168183,-0.24460292368719883,-0.04651225031461037,-0.0067601519142848066,0.0010261751446989098,-0.46133516485294673,0.0,0.0,0.0,0.0,0.0,0.0
2957,600000000,,shoulder_pan_joint,shoulder_lift_joint,elbow_joint,wrist_1_joint,wrist_2_joint,wrist_3_joint,-0.8686847441960754,-1.4228090866921592,-1.7048621958587935,-0.018730279981773457,1.653977600458595,-0.0025351414174386022,0.09939112155948061,-0.23265791461180457,-0.04391624408731609,-0.006630724546859645,0.00021652346697377534,-0.5433566412055479,0.0,0.0,0.0,0.0,0.0,0.0
2957,620000000,,shoulder_pan_joint,shoulder_lift_joint,elbow_joint,wrist_1_joint,wrist_2_joint,wrist_3_joint,-0.8971040841912297,-1.4641452862550395,-1.6683723489284228,-0.013946855133113445,1.6824015073358787,-0.0025092390872796244,0.11060296139523616,-0.2520425377435757,-0.04753152705817654,-0.007028300884835859,-0.00044150862868956586,-0.4346955502128279,0.0,0.0,0.0,0.0,0.0,0.0
2957,640000000,,shoulder_pan_joint,shoulder_lift_joint,elbow_joint,wrist_1_joint,wrist_2_joint,wrist_3_joint,-0.9247512615041806,-1.5042264615905356,-1.632957775256748,-0.009267252199905762,1.7100356171229212,-0.0026688818781206436,0.09751055589611582,-0.24201292433362032,-0.04506362600569247,-0.007650475014211566,-0.0008004751552437503,-0.5210531455840564,0.0,0.0,0.0,0.0,0.0,0.0
2957,660000000,,shoulder_pan_joint,shoulder_lift_joint,elbow_joint,wrist_1_joint,wrist_2_joint,wrist_3_joint,-0.948257291616529,-1.5382326139940847,-1.603859505606973,-0.004936142132513588,1.7335741453123124,-0.002704165825007543,0.09226674085751138,-0.24113459014655692,-0.04494354026888636,-0.006491651481207561,-0.0019232003714671625,-0.5107489683485444,0.0,0.0,0.0,0.0,0.0,0.0
2957,680000000,,shoulder_pan_joint,shoulder_lift_joint,elbow_joint,wrist_1_joint,wrist_2_joint,wrist_3_joint,-0.9709851047059193,-1.5719899969887212,-1.5730143758727104,-0.0018390467253333043,1.7562907579624643,-0.00273011018353575,0.09111857218527605,-0.2451061394354732,-0.045413120104934035,-0.007041463883493249,-0.0026774062106317137,-0.48059858621431645,0.0,0.0,0.0,0.0,0.0,0.0
2957,700000000,,shoulder_pan_joint,shoulder_lift_joint,elbow_joint,wrist_1_joint,wrist_2_joint,wrist_3_joint,-0.9903148066961078,-1.607540382099657,-1.5359501583496407,-0.0033487494480510804,1.7756173899613046,-0.0027995959306084117,0.08981440494803344,-0.2439976527172445,-0.0450897521881668,-0.00639957508511757,-0.0029300136063029683,-0.4873370176724231,0.0,0.0,0.0,0.0,0.0,0.0
2957,720000000,,shoulder_pan_joint,shoulder_lift_joint,elbow_joint,wrist_1_joint,wrist_2_joint,wrist_3_joint,-1.006469530614913,-1.6431813118379788,-1.4953477281336216,-0.00831433599336684,1.791768440143695,-0.0028352269341507252,0.08700981306740133,-0.24347790467236374,-0.04473637222565208,-0.006390812788653388,-0.0033855328210169386,-0.47535791230647506,0.0,0.0,0.0,0.0,0.0,0.0
2957,740000000,,shoulder_pan_joint,shoulder_lift_joint,elbow_joint,wrist_1_joint,wrist_2_joint,wrist_3_joint,-1.022625236667281,-1.678354489776444,-1.4554943404768812,-0.012996232663190277,1.8079213226642494,-0.002869269460824775,0.0839800288318214,-0.24277898110242985,-0.04434359590530268,-0.006467245372960506,-0.003901206384681312,-0.46167513352393114,0.0,0.0,0.0,0.0,0.0,0.0
2957,760000000,,shoulder_pan_joint,shoulder_lift_joint,elbow_joint,wrist_1_joint,wrist_2_joint,wrist_3_joint,-1.040687363061732,-1.7132927465157124,-1.4180638012583149,-0.01549102031025118,1.8259796945268878,-0.0029051573387528506,0.08127344705114108,-0.24213793881961743,-0.04398735685821875,-0.006531121015000085,-0.004454888028266761,-0.4454749128247725,0.0,0.0,0.0,0.0,0.0,0.0
2957,780000000,,shoulder_pan_joint,shoulder_lift_joint,elbow_joint,wrist_1_joint,wrist_2_joint,wrist_3_joint,-1.0565649927979281,-1.7445277046331764,-1.384227331000571,-0.01809006866718743,1.841855196944099,-0.0029352320273181576,0.07873175342672022,-0.24127762539167097,-0.043607257002665434,-0.006646619984212121,-0.004951406827221762,-0.4293527117344941,0.0,0.0,0.0,0.0,0.0,0.0
2957,800000000,,shoulder_pan_joint,shoulder_lift_joint,elbow_joint,wrist_1_joint,wrist_2_joint,wrist_3_joint,-1.0636629704805882,-1.761030210839932,-1.364619521254201,-0.021191335987500892,1.8489519074078178,-0.002946880568837962,0.0772828785309846,-0.2406572418314294,-0.0433484789644758,-0.006786480959599439,-0.005171910439470531,-0.419577893629641,0.0,0.0,0.0,0.0,0.0,0.0
2957,820000000,,shoulder_pan_joint,shoulder_lift_joint,elbow_joint,wrist_1_joint,wrist_2_joint,wrist_3_joint,-1.064553710006912,-1.7665893722181174,-1.355920538772569,-0.02432749958180036,1.849841855427794,-0.0029462855363666662,0.0767279733519558,-0.24025447786465648,-0.04319686382486587,-0.006884126894244558,-0.005181629017957261,-0.4158479779039472,0.0,0.0,0.0,0.0,0.0,0.0
2957,840000000,,shoulder_pan_joint,shoulder_lift_joint,elbow_joint,wrist_1_joint,wrist_2_joint,wrist_3_joint,-1.0661050800260492,-1.7730842447810868,-1.346427875857895,-0.02732128511524312,1.8513925125691841,-0.002947194925672747,0.07619151024324344,-0.23980007018227678,-0.04303428130846698,-0.006971439505550681,-0.0051993563882998806,-0.4117147385497516,0.0,0.0,0.0,0.0,0.0,0.0
2957,860000000,,shoulder_pan_joint,shoulder_lift_joint,elbow_joint,wrist_1_joint,wrist_2_joint,wrist_3_joint,-1.0716449403219332,-1.786518921200983,-1.330072451714429,-0.03023718027796818,1.856931491340962,-0.002955902676425204,0.07510840999948917,-0.23910594567072124,-0.042786613869484236,-0.00709057810127256,-0.005348900176065079,-0.4038218082987115,0.0,0.0,0.0,0.0,0.0,0.0
2957,880000000,,shoulder_pan_joint,shoulder_lift_joint,elbow_joint,wrist_1_joint,wrist_2_joint,wrist_3_joint,-1.072603301320056,-1.788943204772047,-1.3270605519647498,-0.030824558713238304,1.85788948631488,-0.0029575821751262055,0.07489088067757425,-0.23902499822344014,-0.042745515767790065,-0.00713077337622392,-0.005379594674379935,-0.40247597650191413,0.0,0.0,0.0,0.0,0.0,0.0
2957,900000000,,shoulder_pan_joint,shoulder_lift_joint,elbow_joint,wrist_1_joint,wrist_2_joint,wrist_3_joint,-1.0725975497198492,-1.7889290746375544,-1.3270769075283315,-0.030821948170014046,1.8578835481471003,-0.0029572570622393712,0.07493775239728724,-0.23900431130574862,-0.04274582626059198,-0.007101903373158414,-0.005373053129314083,-0.40210543536259724,0.0,0.0,0.0,0.0,0.0,0.0
2957,920000000,,shoulder_pan_joint,shoulder_lift_joint,elbow_joint,wrist_1_joint,wrist_2_joint,wrist_3_joint,-1.0725976952262464,-1.7889287194390482,-1.3270769005328313,-0.03082194114754877,1.8578835277322963,-0.002957021033229701,0.07500332430171879,-0.23898550862124496,-0.042746222314642535,-0.007074610686162108,-0.005363797670046494,-0.401804384192208,0.0,0.0,0.0,0.0,0.0,0.0
2957,940000000,,shoulder_pan_joint,shoulder_lift_joint,elbow_joint,wrist_1_joint,wrist_2_joint,wrist_3_joint,-1.0725978350414271,-1.788928390838004,-1.3270768941375106,-0.030821934518939997,1.8578835084389151,-0.0029567892759150283,0.07507137644865534,-0.23896929274668022,-0.04274698362108165,-0.007048347219254403,-0.005354397336606968,-0.4015082451725663,0.0,0.0,0.0,0.0,0.0,0.0
2957,960000000,,shoulder_pan_joint,shoulder_lift_joint,elbow_joint,wrist_1_joint,wrist_2_joint,wrist_3_joint,-1.072547832270688,-1.7912293216714374,-1.3270618169210797,-0.030737850690629287,1.8578937871134897,-0.0034687003861533228,0.0749946231792366,-0.23870299279606877,-0.04273201941395721,-0.006862109170995279,-0.005350836908442267,-0.4006661164554703,0.0,0.0,0.0,0.0,0.0,0.0
2957,980000000,,shoulder_pan_joint,shoulder_lift_joint,elbow_joint,wrist_1_joint,wrist_2_joint,wrist_3_joint,-1.0740015318246865,-1.7910719627475462,-1.3272608560309216,-0.030701078755427602,1.8593475573985785,-0.003476603556997304,0.07509512310873068,-0.23888726840656566,-0.042765856239454725,-0.006891263283886229,-0.005395150602267779,-0.4004136976096501,0.0,0.0,0.0,0.0,0.0,0.0
2958,0,,shoulder_pan_joint,shoulder_lift_joint,elbow_joint,wrist_1_joint,wrist_2_joint,wrist_3_joint,-1.0808634956800205,-1.7904082455947803,-1.3282017883169148,-0.030527011721178,1.8662089115069627,-0.003518242749002809,0.07236987605823346,-0.24225823437477795,-0.043025894608171744,-0.008944359167593507,-0.005736681468156462,-0.40030791051043074,0.0,0.0,0.0,0.0,0.0,0.0
2958,20000000,,shoulder_pan_joint,shoulder_lift_joint,elbow_joint,wrist_1_joint,wrist_2_joint,wrist_3_joint,-1.0916881892570274,-1.7892367747067315,-1.3296838664055066,-0.030253002255732575,1.8770339600275427,-0.0035754997159287427,0.07239107127361442,-0.24358832035108213,-0.043254182889092996,-0.009266863220459332,-0.006152126947108899,-0.39688561705384034,0.0,0.0,0.0,0.0,0.0,0.0
2958,40000000,,shoulder_pan_joint,shoulder_lift_joint,elbow_joint,wrist_1_joint,wrist_2_joint,wrist_3_joint,-1.1021522980000311,-1.7881056317841022,-1.3311166326584836,-0.029988140083420767,1.88749865496046,-0.0036311584608128555,0.07260245753588482,-0.245032719496449,-0.04349826758415787,-0.009626182686696683,-0.006537734125754053,-0.3935748274072378,0.0,0.0,0.0,0.0,0.0,0.0
2958,60000000,,shoulder_pan_joint,shoulder_lift_joint,elbow_joint,wrist_1_joint,wrist_2_joint,wrist_3_joint,-1.1100934533209932,-1.78724756116838,-1.3322039634284701,-0.029787140341247742,1.8954403062010314,-0.003673119605510422,0.07282959036835697,-0.2461848446610551,-0.04369046144013555,-0.009914748890786584,-0.0068189929145442,-0.39077659028983797,0.0,0.0,0.0,0.0,0.0,0.0
2958,80000000,,shoulder_pan_joint,shoulder_lift_joint,elbow_joint,wrist_1_joint,wrist_2_joint,wrist_3_joint,-1.1210651588412208,-1.7865472322136142,-1.333102097101059,-0.02963081393846778,1.9064149439848208,-0.0037336808326413617,0.07469498247792515,-0.24807072426740917,-0.04400450109140164,-0.010318375254624201,-0.006970494525538006,-0.38810789883779856,0.0,0.0,0.0,0.0,0.0,0.0
2958,100000000,,shoulder_pan_joint,shoulder_lift_joint,elbow_joint,wrist_1_joint,wrist_2_joint,wrist_3_joint,-1.143371419800311,-1.7864227065242337,-1.333304518892283,-0.029639232199055954,1.9287267483736734,-0.0038615992436739077,0.07784425066715081,-0.25147235642744725,-0.04456199770298064,-0.011103714078785631,-0.00736439583858218,-0.3835597633405044,0.0,0.0,0.0,0.0,0.0,0.0
2958,120000000,,shoulder_pan_joint,shoulder_lift_joint,elbow_joint,wrist_1_joint,wrist_2_joint,wrist_3_joint,-1.1735985529795236,-1.7867706438822744,-1.3329430799927788,-0.029778447336656022,1.9589599826416109,-0.0040373692523569815,0.08154975169616518,-0.2569848667899519,-0.045392409633339126,-0.012643426418238124,-0.008008146821160349,-0.3755652332363676,0.0,0.0,0.0,0.0,0.0,0.0
2958,140000000,,shoulder_pan_joint,shoulder_lift_joint,elbow_joint,wrist_1_joint,wrist_2_joint,wrist_3_joint,-1.202943184064706,-1.7870829422078778,-1.332610258993114,-0.029910513483126344,1.9883088348313613,-0.004230344683425535,0.08357701301789644,-0.2607839983497946,-0.045959133660472995,-0.014033596082248745,-0.008838364459452994,-0.3906735665818712,0.0,0.0,0.0,0.0,0.0,0.0
2958,160000000,,shoulder_pan_joint,shoulder_lift_joint,elbow_joint,wrist_1_joint,wrist_2_joint,wrist_3_joint,-1.2271784883534362,-1.786944723826089,-1.3326249673499984,-0.02996788864961175,2.0125509762199734,-0.0042878404383195345,0.10348061824306334,-0.26840857558102127,-0.0480614192193487,-0.011852037771986956,-0.009476567566744983,-0.31595633094720277,0.0,0.0,0.0,0.0,0.0,0.0
2958,180000000,,shoulder_pan_joint,shoulder_lift_joint,elbow_joint,wrist_1_joint,wrist_2_joint,wrist_3_joint,-1.2522442009810169,-1.7874133264307597,-1.3316009405355889,-0.030244763051000767,2.037591297820944,-0.004442242594043577,0.10594045622819218,-0.26893319977122987,-0.048040700830424776,-0.013334826011057621,-0.010025800194733536,-0.32247976189993527,0.0,0.0,0.0,0.0,0.0,0.0
2958,200000000,,shoulder_pan_joint,shoulder_lift_joint,elbow_joint,wrist_1_joint,wrist_2_joint,wrist_3_joint,-1.2799980696649031,-1.7918881221554068,-1.3266690755067199,-0.03131784743323873,2.0653805919716994,-0.004705535528508165,0.09378129930620335,-0.26811032924173794,-0.04716858527229961,-0.01620933952498771,-0.01034648553914565,-0.37894030711306276,0.0,0.0,0.0,0.0,0.0,0.0
2958,220000000,,shoulder_pan_joint,shoulder_lift_joint,elbow_joint,wrist_1_joint,wrist_2_joint,wrist_3_joint,-1.3089574871643128,-1.7979573774885278,-1.3189086590863335,-0.03300252923504399,2.0943449302390764,-0.004810264125530317,0.11205197582135787,-0.2753265395570357,-0.04906123382142813,-0.014371482957849846,-0.01121763434847851,-0.29943888172253,0.0,0.0,0.0,0.0,0.0,0.0
2958,240000000,,shoulder_pan_joint,shoulder_lift_joint,elbow_joint,wrist_1_joint,wrist_2_joint,wrist_3_joint,-1.3374637120328146,-1.8040767872062338,-1.3114278945277436,-0.03461519332615293,2.1228572902577465,-0.005087693134068871,0.09839098487911005,-0.2707796536808974,-0.04750577460657046,-0.01755167738101815,-0.011402183728741414,-0.3589786037492248,0.0,0.0,0.0,0.0,0.0,0.0
2958,260000000,,shoulder_pan_joint,shoulder_lift_joint,elbow_joint,wrist_1_joint,wrist_2_joint,wrist_3_joint,-1.3650770934934426,-1.8083286935776242,-1.3057471975819883,-0.035865447178165866,2.1504754131859087,-0.005125984180684107,0.12141658691506652,-0.27768458453535927,-0.049224494639525496,-0.01660311508369261,-0.011507223364046318,-0.2609573478947063,0.0,0.0,0.0,0.0,0.0,0.0
2958,280000000,,shoulder_pan_joint,shoulder_lift_joint,elbow_joint,wrist_1_joint,wrist_2_joint,wrist_3_joint,-1.3897844044089922,-1.8126630434561601,-1.3003547355256755,-0.03705214174131921,2.1751924304801378,-0.005325552576577408,0.11858853646439407,-0.2798940341277002,-0.049468282048632295,-0.017491932507997965,-0.012514586617418742,-0.2823760728085296,0.0,0.0,0.0,0.0,0.0,0.0
2958,300000000,,shoulder_pan_joint,shoulder_lift_joint,elbow_joint,wrist_1_joint,wrist_2_joint,wrist_3_joint,-1.4029574934308133,-1.8163115513152555,-1.296028437680273,-0.038024039715658375,2.1883762889243137,-0.0055253183413697116,0.10549648234645678,-0.27546814925663243,-0.0481065582894169,-0.019624064635777372,-0.01247355520315949,-0.3363358992919668,0.0,0.0,0.0,0.0,0.0,0.0
2958,320000000,,shoulder_pan_joint,shoulder_lift_joint,elbow_joint,wrist_1_joint,wrist_2_joint,wrist_3_joint,-1.4074534071137448,-1.8186058998784818,-1.2927638768363625,-0.03879935345187224,2.1928750572812383,-0.005410776323121702,0.1239700491417519,-0.27786188575441495,-0.04910117395653579,-0.017957595777527424,-0.012395190861928237,-0.22889420488429524,0.0,0.0,0.0,0.0,0.0,0.0
2958,340000000,,shoulder_pan_joint,shoulder_lift_joint,elbow_joint,wrist_1_joint,wrist_2_joint,wrist_3_joint,-1.412660956989921,-1.8212393781060046,-1.289524084346617,-0.039560124013552134,2.198078764946583,-0.005568650165484357,0.11620060838416692,-0.27898918572138076,-0.0493031157619046,-0.01744124766710986,-0.01356525589985623,-0.30891540482210966,0.0,0.0,0.0,0.0,0.0,0.0
2958,360000000,,shoulder_pan_joint,shoulder_lift_joint,elbow_joint,wrist_1_joint,wrist_2_joint,wrist_3_joint,-1.4233427336799283,-1.8241652200184788,-1.285651942834095,-0.040448157444174626,2.2087635475533016,-0.005591096199879075,0.12115344203059193,-0.2821560528096809,-0.049566268570255256,-0.019643676686959988,-0.013096065404242366,-0.2751720332275986,0.0,0.0,0.0,0.0,0.0,0.0
2958,380000000,,shoulder_pan_joint,shoulder_lift_joint,elbow_joint,wrist_1_joint,wrist_2_joint,wrist_3_joint,-1.425253440666097,-1.8247818997858598,-1.2849020556739994,-0.040623866414088994,2.2106768708133515,-0.005595159479947043,0.12268201203637455,-0.28291206333998586,-0.049541924603369036,-0.020709896832765362,-0.012782655544309095,-0.2521769197613624,0.0,0.0,0.0,0.0,0.0,0.0
2958,400000000,,shoulder_pan_joint,shoulder_lift_joint,elbow_joint,wrist_1_joint,wrist_2_joint,wrist_3_joint,-1.4252366678432526,-1.824784033442917,-1.2849066386477777,-0.04062233086113132,2.2106622184464833,-0.005574068680290978,0.12212927480389317,-0.279426478062472,-0.04916800087901496,-0.01898432448726539,-0.012815124744441152,-0.24501213993281784,0.0,0.0,0.0,0.0,0.0,0.0
2958,420000000,,shoulder_pan_joint,shoulder_lift_joint,elbow_joint,wrist_1_joint,wrist_2_joint,wrist_3_joint,-1.4251187447035214,-1.8272956772783395,-1.2848951232334276,-0.040543321948717015,2.2106898852420027,-0.00593690984802997,0.1253350570991352,-0.27941033325713016,-0.04915954099023678,-0.01947847420110449,-0.01261327338089488,-0.22552163828535077,0.0,0.0,0.0,0.0,0.0,0.0
2958,440000000,,shoulder_pan_joint,shoulder_lift_joint,elbow_joint,wrist_1_joint,wrist_2_joint,wrist_3_joint,-1.4238608280025034,-1.826785159869992,-1.2839128945119942,-0.042007449658094664,2.2094327929062274,-0.00593116404053351,0.12581486231947528,-0.2784861996472563,-0.048938089401533325,-0.019615296801740123,-0.012279909917152367,-0.23096360809328664,0.0,0.0,0.0,0.0,0.0,0.0
2958,460000000,,shoulder_pan_joint,shoulder_lift_joint,elbow_joint,wrist_1_joint,wrist_2_joint,wrist_3_joint,-1.4170494197477677,-1.824296557721497,-1.2785863001795281,-0.049944104725712535,2.202610499550758,-0.006025875264392688,0.10490648607345679,-0.27498702431233446,-0.04784959443286818,-0.020375791874561955,-0.012903211713984739,-0.3404118079863096,0.0,0.0,0.0,0.0,0.0,0.0
2958,480000000,,shoulder_pan_joint,shoulder_lift_joint,elbow_joint,wrist_1_joint,wrist_2_joint,wrist_3_joint,-1.403412555373282,-1.8186628179280575,-1.267944704610672,-0.0658169889923137,2.1889772820206055,-0.005745085932592708,0.12227399487302577,-0.2785840991175934,-0.04875432106799549,-0.01966005052198838,-0.012341561462771614,-0.22776588197572584,0.0,0.0,0.0,0.0,0.0,0.0
2958,500000000,,shoulder_pan_joint,shoulder_lift_joint,elbow_joint,wrist_1_joint,wrist_2_joint,wrist_3_joint,-1.3842271518852023,-1.811052496558938,-1.2529582230150123,-0.08816250538144743,2.169781465578616,-0.005636313961575823,0.11535385936681229,-0.2826649395814652,-0.048922123958517916,-0.021591201845268304,-0.012447963274958212,-0.2840535757682228,0.0,0.0,0.0,0.0,0.0,0.0
2958,520000000,,shoulder_pan_joint,shoulder_lift_joint,elbow_joint,wrist_1_joint,wrist_2_joint,wrist_3_joint,-1.3607063970436126,-1.8017244520531506,-1.2345917811643385,-0.11554822273461429,2.1462553370072417,-0.0054342140251177895,0.11253913352123986,-0.2842127058322217,-0.048658636510664155,-0.02341699155092991,-0.011923312155788145,-0.2882633561875943,0.0,0.0,0.0,0.0,0.0,0.0
2958,540000000,,shoulder_pan_joint,shoulder_lift_joint,elbow_joint,wrist_1_joint,wrist_2_joint,wrist_3_joint,-1.3323626412640834,-1.7905553110742254,-1.212459769417345,-0.14854974619533845,2.117902709573631,-0.005217240647556132,0.1101101769924702,-0.28054786625162775,-0.047911395221776565,-0.022377902554183815,-0.011778732262169451,-0.30878452758818875,0.0,0.0,0.0,0.0,0.0,0.0
2958,560000000,,shoulder_pan_joint,shoulder_lift_joint,elbow_joint,wrist_1_joint,wrist_2_joint,wrist_3_joint,-1.2988950029468622,-1.7769362446618793,-1.1863011797610739,-0.18756118248583675,2.0843973333858443,-0.004908565052282654,0.11190410970511272,-0.28376689134534505,-0.04751938397892275,-0.026346823149783094,-0.00988247577830835,-0.29377628351151275,0.0,0.0,0.0,0.0,0.0,0.0
2958,580000000,,shoulder_pan_joint,shoulder_lift_joint,elbow_joint,wrist_1_joint,wrist_2_joint,wrist_3_joint,-1.2602134638497562,-1.7620301142572838,-1.1561212453525842,-0.23254822126274988,2.045736673041201,-0.004677260118077342,0.09058222205051814,-0.2750565384766426,-0.04519300986368435,-0.027583797711578706,-0.009510873450407322,-0.38866966281152443,0.0,0.0,0.0,0.0,0.0,0.0
2958,600000000,,shoulder_pan_joint,shoulder_lift_joint,elbow_joint,wrist_1_joint,wrist_2_joint,wrist_3_joint,-1.2164071216818622,-1.7446212881903502,-1.1219153867893077,-0.2835508044580166,2.0019191623646417,-0.00430073300925482,0.08541213060110617,-0.27348485976116776,-0.04425024652779519,-0.029029016326522217,-0.008721989307564824,-0.410466373221515,0.0,0.0,0.0,0.0,0.0,0.0
2958,620000000,,shoulder_pan_joint,shoulder_lift_joint,elbow_joint,wrist_1_joint,wrist_2_joint,wrist_3_joint,-1.167444794105343,-1.7251430091343112,-1.0836851183899832,-0.3405543217493525,1.9529479516231536,-0.0038531763402813723,0.0830021700772694,-0.2707533954110688,-0.04307933544637277,-0.030543364897029135,-0.007379507581583431,-0.3979801888938245,0.0,0.0,0.0,0.0,0.0,0.0
2958,640000000,,shoulder_pan_joint,shoulder_lift_joint,elbow_joint,wrist_1_joint,wrist_2_joint,wrist_3_joint,-1.1142195094233758,-1.7039619104431196,-1.0421289655102708,-0.4025173046475272,1.89971671723249,-0.00339107354166579,0.08234432261937442,-0.26644694241871836,-0.0416261013746525,-0.03200272163103535,-0.005437387123802215,-0.40207327255316855,0.0,0.0,0.0,0.0,0.0,0.0
2958,660000000,,shoulder_pan_joint,shoulder_lift_joint,elbow_joint,wrist_1_joint,wrist_2_joint,wrist_3_joint,-1.060627024688661,-1.6826326897030235,-1.0002867987197899,-0.464907568688373,1.8461183473581215,-0.0029520276835608428,0.08146999454377193,-0.2617650553639944,-0.04015620474138193,-0.03359682365459038,-0.003677389303455307,-0.430447491201565,0.0,0.0,0.0,0.0,0.0,0.0
2958,680000000,,shoulder_pan_joint,shoulder_lift_joint,elbow_joint,wrist_1_joint,wrist_2_joint,wrist_3_joint,-1.009962442197998,-1.6624098853419316,-0.9607305123841714,-0.5238902693109386,1.7954481992698188,-0.002534992034924244,0.08237539406619362,-0.2566831148081253,-0.03880797129209235,-0.03444717062520908,-0.002121596915086059,-0.45667937416238946,0.0,0.0,0.0,0.0,0.0,0.0
2958,700000000,,shoulder_pan_joint,shoulder_lift_joint,elbow_joint,wrist_1_joint,wrist_2_joint,wrist_3_joint,-0.9640877692664525,-1.6441413267367073,-0.9249157401813966,-0.5772928618602506,1.7495698424138482,-0.002125410730281274,0.08193453674132703,-0.2530885845699154,-0.03770171856785243,-0.035602069566622596,-0.0008621232654095791,-0.4591584326691734,0.0,0.0,0.0,0.0,0.0,0.0
2958,720000000,,shoulder_pan_joint,shoulder_lift_joint,elbow_joint,wrist_1_joint,wrist_2_joint,wrist_3_joint,-0.923669160266682,-1.6276866963416161,-0.8933503347490426,-0.6243777759108404,1.709131245840661,-0.0017517772302726442,0.09552245371726878,-0.2561173152952213,-0.03795304372365371,-0.0365993080766166,0.001005367425292794,-0.38866728457263333,0.0,0.0,0.0,0.0,0.0,0.0
2958,740000000,,shoulder_pan_joint,shoulder_lift_joint,elbow_joint,wrist_1_joint,wrist_2_joint,wrist_3_joint,-0.8884682718772012,-1.6141465842810963,-0.8658829074012351,-0.6653152261874338,1.6739497501937715,-0.001457464684093246,0.08067237721608425,-0.23992352818360013,-0.03498759715134159,-0.035285451210947505,0.001436037058222709,-0.5075912102728072,0.0,0.0,0.0,0.0,0.0,0.0
2958,760000000,,shoulder_pan_joint,shoulder_lift_joint,elbow_joint,wrist_1_joint,wrist_2_joint,wrist_3_joint,-0.8584567874694553,-1.6016574296018682,-0.8424411333509196,-0.7002832738227589,1.6439147619512244,-0.0011240361801645449,0.08782603177334905,-0.24139103190438854,-0.03498451008737924,-0.03671716032887129,0.0029386854962125467,-0.490812515820535,0.0,0.0,0.0,0.0,0.0,0.0
2958,780000000,,shoulder_pan_joint,shoulder_lift_joint,elbow_joint,wrist_1_joint,wrist_2_joint,wrist_3_joint,-0.8335865813992696,-1.5917942216846406,-0.8230240764239598,-0.7292378830778334,1.6190404736219923,-0.0014653314524997185,0.08544418885339039,-0.23516057703906712,-0.03383762542674851,-0.036366742382307415,0.0034901762988467228,-0.5177682956287163,0.0,0.0,0.0,0.0,0.0,0.0
2958,800000000,,shoulder_pan_joint,shoulder_lift_joint,elbow_joint,wrist_1_joint,wrist_2_joint,wrist_3_joint,-0.8138647336472999,-1.5839188407255378,-0.807629655694643,-0.7521918142676549,1.5993204574667077,-0.0012334907948030605,0.0858778694112985,-0.2326147575247876,-0.03330897658523713,-0.036515797057096955,0.004067772946241752,-0.5235981165723702,0.0,0.0,0.0,0.0,0.0,0.0
2958,820000000,,shoulder_pan_joint,shoulder_lift_joint,elbow_joint,wrist_1_joint,wrist_2_joint,wrist_3_joint,-0.7993037899529796,-1.5781891728224018,-0.7962600313021735,-0.7691451579579196,1.5847581349024074,-0.0009472258209672901,0.09536057536002217,-0.24168466577973258,-0.034585304848897436,-0.038073018922873514,0.0046469902631293206,-0.4092397496221312,0.0,0.0,0.0,0.0,0.0,0.0
2958,840000000,,shoulder_pan_joint,shoulder_lift_joint,elbow_joint,wrist_1_joint,wrist_2_joint,wrist_3_joint,-0.7895277012406501,-1.5742247563272773,-0.7886332012564825,-0.7805166434310413,1.5749851297961461,-0.0010014585624782413,0.08404682800942126,-0.2274366194247513,-0.03235495729090687,-0.03615903093485817,0.0044176821676275395,-0.5332448321957495,0.0,0.0,0.0,0.0,0.0,0.0
2958,860000000,,shoulder_pan_joint,shoulder_lift_joint,elbow_joint,wrist_1_joint,wrist_2_joint,wrist_3_joint,-0.7854397886006543,-1.5732147919749977,-0.7854571552240683,-0.7852363769128399,1.5709197538584432,-0.0008566367440403511,0.08122202522660532,-0.22627074779405704,-0.03211457370798099,-0.036122408691292685,0.00407511741274913,-0.5214146367965677,0.0,0.0,0.0,0.0,0.0,0.0
2958,880000000,,shoulder_pan_joint,shoulder_lift_joint,elbow_joint,wrist_1_joint,wrist_2_joint,wrist_3_joint,-0.7853590861921935,-1.5725354091755497,-0.7853789894452481,-0.7853685171156073,1.5708177007183286,-0.0009539825953375214,0.08600728263702603,-0.22922128429449207,-0.032594736078564,-0.036851537314780636,0.00472838651559054,-0.5233019085574594,0.0,0.0,0.0,0.0,0.0,0.0
2958,900000000,,shoulder_pan_joint,shoulder_lift_joint,elbow_joint,wrist_1_joint,wrist_2_joint,wrist_3_joint,-0.7853691054547562,-1.5725693665455882,-0.7853790779734187,-0.7853678042968832,1.5708179560082725,-0.0009600326618901533,0.08246432921751828,-0.2261183769306096,-0.0321068526259195,-0.03603998577949641,0.004203376887805005,-0.5279644352742852,0.0,0.0,0.0,0.0,0.0,0.0
2958,920000000,,shoulder_pan_joint,shoulder_lift_joint,elbow_joint,wrist_1_joint,wrist_2_joint,wrist_3_joint,-0.7853150038185213,-1.574190260323018,-0.7853579720511847,-0.7853369085204776,1.5708377787878414,-0.0016272681290088187,0.0881286207847814,-0.231441753199838,-0.03293511658995518,-0.037157054950111124,0.004885355821843684,-0.5013555158535183,0.0,0.0,0.0,0.0,0.0,0.0
2958,940000000,,shoulder_pan_joint,shoulder_lift_joint,elbow_joint,wrist_1_joint,wrist_2_joint,wrist_3_joint,-0.7853270780393817,-1.5726902572367205,-0.7896804575410608,-0.7826306462007118,1.5708390220210333,-0.0016356287848617868,0.0831008595268452,-0.22598774863523335,-0.03214741260248788,-0.03580538470809802,0.004369227298972482,-0.5334427445697614,0.0,0.0,0.0,0.0,0.0,0.0
2958,960000000,,shoulder_pan_joint,shoulder_lift_joint,elbow_joint,wrist_1_joint,wrist_2_joint,wrist_3_joint,-0.7853247067949791,-1.565139817026723,-0.8100684090880916,-0.7698566060009071,1.5708410501650167,-0.0015194320714790877,0.09554056546588026,-0.23960118201874442,-0.0344045978877614,-0.037437104273337685,0.00497067646715868,-0.4083282728891031,0.0,0.0,0.0,0.0,0.0,0.0
2958,980000000,,shoulder_pan_joint,shoulder_lift_joint,elbow_joint,wrist_1_joint,wrist_2_joint,wrist_3_joint,-0.7853178476441842,-1.5530676431116053,-0.8422388321648979,-0.7496979069762748,1.570838483455879,-0.0016432655717695255,0.08541868593102844,-0.22673930283823684,-0.032742359403374555,-0.034752863866719275,0.004601927729257244,-0.5362199173370278,0.0,0.0,0.0,0.0,0.0,0.0
2959,0,,shoulder_pan_joint,shoulder_lift_joint,elbow_joint,wrist_1_joint,wrist_2_joint,wrist_3_joint,-0.7852986324397255,-1.5420739866478765,-0.8733382365358473,-0.7301935940260504,1.5708418849883694,-0.001530050289743734,0.08322969716057671,-0.22617746792091475,-0.03289866259870999,-0.0340048660254626,0.004155760458947451,-0.5240620771414589,0.0,0.0,0.0,0.0,0.0,0.0
2959,20000000,,shoulder_pan_joint,shoulder_lift_joint,elbow_joint,wrist_1_joint,wrist_2_joint,wrist_3_joint,-0.7853157669244979,-1.5326272270922638,-0.8969387540083495,-0.7154229060666513,1.5708388640576851,-0.0016408329028632096,0.08838011794277618,-0.22900740215502852,-0.03358159066660826,-0.034119851494440634,0.004791416711589207,-0.5274640116524274,0.0,0.0,0.0,0.0,0.0,0.0
2959,40000000,,shoulder_pan_joint,shoulder_lift_joint,elbow_joint,wrist_1_joint,wrist_2_joint,wrist_3_joint,-0.7852952516299752,-1.5237787831902931,-0.922765119548508,-0.6990586055614241,1.5708415638257236,-0.0015446815676387615,0.08486177514007617,-0.22611619254968135,-0.033360156310385136,-0.03279698635615047,0.004281278088832611,-0.532130805575902,0.0,0.0,0.0,0.0,0.0,0.0
2959,60000000,,shoulder_pan_joint,shoulder_lift_joint,elbow_joint,wrist_1_joint,wrist_2_joint,wrist_3_joint,-0.7853139449500235,-1.5111540798058183,-0.9570374357643541,-0.6768300709851696,1.5708384785419485,-0.0016522256539044378,0.08829077365190655,-0.226722503533279,-0.033817114655456115,-0.03199581388227335,0.0046936741881757685,-0.5434863420353493,0.0,0.0,0.0,0.0,0.0,0.0
2959,80000000,,shoulder_pan_joint,shoulder_lift_joint,elbow_joint,wrist_1_joint,wrist_2_joint,wrist_3_joint,-0.7853070841440655,-1.4976091363695456,-0.9963356181811776,-0.6509874639911057,1.5708378203726427,-0.001636524563616959,0.09340576808194535,-0.23189156856450238,-0.03498927445837241,-0.03212960054495806,0.005055453858093181,-0.5138068232087609,0.0,0.0,0.0,0.0,0.0,0.0
2959,100000000,,shoulder_pan_joint,shoulder_lift_joint,elbow_joint,wrist_1_joint,wrist_2_joint,wrist_3_joint,-0.7852918400472975,-1.485162630119917,-1.0346943055059432,-0.6257581661200335,1.5708414810037645,-0.0015547309918551022,0.08761396170148797,-0.22616731569166548,-0.03445506485230487,-0.03006409433194157,0.004318508620718885,-0.5374794831920884,0.0,0.0,0.0,0.0,0.0,0.0
2959,120000000,,shoulder_pan_joint,shoulder_lift_joint,elbow_joint,wrist_1_joint,wrist_2_joint,wrist_3_joint,-0.7853107209145724,-1.472402328256055,-1.0696562031183614,-0.6029770064477367,1.5708381139160306,-0.0016560235822460356,0.09080929201073401,-0.2267609758084581,-0.034926570210948915,-0.029247559036940984,0.004653674386423386,-0.547757438850059,0.0,0.0,0.0,0.0,0.0,0.0
2959,140000000,,shoulder_pan_joint,shoulder_lift_joint,elbow_joint,wrist_1_joint,wrist_2_joint,wrist_3_joint,-0.7853030713860374,-1.460583978016004,-1.103922717333468,-0.5804459188702218,1.570837767582498,-0.0016358332053174607,0.0958109807138933,-0.23216325440084778,-0.03610208467782483,-0.029533279652822486,0.004980796806314511,-0.5179494331654515,0.0,0.0,0.0,0.0,0.0,0.0
2959,160000000,,shoulder_pan_joint,shoulder_lift_joint,elbow_joint,wrist_1_joint,wrist_2_joint,wrist_3_joint,-0.7852888330789192,-1.4514875638832159,-1.1346471943598457,-0.5594925857169599,1.5708412982229518,-0.0015612007408849493,0.08980616627997673,-0.2261996705457031,-0.03545449321149585,-0.027652201866970816,0.0042177578917205055,-0.5412710969618053,0.0,0.0,0.0,0.0,0.0,0.0
2959,180000000,,shoulder_pan_joint,shoulder_lift_joint,elbow_joint,wrist_1_joint,wrist_2_joint,wrist_3_joint,-0.7853084518347471,-1.4427204842988681,-1.1621296939142907,-0.5401958168535526,1.5708376682324356,-0.0016575028608549758,0.09265427728351916,-0.22659228477944804,-0.03583637834317699,-0.02690652701858509,0.004541693086498367,-0.5514927617155669,0.0,0.0,0.0,0.0,0.0,0.0
2959,200000000,,shoulder_pan_joint,shoulder_lift_joint,elbow_joint,wrist_1_joint,wrist_2_joint,wrist_3_joint,-0.7853003013104125,-1.4344079859805996,-1.189638123703796,-0.5209185971768155,1.5708374982909934,-0.001634142265208638,0.09744843618750024,-0.23205017029402136,-0.03697139133560734,-0.027292450677958824,0.004862343257171407,-0.5212634014516015,0.0,0.0,0.0,0.0,0.0,0.0
2959,220000000,,shoulder_pan_joint,shoulder_lift_joint,elbow_joint,wrist_1_joint,wrist_2_joint,wrist_3_joint,-0.7852866742893339,-1.4258659633843616,-1.2191055720167254,-0.500665018107668,1.5708410540764826,-0.001565161486472455,0.09142048884493079,-0.2259690367895335,-0.03628445229393584,-0.02548881346545573,0.004076832935043684,-0.5445095670106832,0.0,0.0,0.0,0.0,0.0,0.0
2959,240000000,,shoulder_pan_joint,shoulder_lift_joint,elbow_joint,wrist_1_joint,wrist_2_joint,wrist_3_joint,-0.7853062901608103,-1.4163487001402393,-1.248146020062764,-0.48055859779388577,1.5708372176286662,-0.0016583427607868018,0.09429784555631782,-0.2263415747544711,-0.036680928770930654,-0.024711548029107355,0.004377155850180406,-0.5553007739819525,0.0,0.0,0.0,0.0,0.0,0.0
2959,260000000,,shoulder_pan_joint,shoulder_lift_joint,elbow_joint,wrist_1_joint,wrist_2_joint,wrist_3_joint,-0.7852974736003899,-1.4087395204874777,-1.274987138274576,-0.4612473050170838,1.5708368661811951,-0.0016332929672122631,0.09906665338597928,-0.23187867188862987,-0.03783368652132435,-0.0250847773279419,0.004682279087391716,-0.5250278545844085,0.0,0.0,0.0,0.0,0.0,0.0
2959,280000000,,shoulder_pan_joint,shoulder_lift_joint,elbow_joint,wrist_1_joint,wrist_2_joint,wrist_3_joint,-0.7852844785313433,-1.4027761679094635,-1.3004640909407952,-0.4424046180785721,1.570840736510002,-0.0015672487947906433,0.09295577246081636,-0.2257342591982509,-0.03709726876281627,-0.0233664259744355,0.003894493051758565,-0.5479585935435575,0.0,0.0,0.0,0.0,0.0,0.0
2959,300000000,,shoulder_pan_joint,shoulder_lift_joint,elbow_joint,wrist_1_joint,wrist_2_joint,wrist_3_joint,-0.7853038641480099,-1.3953767910414534,-1.326164383801693,-0.423515133702022,1.5708366914711682,-0.0016558234381172099,0.09585065506131232,-0.2260860755955495,-0.037487753931317314,-0.022509428265253484,0.004203576017371015,-0.5589061897331051,0.0,0.0,0.0,0.0,0.0,0.0
2959,320000000,,shoulder_pan_joint,shoulder_lift_joint,elbow_joint,wrist_1_joint,wrist_2_joint,wrist_3_joint,-0.785294314391126,-1.3879219795209918,-1.3527743376134325,-0.40427561602930506,1.5708361347894675,-0.0016283558149119415,0.10084346922881593,-0.231490120886441,-0.038680527972096757,-0.02258729956327965,0.0044682531407113715,-0.527247046737257,0.0,0.0,0.0,0.0,0.0,0.0
2959,340000000,,shoulder_pan_joint,shoulder_lift_joint,elbow_joint,wrist_1_joint,wrist_2_joint,wrist_3_joint,-0.7852824148439268,-1.3815928438256897,-1.3789006869136813,-0.385159746805007,1.570840384335792,-0.0015696239651870059,0.09443289953224368,-0.22547490569871526,-0.03787933945249933,-0.021321086438164105,0.0036625340260366054,-0.5517099583905982,0.0,0.0,0.0,0.0,0.0,0.0
2959,360000000,,shoulder_pan_joint,shoulder_lift_joint,elbow_joint,wrist_1_joint,wrist_2_joint,wrist_3_joint,-0.7853021683752859,-1.3751138540119943,-1.4034050875207065,-0.36654290695920455,1.5708362102647868,-0.0016559450447068969,0.09720710658636832,-0.22579516161017832,-0.03825651119364548,-0.02047038790279787,0.003935390111204473,-0.5639372151225888,0.0,0.0,0.0,0.0,0.0,0.0
2959,380000000,,shoulder_pan_joint,shoulder_lift_joint,elbow_joint,wrist_1_joint,wrist_2_joint,wrist_3_joint,-0.785292461341685,-1.369917628280911,-1.4268857159220403,-0.34817934588628585,1.5708354804702633,-0.0016326238225037315,0.10216192645560915,-0.23138033302948097,-0.03947136155736253,-0.020536697129245773,0.004216792040284113,-0.5376575378164016,0.0,0.0,0.0,0.0,0.0,0.0
2959,400000000,,shoulder_pan_joint,shoulder_lift_joint,elbow_joint,wrist_1_joint,wrist_2_joint,wrist_3_joint,-0.7852813510591501,-1.3653850618740702,-1.4505325805401341,-0.32974223172320194,1.5708400037602592,-0.0015749631902179928,0.09539270588891686,-0.22488122989696058,-0.03853880564611034,-0.019360717262155824,0.00340486726122979,-0.5556100953048819,0.0,0.0,0.0,0.0,0.0,0.0
2959,420000000,,shoulder_pan_joint,shoulder_lift_joint,elbow_joint,wrist_1_joint,wrist_2_joint,wrist_3_joint,-0.7853010247216519,-1.3590459278385527,-1.4748544412362055,-0.31116419437451803,1.570835696667059,-0.0016653436461533389,0.09821186519432717,-0.22523382369428407,-0.0389264078894056,-0.01848757424453673,0.0036678133161239454,-0.5691499417164025,0.0,0.0,0.0,0.0,0.0,0.0
2959,440000000,,shoulder_pan_joint,shoulder_lift_joint,elbow_joint,wrist_1_joint,wrist_2_joint,wrist_3_joint,-0.7852904945007353,-1.3535523432898717,-1.498796232399803,-0.2926374888681469,1.570834677068751,-0.0016409291290617745,0.10339656093809133,-0.2308683942723167,-0.040198080774814904,-0.018366777582080163,0.003948067171630418,-0.5419701139066406,0.0,0.0,0.0,0.0,0.0,0.0
2959,460000000,,shoulder_pan_joint,shoulder_lift_joint,elbow_joint,wrist_1_joint,wrist_2_joint,wrist_3_joint,-0.785279288239014,-1.349888133232045,-1.5214659217067563,-0.2743027711399524,1.5708394209409562,-0.0015742952240227481,0.0966182619094882,-0.22377027355473023,-0.0392226819635475,-0.016844409339092592,0.003090898670222525,-0.5565575284214577,0.0,0.0,0.0,0.0,0.0,0.0
2959,480000000,,shoulder_pan_joint,shoulder_lift_joint,elbow_joint,wrist_1_joint,wrist_2_joint,wrist_3_joint,-0.7853000740853346,-1.345613185186,-1.5433174783304828,-0.2561354679252643,1.570835126277502,-0.0016715387652377345,0.09905776025915583,-0.22453081957005172,-0.03954459676332178,-0.01652746268878691,0.003370557031840783,-0.5729391653115645,0.0,0.0,0.0,0.0,0.0,0.0
2959,500000000,,shoulder_pan_joint,shoulder_lift_joint,elbow_joint,wrist_1_joint,wrist_2_joint,wrist_3_joint,-0.7852894294526607,-1.3417780207933347,-1.5652926440822545,-0.23792181993682604,1.5708339171494332,-0.0016697600396105017,0.10430908977838764,-0.23042947968913385,-0.04086178151621467,-0.016385376824727738,0.003677381504283546,-0.5490178488632913,0.0,0.0,0.0,0.0,0.0,0.0
2959,520000000,,shoulder_pan_joint,shoulder_lift_joint,elbow_joint,wrist_1_joint,wrist_2_joint,wrist_3_joint,-0.7852778984414499,-1.3382477964934054,-1.5878109573853196,-0.21960026881632988,1.5708389088697405,-0.0015727347535330338,0.09761299707097923,-0.22316089449926768,-0.039871821672651575,-0.014794379361795285,0.002793963405033184,-0.5582317370853429,0.0,0.0,0.0,0.0,0.0,0.0
2959,540000000,,shoulder_pan_joint,shoulder_lift_joint,elbow_joint,wrist_1_joint,wrist_2_joint,wrist_3_joint,-0.7852979066891823,-1.33369835867345,-1.6100155463458172,-0.20133828523116648,1.5708340520983635,-0.0016564925648987483,0.10005074873051342,-0.22284256035240368,-0.04017608541592088,-0.013647628777140652,0.0029931499226308333,-0.5715434466313007,0.0,0.0,0.0,0.0,0.0,0.0
2959,560000000,,shoulder_pan_joint,shoulder_lift_joint,elbow_joint,wrist_1_joint,wrist_2_joint,wrist_3_joint,-0.7852878696817038,-1.3307405486736688,-1.6311633260773775,-0.18308465950744335,1.5708329086496233,-0.0016467207163577413,0.10519733238165685,-0.22941848961622396,-0.041473691131000745,-0.014128354495898998,0.003332002467504043,-0.5480996128409333,0.0,0.0,0.0,0.0,0.0,0.0
2959,580000000,,shoulder_pan_joint,shoulder_lift_joint,elbow_joint,wrist_1_joint,wrist_2_joint,wrist_3_joint,-0.7852760848162816,-1.3291983240243361,-1.6516358654268561,-0.1648110609079314,1.570838176654532,-0.0015654287155992819,0.09852335313766825,-0.22105797640486524,-0.04051860366771498,-0.011451609721891853,0.0023737815526227377,-0.5560165086867317,0.0,0.0,0.0,0.0,0.0,0.0
2959,600000000,,shoulder_pan_joint,shoulder_lift_joint,elbow_joint,wrist_1_joint,wrist_2_joint,wrist_3_joint,-0.7852961337985658,-1.326257828614879,-1.672205659715142,-0.14657518929730085,1.5708328320040694,-0.0016580059464903485,0.1007209155049951,-0.22111824314859385,-0.04078288131288854,-0.01073883946708254,0.0025488407488799963,-0.5709234181629641,0.0,0.0,0.0,0.0,0.0,0.0
2959,620000000,,shoulder_pan_joint,shoulder_lift_joint,elbow_joint,wrist_1_joint,wrist_2_joint,wrist_3_joint,-0.7852872704328382,-1.323453723597698,-1.693224332188799,-0.12831364633081233,1.5708320200618573,-0.0016633490106876536,0.1057584289873102,-0.22863002402885801,-0.04203109748328693,-0.012172007865793977,0.00298410518520862,-0.5528212512120902,0.0,0.0,0.0,0.0,0.0,0.0
2959,640000000,,shoulder_pan_joint,shoulder_lift_joint,elbow_joint,wrist_1_joint,wrist_2_joint,wrist_3_joint,-0.78527550111881,-1.3216969163441252,-1.7134568310319143,-0.11050175417612795,1.5708377516448664,-0.0015698277659748072,0.09918819709666062,-0.22091694427037945,-0.04108131064154774,-0.01003917886907979,0.0020109526012377227,-0.5590607500712652,0.0,0.0,0.0,0.0,0.0,0.0
2959,660000000,,shoulder_pan_joint,shoulder_lift_joint,elbow_joint,wrist_1_joint,wrist_2_joint,wrist_3_joint,-0.7852950144289297,-1.319733218738918,-1.730821098168878,-0.09448611004990148,1.5708319698717492,-0.0016624751523002246,0.10129959268005992,-0.22040377167941394,-0.041333589606180166,-0.008841830157160113,0.002121312593762109,-0.5737618964351812,0.0,0.0,0.0,0.0,0.0,0.0
2959,680000000,,shoulder_pan_joint,shoulder_lift_joint,elbow_joint,wrist_1_joint,wrist_2_joint,wrist_3_joint,-0.785286762062829,-1.319092654301424,-1.7461651247505987,-0.07973165286429218,1.5708311078020953,-0.0016568475053277965,0.106129902191605,-0.22762658185020068,-0.042484113457235795,-0.010294634349558462,0.0026349056179471655,-0.5534187695307234,0.0,0.0,0.0,0.0,0.0,0.0
2959,700000000,,shoulder_pan_joint,shoulder_lift_joint,elbow_joint,wrist_1_joint,wrist_2_joint,wrist_3_joint,-0.7852746925546237,-1.319084177751611,-1.7617299710628602,-0.06483425126850229,1.5708371967122963,-0.0015648443997182682,0.0996060838776279,-0.21947794155005906,-0.04156251645853537,-0.007626872399915885,0.0016557192430620843,-0.5572582593396866,0.0,0.0,0.0,0.0,0.0,0.0
2959,720000000,,shoulder_pan_joint,shoulder_lift_joint,elbow_joint,wrist_1_joint,wrist_2_joint,wrist_3_joint,-0.7852948997198013,-1.3172779536853998,-1.77858884521999,-0.04916708279593163,1.5708312085417546,-0.0016537123820583588,0.10154546976443075,-0.21930942163922285,-0.04173490295922444,-0.0070111657383594705,0.0018057632591038444,-0.5721405652999572,0.0,0.0,0.0,0.0,0.0,0.0
2959,740000000,,shoulder_pan_joint,shoulder_lift_joint,elbow_joint,wrist_1_joint,wrist_2_joint,wrist_3_joint,-0.7852865814631054,-1.3167083451724126,-1.7878492665290757,-0.04043041936739744,1.5708303769310943,-0.0016539930736367836,0.10632366450675755,-0.22676201186885003,-0.04281553915860903,-0.008835569138220256,0.0023546491627492797,-0.553660149360496,0.0,0.0,0.0,0.0,0.0,0.0
2959,760000000,,shoulder_pan_joint,shoulder_lift_joint,elbow_joint,wrist_1_joint,wrist_2_joint,wrist_3_joint,-0.7852744160491767,-1.3175730292810277,-1.786815957425361,-0.04125917136291779,1.5708369468345094,-0.0015613678371568795,0.09977599309571789,-0.21899322185652237,-0.04178397097512976,-0.006705083895493846,0.0014754052089180625,-0.5564987730242412,0.0,0.0,0.0,0.0,0.0,0.0
2959,780000000,,shoulder_pan_joint,shoulder_lift_joint,elbow_joint,wrist_1_joint,wrist_2_joint,wrist_3_joint,-0.7852227692825426,-1.3185091974559313,-1.787838760089028,-0.04038686637011235,1.5708437069999146,-0.0023901339697562918,0.10141763866939757,-0.2188968571389841,-0.04180419520718448,-0.00650752970355295,0.0017455312289681446,-0.5706563318310987,0.0,0.0,0.0,0.0,0.0,0.0
2959,800000000,,shoulder_pan_joint,shoulder_lift_joint,elbow_joint,wrist_1_joint,wrist_2_joint,wrist_3_joint,-0.7852141144504365,-1.3186606489668122,-1.7871204660828193,-0.04185256645059976,1.57084204966446,-0.0023753735548730504,0.1061171665436049,-0.22661107282893128,-0.042801640726959356,-0.008742068975006623,0.002362460078648314,-0.5530989764546891,0.0,0.0,0.0,0.0,0.0,0.0
2959,820000000,,shoulder_pan_joint,shoulder_lift_joint,elbow_joint,wrist_1_joint,wrist_2_joint,wrist_3_joint,-0.7851999415912099,-1.3204014757590725,-1.783231014899866,-0.04977253179446173,1.5708432137255413,-0.0023001551214472116,0.09947907085925953,-0.2187748750781734,-0.0417471512355474,-0.006611194241340157,0.001520731804500984,-0.5547597840124415,0.0,0.0,0.0,0.0,0.0,0.0
2959,840000000,,shoulder_pan_joint,shoulder_lift_joint,elbow_joint,wrist_1_joint,wrist_2_joint,wrist_3_joint,-0.7852172951490219,-1.3218815924171468,-1.7754548752470987,-0.06565907382789948,1.5708266187500355,-0.0023637243151828358,0.10107717764228802,-0.21877293563748385,-0.04169962645755587,-0.0066723360306997215,0.0018717884654672612,-0.5674791590416837,0.0,0.0,0.0,0.0,0.0,0.0
2959,860000000,,shoulder_pan_joint,shoulder_lift_joint,elbow_joint,wrist_1_joint,wrist_2_joint,wrist_3_joint,-0.7852040186944516,-1.324819443405076,-1.7645048653879982,-0.08800501980851383,1.570810879044254,-0.0023275715173278755,0.10553009838621247,-0.22640919288647443,-0.042607907219771035,-0.009081187209041608,0.0025766830894761034,-0.547324084887191,0.0,0.0,0.0,0.0,0.0,0.0
2959,880000000,,shoulder_pan_joint,shoulder_lift_joint,elbow_joint,wrist_1_joint,wrist_2_joint,wrist_3_joint,-0.7851849447115731,-1.3291521840786995,-1.7510896384994883,-0.11536494159574939,1.5707985012432868,-0.002224907886440697,0.09857178166830258,-0.2183501357675799,-0.04146332472229086,-0.007003660968574188,0.001828470265810317,-0.5458651303634631,0.0,0.0,0.0,0.0,0.0,0.0
2959,900000000,,shoulder_pan_joint,shoulder_lift_joint,elbow_joint,wrist_1_joint,wrist_2_joint,wrist_3_joint,-0.7851990677495992,-1.3329206732215644,-1.7349161814916787,-0.14838763902712948,1.5707706342111978,-0.002275666268290344,0.10005224535478968,-0.21830158359068197,-0.04135282230855741,-0.007193607888659526,0.0022553937350066056,-0.5556881656505572,0.0,0.0,0.0,0.0,0.0,0.0
2959,920000000,,shoulder_pan_joint,shoulder_lift_joint,elbow_joint,wrist_1_joint,wrist_2_joint,wrist_3_joint,-0.7851821565361323,-1.3380809110609633,-1.7158042679393208,-0.18738978603281797,1.570743696351613,-0.0022222867646606304,0.10436254160965105,-0.22590595985194117,-0.042187044378323435,-0.009808094285474134,0.0029775045024880153,-0.5325892612662355,0.0,0.0,0.0,0.0,0.0,0.0
2959,940000000,,shoulder_pan_joint,shoulder_lift_joint,elbow_joint,wrist_1_joint,wrist_2_joint,wrist_3_joint,-0.7851583893473428,-1.3447614261844878,-1.6937572798160652,-0.23236553652345382,1.5707185847870129,-0.0020872218408900522,0.09706988541584029,-0.21751543436265042,-0.04094793676752029,-0.007734711336809363,0.002282326314638927,-0.5268847485538234,0.0,0.0,0.0,0.0,0.0,0.0
2959,960000000,,shoulder_pan_joint,shoulder_lift_joint,elbow_joint,wrist_1_joint,wrist_2_joint,wrist_3_joint,-0.7851690873661408,-1.3509350088100698,-1.6687629850875334,-0.2833886079730705,1.570679188652381,-0.002126508444299624,0.09851787051080768,-0.21744526139004744,-0.04077350062942686,-0.008105281195801894,0.002740099335935803,-0.5319155494642112,0.0,0.0,0.0,0.0,0.0,0.0
2959,980000000,,shoulder_pan_joint,shoulder_lift_joint,elbow_joint,wrist_1_joint,wrist_2_joint,wrist_3_joint,-0.7851482322588978,-1.3584952568652735,-1.6408304759318826,-0.3403908868755874,1.5706401725619505,-0.002052722956601194,0.10275865071168702,-0.22507034678611293,-0.04153839170680407,-0.010989800095943192,0.0034196357263880095,-0.5034420848429527,0.0,0.0,0.0,0.0,0.0,0.0
2960,0,,shoulder_pan_joint,shoulder_lift_joint,elbow_joint,wrist_1_joint,wrist_2_joint,wrist_3_joint,-0.7851195535644218,-1.3674456238223804,-1.61044931484901,-0.4023757990971868,1.5706021781931163,-0.0018777369675326838,0.09511508470702909,-0.21632412271329132,-0.040199223982818055,-0.008952336037298059,0.002721545386418639,-0.49173829448795475,0.0,0.0,0.0,0.0,0.0,0.0
2960,20000000,,shoulder_pan_joint,shoulder_lift_joint,elbow_joint,wrist_1_joint,wrist_2_joint,wrist_3_joint,-0.7851280359435329,-1.3752669699050148,-1.579406022342182,-0.4657422343441917,1.570555443882343,-0.0019156234178439036,0.09657226041415762,-0.21622663606266618,-0.039971521456475645,-0.009529374636611632,0.003089314785841679,-0.4913050681182127,0.0,0.0,0.0,0.0,0.0,0.0
2960,40000000,,shoulder_pan_joint,shoulder_lift_joint,elbow_joint,wrist_1_joint,wrist_2_joint,wrist_3_joint,-0.7851060373297187,-1.383608442956251,-1.5485856147131276,-0.5286374388921509,1.5705123278838142,-0.001835906566152623,0.10085732805426298,-0.22366898458175988,-0.04070891725485748,-0.012439424405025656,0.003608928914740017,-0.45783786133658155,0.0,0.0,0.0,0.0,0.0,0.0
2960,60000000,,shoulder_pan_joint,shoulder_lift_joint,elbow_joint,wrist_1_joint,wrist_2_joint,wrist_3_joint,-0.785077053351257,-1.3926371783379574,-1.5179507908591603,-0.5911418250448452,1.5704726691573647,-0.0016862272401327871,0.09314302793031365,-0.21560706898664606,-0.039411742240371805,-0.010806223202995957,0.0028954920685810848,-0.4476811760693107,0.0,0.0,0.0,0.0,0.0,0.0
2960,80000000,,shoulder_pan_joint,shoulder_lift_joint,elbow_joint,wrist_1_joint,wrist_2_joint,wrist_3_joint,-0.7850858768168845,-1.4003895558183785,-1.4872139245501312,-0.6538831713348481,1.5704276059531619,-0.001719068908220045,0.09484758708239226,-0.21619774915409046,-0.039270002802531234,-0.011690455768100239,0.003142230883283026,-0.44212737321210116,0.0,0.0,0.0,0.0,0.0,0.0
2960,100000000,,shoulder_pan_joint,shoulder_lift_joint,elbow_joint,wrist_1_joint,wrist_2_joint,wrist_3_joint,-0.7850639617417201,-1.4087142180405179,-1.4564231155992555,-0.7167170089523003,1.570384176343108,-0.0016047696729621919,0.09936786059174392,-0.22344982026652366,-0.04001844091143969,-0.014490582672602836,0.0035816889261924834,-0.3996153104597182,0.0,0.0,0.0,0.0,0.0,0.0
2960,120000000,,shoulder_pan_joint,shoulder_lift_joint,elbow_joint,wrist_1_joint,wrist_2_joint,wrist_3_joint,-0.7850350375571278,-1.4177966587000865,-1.4256404636967002,-0.7795246173947561,1.570343327051118,-0.001447063496355483,0.09120770373210896,-0.2159360815358205,-0.03863247671337233,-0.013663483307542967,0.002984376324341398,-0.3911855287069996,0.0,0.0,0.0,0.0,0.0,0.0
2960,140000000,,shoulder_pan_joint,shoulder_lift_joint,elbow_joint,wrist_1_joint,wrist_2_joint,wrist_3_joint,-0.7850460407185551,-1.4255876963874679,-1.3948481699520805,-0.842381231919278,1.5702993857097942,-0.0014828603463605816,0.09308816132227712,-0.2178868812739555,-0.038527961305357405,-0.01558382668538838,0.0033302007947640377,-0.3855111999311014,0.0,0.0,0.0,0.0,0.0,0.0
2960,160000000,,shoulder_pan_joint,shoulder_lift_joint,elbow_joint,wrist_1_joint,wrist_2_joint,wrist_3_joint,-0.7850221800650905,-1.4338852721251882,-1.3640565943138467,-0.9052142766400149,1.5702549676243063,-0.0013584344067396614,0.09779842327015431,-0.22329238380945926,-0.039295433942908464,-0.01688963384635067,0.0033346628526765287,-0.3334742557553382,0.0,0.0,0.0,0.0,0.0,0.0
2960,180000000,,shoulder_pan_joint,shoulder_lift_joint,elbow_joint,wrist_1_joint,wrist_2_joint,wrist_3_joint,-0.7849942649097539,-1.44299789965787,-1.333269929669032,-0.9678879019816193,1.570203439514077,-0.0012160190483445632,0.08953215256295408,-0.21754506158194736,-0.037987818805368834,-0.017214071655058394,0.0029017932320117845,-0.32950869127732624,0.0,0.0,0.0,0.0,0.0,0.0
2960,200000000,,shoulder_pan_joint,shoulder_lift_joint,elbow_joint,wrist_1_joint,wrist_2_joint,wrist_3_joint,-0.7850025678017447,-1.450761683054349,-1.302482038844369,-1.0308778326010088,1.5701695977608168,-0.0012373360567377034,0.09200819790315953,-0.21815895546544606,-0.037945124323783275,-0.017840311435129763,0.0029688867776903605,-0.3108166363539332,0.0,0.0,0.0,0.0,0.0,0.0
2960,220000000,,shoulder_pan_joint,shoulder_lift_joint,elbow_joint,wrist_1_joint,wrist_2_joint,wrist_3_joint,-0.7849800607220594,-1.4590573453266584,-1.2716905706599784,-1.0937110813911746,1.5701246462518377,-0.0011117171508523427,0.09633297621816425,-0.2231641304604668,-0.03856920397006758,-0.019470875971986046,0.0029008586027930994,-0.25519349883409326,0.0,0.0,0.0,0.0,0.0,0.0
2960,240000000,,shoulder_pan_joint,shoulder_lift_joint,elbow_joint,wrist_1_joint,wrist_2_joint,wrist_3_joint,-0.7849518375863269,-1.4681997406671252,-1.240901862955603,-1.1562126226894742,1.5700813608567685,-0.0009552546769251435,0.0885297991486503,-0.21802200731278676,-0.03743912083618739,-0.019580697316451068,0.0024086200090562837,-0.25238224171423934,0.0,0.0,0.0,0.0,0.0,0.0
2960,260000000,,shoulder_pan_joint,shoulder_lift_joint,elbow_joint,wrist_1_joint,wrist_2_joint,wrist_3_joint,-0.7849573013726898,-1.4759206809606527,-1.2101159913355328,-1.2193748383794336,1.5700380385033421,-0.0009651476124705738,0.09254248466773266,-0.22097235773919338,-0.037684497628894476,-0.0211399575923924,0.002474890160558907,-0.21929516010012923,0.0,0.0,0.0,0.0,0.0,0.0
2960,280000000,,shoulder_pan_joint,shoulder_lift_joint,elbow_joint,wrist_1_joint,wrist_2_joint,wrist_3_joint,-0.7849533481674218,-1.4843558104155008,-1.1793243868163872,-1.2820959160875187,1.5699891870608322,-0.0008825620569519188,0.08838971439954554,-0.21894969150163218,-0.03712020525490978,-0.02156506454061191,0.0019838030203221946,-0.1926790362083835,0.0,0.0,0.0,0.0,0.0,0.0
2960,300000000,,shoulder_pan_joint,shoulder_lift_joint,elbow_joint,wrist_1_joint,wrist_2_joint,wrist_3_joint,-0.7849237497734318,-1.4926472757463891,-1.148534433751121,-1.3449299993095698,1.5699430910714387,-0.0007446139833877652,0.09445573712794267,-0.22455653592714475,-0.03781874696933507,-0.023540479790528646,0.0019924261632308093,-0.1300840153252384,0.0,0.0,0.0,0.0,0.0,0.0
2960,320000000,,shoulder_pan_joint,shoulder_lift_joint,elbow_joint,wrist_1_joint,wrist_2_joint,wrist_3_joint,-0.7849234093589557,-1.5011524152035456,-1.117746686009041,-1.407657387638805,1.5699028864452345,-0.0006950600189004064,0.08836292518108341,-0.21915064926392047,-0.03671557561317762,-0.02335631526098403,0.001570694970572939,-0.12427476488325373,0.0,0.0,0.0,0.0,0.0,0.0
2960,340000000,,shoulder_pan_joint,shoulder_lift_joint,elbow_joint,wrist_1_joint,wrist_2_joint,wrist_3_joint,-0.7849060232477312,-1.5096233562012369,-1.0869582274143088,-1.4704078076388187,1.569860743320029,-0.0004522341355706061,0.10084331556596351,-0.23355661233875197,-0.03905207658527843,-0.02610191280075158,0.0006722788664382806,0.0002795279634389414,0.0,0.0,0.0,0.0,0.0,0.0
2960,360000000,,shoulder_pan_joint,shoulder_lift_joint,elbow_joint,wrist_1_joint,wrist_2_joint,wrist_3_joint,-0.7848886570476736,-1.5179490011296766,-1.0561695177754444,-1.5332287575510417,1.5698147420101973,-0.0004688585186043426,0.08899582429324868,-0.2200978592685886,-0.03640870614405689,-0.025467712119059294,0.0009887551725086263,0.00039114604288004173,0.0,0.0,0.0,0.0,0.0,0.0
2960,380000000,,shoulder_pan_joint,shoulder_lift_joint,elbow_joint,wrist_1_joint,wrist_2_joint,wrist_3_joint,-0.7848527342249714,-1.527001587637307,-1.0253789796954234,-1.595749901931546,1.569775521049947,-0.00024904509731538127,0.08530226649348328,-0.2199848317062289,-0.03611426220926828,-0.026511264468195628,0.0004495744773361787,0.0003782952819403329,0.0,0.0,0.0,0.0,0.0,0.0
2960,400000000,,shoulder_pan_joint,shoulder_lift_joint,elbow_joint,wrist_1_joint,wrist_2_joint,wrist_3_joint,-0.7848586504031365,-1.5347198331522556,-0.9945914044438684,-1.6588276234643384,1.5697262367144367,-0.00021675449243296896,0.09003556941930488,-0.22266826678367946,-0.036328168510124215,-0.02813723022710901,0.0003968806005043568,0.00035932714477032723,0.0,0.0,0.0,0.0,0.0,0.0
2960,420000000,,shoulder_pan_joint,shoulder_lift_joint,elbow_joint,wrist_1_joint,wrist_2_joint,wrist_3_joint,-0.7848548420262524,-1.5431536787314082,-0.9638025141162085,-1.7216063402674688,1.5696833120760347,-0.0001309215055513846,0.08546900673864534,-0.22067241246291985,-0.03537776659861647,-0.013900324126975394,0.00019486209317975955,0.0005725151791485805,0.0,0.0,0.0,0.0,0.0,0.0
2960,440000000,,shoulder_pan_joint,shoulder_lift_joint,elbow_joint,wrist_1_joint,wrist_2_joint,wrist_3_joint,-0.7848244108724156,-1.5514388094381761,-0.9330129980185671,-1.784453464326785,1.5696355247890166,-5.2520702303660016e-05,0.09137371724271018,-0.22764504359062931,-0.035939386337021095,0.017506820851376004,0.0005916492682173091,0.00019322322890569232,0.0,0.0,0.0,0.0,0.0,0.0
2960,460000000,,shoulder_pan_joint,shoulder_lift_joint,elbow_joint,wrist_1_joint,wrist_2_joint,wrist_3_joint,-0.7848234201904605,-1.559943188405951,-0.90222527720623,-1.847204081124926,1.5695952124232528,4.443702027590035e-05,0.08499323483459592,-0.22243118345930873,-0.034576976165055395,0.023768209013643515,1.7480839194838893e-05,0.00021752140741043702,0.0,0.0,0.0,0.0,0.0,0.0
2960,480000000,,shoulder_pan_joint,shoulder_lift_joint,elbow_joint,wrist_1_joint,wrist_2_joint,wrist_3_joint,-0.7847818327717597,-1.5689837184037474,-0.8714350779289219,-1.9097816551431315,1.5695549484190972,-4.1573778300829645e-05,0.08188692222980798,-0.22348764489704065,-0.034239701337241524,0.03688626725261124,-0.00047276778684191,0.00016451002650341717,0.0,0.0,0.0,0.0,0.0,0.0
2960,500000000,,shoulder_pan_joint,shoulder_lift_joint,elbow_joint,wrist_1_joint,wrist_2_joint,wrist_3_joint,-0.7847818254576175,-1.5766456368694453,-0.8405793797961909,-1.973000324070422,1.5695032573485213,7.617295162631876e-05,0.08921737281959183,-0.23001732426167815,-0.03488857826858427,0.06583345815984076,-0.0005383279564602494,8.937193994285053e-05,0.0,0.0,0.0,0.0,0.0,0.0
2960,520000000,,shoulder_pan_joint,shoulder_lift_joint,elbow_joint,wrist_1_joint,wrist_2_joint,wrist_3_joint,-0.7847739883121303,-1.5852229474288215,-0.8095035620975919,-2.0363517446203616,1.5694614835304312,0.0001177638974656503,0.08413781458526122,-0.2251488543604398,-0.03364563970200407,0.06482095440642227,-0.001043580600076477,8.193092586206152e-05,0.0,0.0,0.0,0.0,0.0,0.0
2960,540000000,,shoulder_pan_joint,shoulder_lift_joint,elbow_joint,wrist_1_joint,wrist_2_joint,wrist_3_joint,-0.7847692457071993,-1.5936981643400534,-0.7784519909092964,-2.0996994667970403,1.569417419131856,0.00017853971642534106,0.081562904765058,-0.22515830333968667,-0.033201368154327726,0.07618778603608806,-0.0015554020179990857,5.636836387173938e-05,0.0,0.0,0.0,0.0,0.0,0.0
2960,560000000,,shoulder_pan_joint,shoulder_lift_joint,elbow_joint,wrist_1_joint,wrist_2_joint,wrist_3_joint,-0.7847242324514143,-1.6026073200728401,-0.74809846933434,-2.1614304274848255,1.5693769627954088,0.00023922084907734842,0.07927142965436747,-0.22584239911815884,-0.032907652372641705,0.08194130075966932,-0.0020236312692494263,3.148226582208591e-05,0.0,0.0,0.0,0.0,0.0,0.0
2960,580000000,,shoulder_pan_joint,shoulder_lift_joint,elbow_joint,wrist_1_joint,wrist_2_joint,wrist_3_joint,-0.7847258002000954,-1.6096677018759529,-0.7194525749168896,-2.2201103215698534,1.569329550419356,0.00030871087242445583,0.08670815670530488,-0.23200942722019147,-0.03360812047805384,0.10720798336171855,-0.0021216988460799335,5.3815039827792566e-05,0.0,0.0,0.0,0.0,0.0,0.0
2960,600000000,,shoulder_pan_joint,shoulder_lift_joint,elbow_joint,wrist_1_joint,wrist_2_joint,wrist_3_joint,-0.7847200742564526,-1.616840924549459,-0.6935298555919012,-2.272962751994511,1.5692944155087547,0.0003392965050199592,0.08178214835597317,-0.22702044863877863,-0.032487695875582645,0.09899197400459514,-0.00258943994737737,1.1553616246745557e-05,0.0,0.0,0.0,0.0,0.0,0.0
2960,620000000,,shoulder_pan_joint,shoulder_lift_joint,elbow_joint,wrist_1_joint,wrist_2_joint,wrist_3_joint,-0.7847162208830092,-1.623111941520487,-0.6705457704732556,-2.3198578265218073,1.5692617293482538,0.00038275042055424535,0.07994507797326095,-0.22666266458874323,-0.03216226256803201,0.10188901696092878,-0.0029728112882718705,-3.150124160522516e-06,0.0,0.0,0.0,0.0,0.0,0.0
2960,640000000,,shoulder_pan_joint,shoulder_lift_joint,elbow_joint,wrist_1_joint,wrist_2_joint,wrist_3_joint,-0.7847099282376178,-1.6285796840100435,-0.6505018849972162,-2.360757560825478,1.5692326930322738,0.0004203265027804548,0.07881301123051031,-0.22687520494609548,-0.031975455792708773,0.10294689107875493,-0.003288900373731307,-1.911115391639573e-05,0.0,0.0,0.0,0.0,0.0,0.0
2960,660000000,,shoulder_pan_joint,shoulder_lift_joint,elbow_joint,wrist_1_joint,wrist_2_joint,wrist_3_joint,-0.784702055721274,-1.6332454714271538,-0.6333982826667217,-2.3956586847817,1.5692079671298105,0.0004523939966700752,0.07796163063607564,-0.22715002606174844,-0.03183853727828512,0.10291979616616459,-0.0035535075904806757,-3.559601277876301e-05,0.0,0.0,0.0,0.0,0.0,0.0
2960,680000000,,shoulder_pan_joint,shoulder_lift_joint,elbow_joint,wrist_1_joint,wrist_2_joint,wrist_3_joint,-0.7846953808414794,-1.6371086704708384,-0.6192347943469576,-2.4245609100989958,1.5691874731046713,0.0004789946551619906,0.0772694625278047,-0.22737288045835363,-0.031729220581733,0.10240217622037262,-0.003775784973074181,-4.6292377739926005e-05,0.0,0.0,0.0,0.0,0.0,0.0
2960,700000000,,shoulder_pan_joint,shoulder_lift_joint,elbow_joint,wrist_1_joint,wrist_2_joint,wrist_3_joint,-0.7846594077358162,-1.640850360684869,-0.6078085349120936,-2.4477146571328605,1.5691734830803181,0.0005011495832460966,0.07599774934698669,-0.22753610712875777,-0.03163989373301612,0.10172142214046348,-0.0039572913134746646,-5.488391527400105e-05,0.0,0.0,0.0,0.0,0.0,0.0
2960,720000000,,shoulder_pan_joint,shoulder_lift_joint,elbow_joint,wrist_1_joint,wrist_2_joint,wrist_3_joint,-0.784679980780937,-1.6426989276596702,-0.598943594387447,-2.465947531225739,1.5691599464639747,0.0005201751824932543,0.09123079334054852,-0.242067642839995,-0.03387595492986917,0.13043989397618527,-0.003910436499920955,-6.853947798092855e-05,0.0,0.0,0.0,0.0,0.0,0.0
2960,740000000,,shoulder_pan_joint,shoulder_lift_joint,elbow_joint,wrist_1_joint,wrist_2_joint,wrist_3_joint,-0.7846671839417363,-1.643992461157322,-0.5935284826443095,-2.477045933777119,1.5691482874584795,0.0005451914487268894,0.08379648822681551,-0.23334125923333682,-0.03249412383104355,0.12340642345366326,-0.003838039060586995,1.441993049380863e-05,0.0,0.0,0.0,0.0,0.0,0.0
2960,760000000,,shoulder_pan_joint,shoulder_lift_joint,elbow_joint,wrist_1_joint,wrist_2_joint,wrist_3_joint,-0.7846723647863953,-1.6445298902269823,-0.5918640534864323,-2.4804219141273096,1.5691472538927078,0.0005313133794251357,0.08143227375512796,-0.2305858253870819,-0.032046262150731364,0.11331893204072752,-0.003916542321691585,-1.9209374397477497e-05,0.0,0.0,0.0,0.0,0.0,0.0
2960,780000000,,shoulder_pan_joint,shoulder_lift_joint,elbow_joint,wrist_1_joint,wrist_2_joint,wrist_3_joint,-0.784672864229675,-1.6445626853616826,-0.5918341205233215,-2.480470688275793,1.5691473008789085,0.0005302673203457786,0.07950404075526396,-0.22812698024634798,-0.031632036300179855,0.11050095922716957,-0.004008020136222701,-4.0694543846565845e-05,0.0,0.0,0.0,0.0,0.0,0.0
2960,800000000,,shoulder_pan_joint,shoulder_lift_joint,elbow_joint,wrist_1_joint,wrist_2_joint,wrist_3_joint,-0.7846794809981574,-1.6445680088860284,-0.5918337978425745,-2.4804694463347534,1.5691477157824698,0.0005302234616619828,0.0783429180543101,-0.2274339858918899,-0.031507918976472205,0.10905715878802408,-0.0040610383273606,-4.7966079106655235e-05,0.0,0.0,0.0,0.0,0.0,0.0
2960,820000000,,shoulder_pan_joint,shoulder_lift_joint,elbow_joint,wrist_1_joint,wrist_2_joint,wrist_3_joint,-0.7846825044272823,-1.6445715148910738,-0.5918335547576108,-2.4804716005215806,1.5691476674932048,0.000530147822003002,0.0776613335367325,-0.2274043252009751,-0.03149253911572347,0.10718719322896109,-0.004098803393458694,-5.280486604975626e-05,0.0,0.0,0.0,0.0,0.0,0.0
2960,840000000,,shoulder_pan_joint,shoulder_lift_joint,elbow_joint,wrist_1_joint,wrist_2_joint,wrist_3_joint,-0.7846592824539913,-1.646369238150995,-0.591811977850349,-2.4797788748024816,1.5691506041106473,0.0005037148448501227,0.07701111679394271,-0.2273228523441232,-0.03147160408546279,0.10540499396232939,-0.004128008915697645,-6.025974258132283e-05,0.0,0.0,0.0,0.0,0.0,0.0
2960,860000000,,shoulder_pan_joint,shoulder_lift_joint,elbow_joint,wrist_1_joint,wrist_2_joint,wrist_3_joint,-0.784658930873352,-1.644191198771182,-0.5972718102122201,-2.4765018062230704,1.5691506962966466,0.0005038400546704125,0.07673821649282497,-0.22743423738126062,-0.0315200210264166,0.10406909899701239,-0.00415800828079671,-6.582477599868103e-05,0.0,0.0,0.0,0.0,0.0,0.0
2960,880000000,,shoulder_pan_joint,shoulder_lift_joint,elbow_joint,wrist_1_joint,wrist_2_joint,wrist_3_joint,-0.7846275855423102,-1.634528231329944,-0.6230350210873405,-2.4608736022348108,1.5691533413997698,0.0005049026223895581,0.07632542001662827,-0.22758801206202195,-0.03171655227213177,0.1039733048005842,-0.00420306234395762,-7.528219760483817e-05,0.0,0.0,0.0,0.0,0.0,0.0
2960,900000000,,shoulder_pan_joint,shoulder_lift_joint,elbow_joint,wrist_1_joint,wrist_2_joint,wrist_3_joint,-0.7846401158998502,-1.617546740016591,-0.6636917820970423,-2.4366484501785717,1.5691495556281643,0.0005169667863116345,0.08561374420220633,-0.23350421183691195,-0.03301270154124014,0.127683169342993,-0.003916394037549176,-6.107134573260509e-06,0.0,0.0,0.0,0.0,0.0,0.0
2960,920000000,,shoulder_pan_joint,shoulder_lift_joint,elbow_joint,wrist_1_joint,wrist_2_joint,wrist_3_joint,-0.7846451876674969,-1.6019535447930089,-0.7029946425930715,-2.413012115201324,1.56915158692384,0.0005050224318949859,0.08223115744918486,-0.22821043957089926,-0.032447079245928045,0.11656137170004982,-0.00409759652990338,-7.00654096665379e-05,0.0,0.0,0.0,0.0,0.0,0.0
2960,940000000,,shoulder_pan_joint,shoulder_lift_joint,elbow_joint,wrist_1_joint,wrist_2_joint,wrist_3_joint,-0.7846535028005297,-1.5900504868672538,-0.7328201533170793,-2.395103783410004,1.5691522098641668,0.000505692268313318,0.08109286154696255,-0.22764280023393302,-0.03256370889800542,0.11403732481154488,-0.0042208632276424796,-9.044783830219894e-05,0.0,0.0,0.0,0.0,0.0,0.0
2960,960000000,,shoulder_pan_joint,shoulder_lift_joint,elbow_joint,wrist_1_joint,wrist_2_joint,wrist_3_joint,-0.7846219501116982,-1.5780693258832335,-0.7648565446073379,-2.375511079209243,1.569153705930293,0.0005096327913047816,0.08029001897615697,-0.22798484003113884,-0.032859640811828794,0.1112658798019665,-0.004311409015273715,-0.00010700389900965279,0.0,0.0,0.0,0.0,0.0,0.0
2960,980000000,,shoulder_pan_joint,shoulder_lift_joint,elbow_joint,wrist_1_joint,wrist_2_joint,wrist_3_joint,-0.7846401437815276,-1.5621356285502115,-0.8053421354373098,-2.3504805534453554,1.5691522821683668,0.0005075928222462167,0.0867280315274849,-0.23066562235029503,-0.033678744996357146,0.12404439538950868,-0.004097757577306904,-7.01928517508818e-05,0.0,0.0,0.0,0.0,0.0,0.0
2961,0,,shoulder_pan_joint,shoulder_lift_joint,elbow_joint,wrist_1_joint,wrist_2_joint,wrist_3_joint,-0.784648468259233,-1.5455266073048843,-0.8505455917975127,-2.321911974670563,1.5691528832652493,0.0005084601216882589,0.08409379052371126,-0.22787168656220474,-0.033586871962694054,0.11796410412393249,-0.004310704682794042,-0.00011855989163897518,0.0,0.0,0.0,0.0,0.0,0.0
2961,20000000,,shoulder_pan_joint,shoulder_lift_joint,elbow_joint,wrist_1_joint,wrist_2_joint,wrist_3_joint,-0.7846310586405654,-1.5291559801808408,-0.8947040408139095,-2.2940665738710573,1.569152250165354,0.0005114063604283459,0.0915022701308201,-0.23424496950965717,-0.03503344848300227,0.13565242651591009,-0.0041263802761685175,-5.813008385682078e-05,0.0,0.0,0.0,0.0,0.0,0.0
2961,40000000,,shoulder_pan_joint,shoulder_lift_joint,elbow_joint,wrist_1_joint,wrist_2_joint,wrist_3_joint,-0.7846432144949747,-1.5139459144356042,-0.935614673174304,-2.2684249559596728,1.5691533221153513,0.0005100882215849367,0.08679238594265765,-0.2278815954572943,-0.03437543841998425,0.12152301980248875,-0.0043387706276655225,-0.0001339244953602603,0.0,0.0,0.0,0.0,0.0,0.0
2961,60000000,,shoulder_pan_joint,shoulder_lift_joint,elbow_joint,wrist_1_joint,wrist_2_joint,wrist_3_joint,-0.7846386012730413,-1.4993143296013764,-0.9754300415207098,-2.2432953202836234,1.5691542521564985,0.000514973070764313,0.10035401595735667,-0.24384378162074843,-0.03740373899547356,0.144542459414712,-0.004506113462058314,-0.00014494415067121957,0.0,0.0,0.0,0.0,0.0,0.0
2961,80000000,,shoulder_pan_joint,shoulder_lift_joint,elbow_joint,wrist_1_joint,wrist_2_joint,wrist_3_joint,-0.7846346001418265,-1.4872864370194572,-1.0099264947874325,-2.2207730340241643,1.5691532856353492,0.0005112014616033278,0.08959597669764227,-0.22840897604245886,-0.035195952554700205,0.12372547808408718,-0.004336516484052422,-0.00014658124971984182,0.0,0.0,0.0,0.0,0.0,0.0
2961,100000000,,shoulder_pan_joint,shoulder_lift_joint,elbow_joint,wrist_1_joint,wrist_2_joint,wrist_3_joint,-0.784612093484653,-1.4781846283578917,-1.0398750596642987,-2.200368195521886,1.5691541913958282,0.0005143929697526417,0.08725391526986861,-0.22798120453329557,-0.0354141020510671,0.11687137657048463,-0.004465158011288439,-0.00017696759378273141,0.0,0.0,0.0,0.0,0.0,0.0
2961,120000000,,shoulder_pan_joint,shoulder_lift_joint,elbow_joint,wrist_1_joint,wrist_2_joint,wrist_3_joint,-0.784630113941196,-1.4676801721793424,-1.0699710643402742,-2.1803266320200745,1.5691532212273342,0.0005119786111196234,0.09254762125656688,-0.23031954646818759,-0.036129474589367216,0.12633883949886238,-0.004284353782550099,-0.0001408746216293305,0.0,0.0,0.0,0.0,0.0,0.0
2961,140000000,,shoulder_pan_joint,shoulder_lift_joint,elbow_joint,wrist_1_joint,wrist_2_joint,wrist_3_joint,-0.784638290503354,-1.4564848340076448,-1.10285023438648,-2.1586670060798046,1.5691536083564577,0.0005126728201068076,0.08975852371112758,-0.22768163061247676,-0.03603792749597001,0.11828531785954366,-0.004451733897163246,-0.00018986068453287486,0.0,0.0,0.0,0.0,0.0,0.0
2961,160000000,,shoulder_pan_joint,shoulder_lift_joint,elbow_joint,wrist_1_joint,wrist_2_joint,wrist_3_joint,-0.7846276175757687,-1.4456217299560157,-1.135109598613635,-2.1372485523575797,1.5691532883210293,0.000512674190953355,0.0941331581232926,-0.2300049646023704,-0.03677164753990947,0.12656325450911832,-0.00429533795016146,-0.00015315435029226998,0.0,0.0,0.0,0.0,0.0,0.0
2961,180000000,,shoulder_pan_joint,shoulder_lift_joint,elbow_joint,wrist_1_joint,wrist_2_joint,wrist_3_joint,-0.7846319381591176,-1.4365889231652007,-1.1644191885740236,-2.1170342138529223,1.5691544013016925,0.0005160563228070458,0.10443332789709223,-0.24338380535189308,-0.03938870964099139,0.14558800610588762,-0.004673303744821333,-0.0001671327010419263,0.0,0.0,0.0,0.0,0.0,0.0
2961,200000000,,shoulder_pan_joint,shoulder_lift_joint,elbow_joint,wrist_1_joint,wrist_2_joint,wrist_3_joint,-0.784634979510999,-1.42844093258533,-1.191935906718907,-2.0976200735685033,1.5691537173318775,0.0005133226485085629,0.09237543330798516,-0.22703853887733727,-0.036926928371222356,0.1197926409701206,-0.0043994700230958195,-0.00020600287875493367,0.0,0.0,0.0,0.0,0.0,0.0
2961,220000000,,shoulder_pan_joint,shoulder_lift_joint,elbow_joint,wrist_1_joint,wrist_2_joint,wrist_3_joint,-0.7846251233494268,-1.4201580602873536,-1.219771530053964,-2.0780526068123857,1.5691533699542806,0.0005133771898524486,0.09573088673931977,-0.22932007547724664,-0.0376146237146604,0.12460222072531268,-0.004281855198587481,-0.00017770985578217935,0.0,0.0,0.0,0.0,0.0,0.0
2961,240000000,,shoulder_pan_joint,shoulder_lift_joint,elbow_joint,wrist_1_joint,wrist_2_joint,wrist_3_joint,-0.7846295583944469,-1.4112983079020278,-1.2488097034940289,-2.057936449965119,1.5691543612229353,0.0005163746394725166,0.10585780493656013,-0.24290013787774972,-0.04030901725206559,0.14307155837402552,-0.004725979602456021,-0.0001828224367463535,0.0,0.0,0.0,0.0,0.0,0.0
2961,260000000,,shoulder_pan_joint,shoulder_lift_joint,elbow_joint,wrist_1_joint,wrist_2_joint,wrist_3_joint,-0.7846323974794114,-1.402669257535381,-1.277213062244983,-2.038118959049495,1.5691537198506138,0.0005139538715059899,0.09392988597388796,-0.22641580095402608,-0.03781601751771202,0.11605343930651052,-0.004376546383898061,-0.00023805717454868092,0.0,0.0,0.0,0.0,0.0,0.0
2961,280000000,,shoulder_pan_joint,shoulder_lift_joint,elbow_joint,wrist_1_joint,wrist_2_joint,wrist_3_joint,-0.7846225362583592,-1.3954055851757534,-1.3035658657651643,-2.0190165007630574,1.5691533598620886,0.000513833351710069,0.09716179915707128,-0.2286032306827921,-0.03847898519404447,0.1201310943628946,-0.004260614371052518,-0.00020880951956152305,0.0,0.0,0.0,0.0,0.0,0.0
2961,300000000,,shoulder_pan_joint,shoulder_lift_joint,elbow_joint,wrist_1_joint,wrist_2_joint,wrist_3_joint,-0.7846274129356097,-1.3891052428931037,-1.328636843708841,-2.0003049576430127,1.5691543206213057,0.0005165355084812973,0.1070460157298469,-0.24220243923289675,-0.04118173575910644,0.13897377129920685,-0.004754153971212816,-0.0002010320667478159,0.0,0.0,0.0,0.0,0.0,0.0
2961,320000000,,shoulder_pan_joint,shoulder_lift_joint,elbow_joint,wrist_1_joint,wrist_2_joint,wrist_3_joint,-0.7846302623658561,-1.3825078241318112,-1.3539161730473976,-1.9815796214866985,1.5691537375795033,0.000514289579504279,0.09505683471087631,-0.22552001172326963,-0.038610321718243745,0.11092543765208218,-0.004318629130975138,-0.0002742140459261397,0.0,0.0,0.0,0.0,0.0,0.0
2961,340000000,,shoulder_pan_joint,shoulder_lift_joint,elbow_joint,wrist_1_joint,wrist_2_joint,wrist_3_joint,-0.7846206083426974,-1.375399849685886,-1.3800494235038983,-1.9625420659141817,1.5691533616269568,0.0005140791151063695,0.09823638155145736,-0.22760822959925503,-0.03925822575754234,0.11439425391656455,-0.004209933890927164,-0.00024245502729541152,0.0,0.0,0.0,0.0,0.0,0.0
2961,360000000,,shoulder_pan_joint,shoulder_lift_joint,elbow_joint,wrist_1_joint,wrist_2_joint,wrist_3_joint,-0.7846249666554597,-1.3687440716497665,-1.4057221658217145,-1.943583669035669,1.5691542735576585,0.0005165988281081724,0.10812140262621427,-0.24133529192159447,-0.04202118526367049,0.13341397958455625,-0.004761133298769371,-0.00022202305006564088,0.0,0.0,0.0,0.0,0.0,0.0
2961,380000000,,shoulder_pan_joint,shoulder_lift_joint,elbow_joint,wrist_1_joint,wrist_2_joint,wrist_3_joint,-0.7846279909910594,-1.3630516042055785,-1.4298608928392902,-1.925095567039559,1.5691536941601578,0.0005145889287270222,0.09614669742803456,-0.22450929358916832,-0.0393990716206325,0.10416604897951165,-0.004245032668379278,-0.0003151339181654833,0.0,0.0,0.0,0.0,0.0,0.0
