case-a2/ros2TopicPlotting/vignettes/ur3_move_two/joint_states_two.csv
1056,391000000,,shoulder_pan_joint,shoulder_lift_joint,elbow_joint,wrist_1_joint,wrist_2_joint,wrist_3_joint,0.7852602393185331,-1.5691961345816132,0.0002480119647163548,-0.0006291487155243303,-0.0006971667446702412,-1.570800018358586,-0.07947525438398692,0.17590409089410886,0.023781011142986086,-0.032857713594882265,0.013017258312851387,-0.08313889908537442,0.0,0.0,0.0,0.0,0.0,0.0
1056,411000000,,shoulder_pan_joint,shoulder_lift_joint,elbow_joint,wrist_1_joint,wrist_2_joint,wrist_3_joint,0.7852602393185322,-1.5691961345816114,0.0002480119647163548,-0.0006291487155225539,-0.000697166744669353,-1.570800018358586,-0.07947525438399036,0.17590409089410686,0.023781011142984476,-0.03285771359456352,0.013017258312870261,-0.08313889908556765,0.0,0.0,0.0,0.0,0.0,0.0
1056,431000000,,shoulder_pan_joint,shoulder_lift_joint,elbow_joint,wrist_1_joint,wrist_2_joint,wrist_3_joint,0.7852602393185313,-1.5691961345816132,0.0002480119647154666,-0.0006291487155216657,-0.0006971667446711294,-1.570800018358586,-0.07947525438398992,0.17590409089410303,0.023781011142983144,-0.03285771359419187,0.013017258312888913,-0.08313889908580496,0.0,0.0,0.0,0.0,0.0,0.0
1056,451000000,,shoulder_pan_joint,shoulder_lift_joint,elbow_joint,wrist_1_joint,wrist_2_joint,wrist_3_joint,0.7852602393185322,-1.5691961345816114,0.0002480119647154666,-0.0006291487155225539,-0.000697166744669353,-1.570800018358586,-0.07947525438399353,0.1759040908941138,0.02378101114298581,-0.03285771359462486,0.013017258312867597,-0.08313889908541794,0.0,0.0,0.0,0.0,0.0,0.0
1056,471000000,,shoulder_pan_joint,shoulder_lift_joint,elbow_joint,wrist_1_joint,wrist_2_joint,wrist_3_joint,0.7852602393185313,-1.5691961345816132,0.0002480119647163548,-0.0006291487155225539,-0.0006971667446702412,-1.570800018358586,-0.07947525438399411,0.17590409089410075,0.023781011142981645,-0.03285771359396272,0.013017258312901792,-0.08313889908633404,0.0,0.0,0.0,0.0,0.0,0.0
1056,491000000,,shoulder_pan_joint,shoulder_lift_joint,elbow_joint,wrist_1_joint,wrist_2_joint,wrist_3_joint,0.7852602393185322,-1.5691961345816123,0.0002480119647163548,-0.0006291487155216657,-0.0006971667446711294,-1.570800018358586,-0.07947525438399503,0.1759040908941042,0.023781011142982755,-0.03285771359398787,0.013017258312902014,-0.08313889908598854,0.0,0.0,0.0,0.0,0.0,0.0
1056,511000000,,shoulder_pan_joint,shoulder_lift_joint,elbow_joint,wrist_1_joint,wrist_2_joint,wrist_3_joint,0.7852602393185322,-1.5691961345816132,0.00024801196471724296,-0.0006291487155225539,-0.0006971667446711294,-1.570800018358586,-0.07947525438398975,0.17590409089411047,0.023781011142985475,-0.0328577135946474,0.013017258312865376,-0.08313889908540867,0.0,0.0,0.0,0.0,0.0,0.0
1056,531000000,,shoulder_pan_joint,shoulder_lift_joint,elbow_joint,wrist_1_joint,wrist_2_joint,wrist_3_joint,0.7852602393185331,-1.5691961345816132,0.0002480119647163548,-0.0006291487155216657,-0.0006971667446702412,-1.570800018358586,-0.07947525438399441,0.17590409089410652,0.023781011142982367,-0.03285771359388856,0.013017258312906232,-0.08313889908594418,0.0,0.0,0.0,0.0,0.0,0.0
1056,551000000,,shoulder_pan_joint,shoulder_lift_joint,elbow_joint,wrist_1_joint,wrist_2_joint,wrist_3_joint,0.7852602393185322,-1.5691961345816114,0.0002480119647163548,-0.0006291487155216657,-0.0006971667446702412,-1.570800018358586,-0.07947525438399344,0.17590409089410425,0.023781011142982922,-0.032857713594197646,0.01301725831289069,-0.08313889908583039,0.0,0.0,0.0,0.0,0.0,0.0
1056,571000000,,shoulder_pan_joint,shoulder_lift_joint,elbow_joint,wrist_1_joint,wrist_2_joint,wrist_3_joint,0.7852602393185313,-1.5691961345816132,0.0002480119647163548,-0.0006291487155216657,-0.0006971667446711294,-1.570800018358586,-0.0794752543839943,0.17590409089410464,0.0237810111429827,-0.03285771359399414,0.013017258312901125,-0.08313889908616584,0.0,0.0,0.0,0.0,0.0,0.0
1056,591000000,,shoulder_pan_joint,shoulder_lift_joint,elbow_joint,wrist_1_joint,wrist_2_joint,wrist_3_joint,0.7852602393185322,-1.5691961345816132,0.0002480119647145784,-0.0006291487155216657,-0.000697166744669353,-1.570800018358586,-0.07947525438398953,0.1759040908941088,0.023781011142984976,-0.032857713594628246,0.013017258312865376,-0.08313889908533623,0.0,0.0,0.0,0.0,0.0,0.0
1056,611000000,,shoulder_pan_joint,shoulder_lift_joint,elbow_joint,wrist_1_joint,wrist_2_joint,wrist_3_joint,0.7852602393185313,-1.5691961345816123,0.0002480119647163548,-0.0006291487155234421,-0.0006971667446702412,-1.570800018358586,-0.07947525438399647,0.1759040908941214,0.02378101114298614,-0.03285771359439765,0.013017258312877589,-0.08313889908585526,0.0,0.0,0.0,0.0,0.0,0.0
1056,631000000,,shoulder_pan_joint,shoulder_lift_joint,elbow_joint,wrist_1_joint,wrist_2_joint,wrist_3_joint,0.7852602393185322,-1.5691961345816132,0.00024801196471724296,-0.0006291487155234421,-0.0006971667446711294,-1.570800018358586,-0.07947525438399042,0.1759040908941123,0.02378101114298614,-0.03285771359472506,0.013017258312860713,-0.08313889908528538,0.0,0.0,0.0,0.0,0.0,0.0
1056,651000000,,shoulder_pan_joint,shoulder_lift_joint,elbow_joint,wrist_1_joint,wrist_2_joint,wrist_3_joint,0.7852602393185322,-1.5691961345816132,0.0002480119647163548,-0.0006291487155234421,-0.0006971667446702412,-1.570800018358586,-0.07947525438398628,0.17590409089410847,0.023781011142986863,-0.03285771359500994,0.01301725831284517,-0.0831388990849824,0.0,0.0,0.0,0.0,0.0,0.0
1056,671000000,,shoulder_pan_joint,shoulder_lift_joint,elbow_joint,wrist_1_joint,wrist_2_joint,wrist_3_joint,0.7852602393185331,-1.5691961345816132,0.0002480119647163548,-0.0006291487155216657,-0.0006971667446711294,-1.570800018358586,-0.07947525438399389,0.17590409089410536,0.023781011142982922,-0.0328577135940466,0.013017258312897129,-0.08313889908606281,0.0,0.0,0.0,0.0,0.0,0.0
1056,691000000,,shoulder_pan_joint,shoulder_lift_joint,elbow_joint,wrist_1_joint,wrist_2_joint,wrist_3_joint,0.7852602393185322,-1.5691961345816132,0.0002480119647154666,-0.0006291487155234421,-0.0006971667446711294,-1.570800018358586,-0.07947525438398939,0.17590409089411302,0.023781011142986253,-0.03285771359469847,0.01301725831286138,-0.08313889908534072,0.0,0.0,0.0,0.0,0.0,0.0
1056,711000000,,shoulder_pan_joint,shoulder_lift_joint,elbow_joint,wrist_1_joint,wrist_2_joint,wrist_3_joint,0.7852602393185313,-1.5691961345816132,0.0002480119647163548,-0.0006291487155234421,-0.0006971667446702412,-1.570800018358586,-0.07947525438398892,0.17590409089411246,0.023781011142986197,-0.032857713594698135,0.013017258312861157,-0.08313889908550448,0.0,0.0,0.0,0.0,0.0,0.0
1056,731000000,,shoulder_pan_joint,shoulder_lift_joint,elbow_joint,wrist_1_joint,wrist_2_joint,wrist_3_joint,0.7852602393185322,-1.5691961345816123,0.0002480119647163548,-0.0006291487155225539,-0.0006971667446702412,-1.570800018358586,-0.07947525438398939,0.1759040908941128,0.023781011142987196,-0.03285771359487488,0.013017258312852498,-0.08313889908537941,0.0,0.0,0.0,0.0,0.0,0.0
1056,751000000,,shoulder_pan_joint,shoulder_lift_joint,elbow_joint,wrist_1_joint,wrist_2_joint,wrist_3_joint,0.7852602393185331,-1.5691961345816114,0.0002480119647154666,-0.0006291487155225539,-0.0006971667446711294,-1.570800018358585,-0.07947525438399253,0.17590409089412506,0.023781011142989306,-0.032857713595166926,0.0130172583128354,-0.08313889908495598,0.0,0.0,0.0,0.0,0.0,0.0
1056,771000000,,shoulder_pan_joint,shoulder_lift_joint,elbow_joint,wrist_1_joint,wrist_2_joint,wrist_3_joint,0.7852602393185322,-1.5691961345816132,0.0002480119647154666,-0.0006291487155225539,-0.000697166744669353,-1.570800018358585,-0.07947525438399375,0.17590409089409897,0.02378101114298098,-0.032857713593837046,0.013017258312910451,-0.08313889908628075,0.0,0.0,0.0,0.0,0.0,0.0
1056,791000000,,shoulder_pan_joint,shoulder_lift_joint,elbow_joint,wrist_1_joint,wrist_2_joint,wrist_3_joint,0.7852602393185322,-1.5691961345816132,0.0002480119647154666,-0.0006291487155234421,-0.000697166744669353,-1.570800018358585,-0.07947525438398417,0.17590409089411224,0.023781011142988195,-0.03285771359519646,0.013017258312834068,-0.08313889908505462,0.0,0.0,0.0,0.0,0.0,0.0
1056,811000000,,shoulder_pan_joint,shoulder_lift_joint,elbow_joint,wrist_1_joint,wrist_2_joint,wrist_3_joint,0.7852602393185331,-1.5691961345816132,0.0002480119647154666,-0.0006291487155225539,-0.000697166744669353,-1.570800018358586,-0.07947525438398989,0.17590409089412284,0.023781011142988917,-0.03285771359506584,0.01301725831284184,-0.08313889908509497,0.0,0.0,0.0,0.0,0.0,0.0
1056,831000000,,shoulder_pan_joint,shoulder_lift_joint,elbow_joint,wrist_1_joint,wrist_2_joint,wrist_3_joint,0.7852602393185322,-1.5691961345816123,0.0002480119647154666,-0.0006291487155234421,-0.000697166744669353,-1.570800018358586,-0.07947525438399033,0.1759040908941208,0.02378101114298886,-0.032857713595127735,0.013017258312837843,-0.08313889908506861,0.0,0.0,0.0,0.0,0.0,0.0
1056,851000000,,shoulder_pan_joint,shoulder_lift_joint,elbow_joint,wrist_1_joint,wrist_2_joint,wrist_3_joint,0.7852602393185331,-1.5691961345816132,0.0002480119647145784,-0.0006291487155225539,-0.0006971667446702412,-1.570800018358586,-0.07947525438399508,0.17590409089411702,0.023781011142985642,-0.032857713594437676,0.01301725831287559,-0.08313889908575334,0.0,0.0,0.0,0.0,0.0,0.0
1056,871000000,,shoulder_pan_joint,shoulder_lift_joint,elbow_joint,wrist_1_joint,wrist_2_joint,wrist_3_joint,0.7852602393185322,-1.5691961345816123,0.0002480119647163548,-0.0006291487155225539,-0.0006971667446702412,-1.570800018358585,-0.07947525438399158,0.1759040908941223,0.023781011142989195,-0.03285771359519468,0.013017258312833624,-0.08313889908493532,0.0,0.0,0.0,0.0,0.0,0.0
1056,891000000,,shoulder_pan_joint,shoulder_lift_joint,elbow_joint,wrist_1_joint,wrist_2_joint,wrist_3_joint,0.7852602393185331,-1.5691961345816132,0.0002480119647163548,-0.0006291487155216657,-0.0006971667446711294,-1.570800018358586,-0.07947525438399344,0.17590409089410347,0.023781011142982367,-0.03285771359406009,0.013017258312897573,-0.08313889908600325,0.0,0.0,0.0,0.0,0.0,0.0
1056,911000000,,shoulder_pan_joint,shoulder_lift_joint,elbow_joint,wrist_1_joint,wrist_2_joint,wrist_3_joint,0.7852602393185322,-1.5691961345816123,0.00024801196471724296,-0.0006291487155225539,-0.000697166744669353,-1.570800018358585,-0.07947525438398848,0.1759040908941088,0.02378101114298553,-0.032857713594677374,0.013017258312862934,-0.08313889908544564,0.0,0.0,0.0,0.0,0.0,0.0
1056,931000000,,shoulder_pan_joint,shoulder_lift_joint,elbow_joint,wrist_1_joint,wrist_2_joint,wrist_3_joint,0.7852602393185313,-1.5691961345816132,0.00024801196471724296,-0.0006291487155225539,-0.000697166744669353,-1.570800018358586,-0.07947525438398778,0.17590409089410958,0.023781011142985864,-0.032857713594728055,0.013017258312858493,-0.08313889908536382,0.0,0.0,0.0,0.0,0.0,0.0
1056,951000000,,shoulder_pan_joint,shoulder_lift_joint,elbow_joint,wrist_1_joint,wrist_2_joint,wrist_3_joint,0.7852602393185322,-1.5691961345816123,0.00024801196471724296,-0.0006291487155216657,-0.0006971667446711294,-1.570800018358586,-0.07947525438400013,0.1759040908941128,0.0237810111429822,-0.032857713593613225,0.013017258312921998,-0.08313889908634503,0.0,0.0,0.0,0.0,0.0,0.0
1056,971000000,,shoulder_pan_joint,shoulder_lift_joint,elbow_joint,wrist_1_joint,wrist_2_joint,wrist_3_joint,0.7852602393185322,-1.5691961345816123,0.0002480119647154666,-0.0006291487155234421,-0.0006971667446702412,-1.570800018358586,-0.07947525438399264,0.17590409089412135,0.023781011142988195,-0.03285771359494438,0.013017258312848501,-0.0831388990853355,0.0,0.0,0.0,0.0,0.0,0.0
1056,991000000,,shoulder_pan_joint,shoulder_lift_joint,elbow_joint,wrist_1_joint,wrist_2_joint,wrist_3_joint,0.7852602393185331,-1.5691961345816114,0.00024801196471724296,-0.0006291487155225539,-0.0006971667446702412,-1.570800018358586,-0.07947525438399336,0.17590409089411163,0.023781011142984976,-0.03285771359434153,0.01301725831288203,-0.08313889908578964,0.0,0.0,0.0,0.0,0.0,0.0
1057,11000000,,shoulder_pan_joint,shoulder_lift_joint,elbow_joint,wrist_1_joint,wrist_2_joint,wrist_3_joint,0.7852602393185322,-1.5691961345816132,0.0002480119647163548,-0.0006291487155216657,-0.0006971667446702412,-1.570800018358586,-0.07947525438399197,0.17590409089411357,0.023781011142986197,-0.03285771359470574,0.013017258312860935,-0.08313889908515915,0.0,0.0,0.0,0.0,0.0,0.0
1057,31000000,,shoulder_pan_joint,shoulder_lift_joint,elbow_joint,wrist_1_joint,wrist_2_joint,wrist_3_joint,0.7852602393185313,-1.5691961345816132,0.0002480119647163548,-0.0006291487155216657,-0.0006971667446711294,-1.570800018358586,-0.07947525438399214,0.17590409089410475,0.023781011142983977,-0.032857713594422244,0.013017258312878477,-0.08313889908577943,0.0,0.0,0.0,0.0,0.0,0.0
1057,51000000,,shoulder_pan_joint,shoulder_lift_joint,elbow_joint,wrist_1_joint,wrist_2_joint,wrist_3_joint,0.7852602393185322,-1.5691961345816123,0.0002480119647154666,-0.0006291487155216657,-0.0006971667446702412,-1.570800018358586,-0.07947525438399161,0.17590409089411702,0.02378101114298703,-0.03285771359474865,0.013017258312860491,-0.08313889908528932,0.0,0.0,0.0,0.0,0.0,0.0
1057,71000000,,shoulder_pan_joint,shoulder_lift_joint,elbow_joint,wrist_1_joint,wrist_2_joint,wrist_3_joint,0.7852602393185313,-1.5691961345816132,0.0002480119647154666,-0.0006291487155234421,-0.0006971667446702412,-1.570800018358586,-0.07947525438399095,0.1759040908941179,0.02378101114298714,-0.032857713594798554,0.013017258312856494,-0.08313889908547356,0.0,0.0,0.0,0.0,0.0,0.0
1057,91000000,,shoulder_pan_joint,shoulder_lift_joint,elbow_joint,wrist_1_joint,wrist_2_joint,wrist_3_joint,0.7852602393185322,-1.5691961345816123,0.00024801196471724296,-0.0006291487155234421,-0.0006971667446702412,-1.570800018358586,-0.07947525438399478,0.1759040908941122,0.023781011142984865,-0.032857713594387494,0.013017258312879587,-0.08313889908553651,0.0,0.0,0.0,0.0,0.0,0.0
1057,111000000,,shoulder_pan_joint,shoulder_lift_joint,elbow_joint,wrist_1_joint,wrist_2_joint,wrist_3_joint,0.7852602393185322,-1.5691961345816123,0.0002480119647163548,-0.0006291487155234421,-0.0006971667446702412,-1.570800018358586,-0.07947525438399022,0.17590409089411385,0.023781011142987196,-0.03285771359498868,0.013017258312846058,-0.0831388990851663,0.0,0.0,0.0,0.0,0.0,0.0
1057,131000000,,shoulder_pan_joint,shoulder_lift_joint,elbow_joint,wrist_1_joint,wrist_2_joint,wrist_3_joint,0.7852602393185331,-1.5691961345816123,0.0002480119647163548,-0.0006291487155216657,-0.000697166744669353,-1.570800018358586,-0.07947525438399153,0.17590409089410652,0.02378101114298392,-0.03285771359440959,0.013017258312876923,-0.08313889908583216,0.0,0.0,0.0,0.0,0.0,0.0
1057,151000000,,shoulder_pan_joint,shoulder_lift_joint,elbow_joint,wrist_1_joint,wrist_2_joint,wrist_3_joint,0.7852602393185322,-1.5691961345816132,0.0002480119647163548,-0.0006291487155234421,-0.0006971667446702412,-1.570800018358585,-0.07947525438399455,0.17590409089411063,0.02378101114298492,-0.03285771359441475,0.013017258312877367,-0.0831388990855732,0.0,0.0,0.0,0.0,0.0,0.0
1057,171000000,,shoulder_pan_joint,shoulder_lift_joint,elbow_joint,wrist_1_joint,wrist_2_joint,wrist_3_joint,0.7852602393185331,-1.5691961345816114,0.0002480119647163548,-0.0006291487155216657,-0.0006971667446702412,-1.570800018358586,-0.07947525438399078,0.1759040908941074,0.023781011142984865,-0.032857713594543425,0.013017258312871594,-0.08313889908559435,0.0,0.0,0.0,0.0,0.0,0.0
1057,191000000,,shoulder_pan_joint,shoulder_lift_joint,elbow_joint,wrist_1_joint,wrist_2_joint,wrist_3_joint,0.7852602393185322,-1.5691961345816132,0.0002480119647163548,-0.0006291487155216657,-0.0006971667446702412,-1.570800018358586,-0.07947525438399311,0.1759040908941113,0.023781011142984976,-0.032857713594438676,0.013017258312876034,-0.08313889908582078,0.0,0.0,0.0,0.0,0.0,0.0
1057,211000000,,shoulder_pan_joint,shoulder_lift_joint,elbow_joint,wrist_1_joint,wrist_2_joint,wrist_3_joint,0.7852602393185313,-1.5691961345816132,0.0002480119647154666,-0.0006291487155216657,-0.000697166744669353,-1.570800018358585,-0.07947525438398995,0.17590409089410391,0.023781011142983366,-0.03285771359415263,0.013017258312891578,-0.08313889908592809,0.0,0.0,0.0,0.0,0.0,0.0
1057,231000000,,shoulder_pan_joint,shoulder_lift_joint,elbow_joint,wrist_1_joint,wrist_2_joint,wrist_3_joint,0.7852602393185322,-1.5691961345816132,0.00024801196471724296,-0.0006291487155216657,-0.000697166744669353,-1.570800018358586,-0.07947525438399355,0.1759040908941032,0.023781011142982256,-0.03285771359408429,0.013017258312895796,-0.08313889908603167,0.0,0.0,0.0,0.0,0.0,0.0
1057,251000000,,shoulder_pan_joint,shoulder_lift_joint,elbow_joint,wrist_1_joint,wrist_2_joint,wrist_3_joint,0.7852602393185313,-1.5691961345816123,0.0002480119647163548,-0.0006291487155216657,-0.0006971667446702412,-1.570800018358585,-0.07947525438399791,0.17590409089409853,0.02378101114298037,-0.032857713593571036,0.013017258312924662,-0.08313889908646327,0.0,0.0,0.0,0.0,0.0,0.0
1057,271000000,,shoulder_pan_joint,shoulder_lift_joint,elbow_joint,wrist_1_joint,wrist_2_joint,wrist_3_joint,0.7852602393185322,-1.5691961345816132,0.0002480119647154666,-0.0006291487155216657,-0.0006971667446711294,-1.570800018358586,-0.07947525438399322,0.17590409089410158,0.023781011142981978,-0.03285771359395595,0.01301725831290268,-0.08313889908604943,0.0,0.0,0.0,0.0,0.0,0.0
1057,291000000,,shoulder_pan_joint,shoulder_lift_joint,elbow_joint,wrist_1_joint,wrist_2_joint,wrist_3_joint,0.7852602393185322,-1.5691961345816123,0.0002480119647154666,-0.0006291487155216657,-0.000697166744669353,-1.570800018358586,-0.07947525438399503,0.1759040908940981,0.02378101114298098,-0.03285771359380185,0.013017258312912894,-0.08313889908604472,0.0,0.0,0.0,0.0,0.0,0.0
1057,311000000,,shoulder_pan_joint,shoulder_lift_joint,elbow_joint,wrist_1_joint,wrist_2_joint,wrist_3_joint,0.7852602393185331,-1.5691961345816132,0.0002480119647154666,-0.0006291487155234421,-0.0006971667446702412,-1.570800018358586,-0.07947525438398362,0.17590409089410525,0.023781011142986364,-0.032857713595072335,0.013017258312841173,-0.08313889908502281,0.0,0.0,0.0,0.0,0.0,0.0
1057,331000000,,shoulder_pan_joint,shoulder_lift_joint,elbow_joint,wrist_1_joint,wrist_2_joint,wrist_3_joint,0.7852602393185322,-1.5691961345816123,0.0002480119647154666,-0.0006291487155243303,-0.0006971667446702412,-1.570800018358585,-0.07947525438399147,0.1759040908941168,0.02378101114298725,-0.032857713594756865,0.013017258312859825,-0.08313889908533312,0.0,0.0,0.0,0.0,0.0,0.0
1057,351000000,,shoulder_pan_joint,shoulder_lift_joint,elbow_joint,wrist_1_joint,wrist_2_joint,wrist_3_joint,0.7852602393185313,-1.5691961345816123,0.00024801196471724296,-0.0006291487155225539,-0.000697166744669353,-1.570800018358586,-0.0794752543839943,0.1759040908941163,0.02378101114298603,-0.032857713594509896,0.013017258312872704,-0.08313889908559569,0.0,0.0,0.0,0.0,0.0,0.0
1057,371000000,,shoulder_pan_joint,shoulder_lift_joint,elbow_joint,wrist_1_joint,wrist_2_joint,wrist_3_joint,0.7852602393185322,-1.5691961345816123,0.0002480119647154666,-0.0006291487155225539,-0.0006971667446702412,-1.570800018358586,-0.07947525438398931,0.1759040908941149,0.023781011142987474,-0.03285771359493056,0.013017258312849389,-0.0831388990853359,0.0,0.0,0.0,0.0,0.0,0.0
1057,391000000,,shoulder_pan_joint,shoulder_lift_joint,elbow_joint,wrist_1_joint,wrist_2_joint,wrist_3_joint,0.7852602393185331,-1.5691961345816123,0.0002480119647163548,-0.0006291487155216657,-0.0006971667446702412,-1.570800018358586,-0.07947525438399503,0.17590409089410763,0.023781011142983588,-0.032857713594163895,0.013017258312892466,-0.08313889908583044,0.0,0.0,0.0,0.0,0.0,0.0
1057,411000000,,shoulder_pan_joint,shoulder_lift_joint,elbow_joint,wrist_1_joint,wrist_2_joint,wrist_3_joint,0.7852602393185322,-1.5691961345816123,0.0002480119647163548,-0.0006291487155234421,-0.0006971667446711294,-1.570800018358586,-0.07947525438399283,0.17590409089410836,0.023781011142984365,-0.03285771359444245,0.013017258312876034,-0.08313889908552285,0.0,0.0,0.0,0.0,0.0,0.0
1057,431000000,,shoulder_pan_joint,shoulder_lift_joint,elbow_joint,wrist_1_joint,wrist_2_joint,wrist_3_joint,0.7852602393185322,-1.5691961345816123,0.0002480119647163548,-0.0006291487155234421,-0.0006971667446702412,-1.570800018358586,-0.0794752543839908,0.17590409089410813,0.023781011142985142,-0.03285771359453871,0.01301725831287115,-0.08313889908571681,0.0,0.0,0.0,0.0,0.0,0.0
1057,451000000,,shoulder_pan_joint,shoulder_lift_joint,elbow_joint,wrist_1_joint,wrist_2_joint,wrist_3_joint,0.7852602393185331,-1.5691961345816114,0.0002480119647163548,-0.0006291487155225539,-0.000697166744669353,-1.570800018358586,-0.0794752543839923,0.17590409089411424,0.02378101114298614,-0.03285771359457823,0.013017258312867819,-0.0831388990852493,0.0,0.0,0.0,0.0,0.0,0.0
1057,471000000,,shoulder_pan_joint,shoulder_lift_joint,elbow_joint,wrist_1_joint,wrist_2_joint,wrist_3_joint,0.7852602393185322,-1.5691961345816123,0.0002480119647154666,-0.0006291487155225539,-0.000697166744669353,-1.570800018358586,-0.079475254383989,0.17590409089410486,0.023781011142984476,-0.03285771359462497,0.01301725831286693,-0.08313889908540378,0.0,0.0,0.0,0.0,0.0,0.0
1057,491000000,,shoulder_pan_joint,shoulder_lift_joint,elbow_joint,wrist_1_joint,wrist_2_joint,wrist_3_joint,0.7852602393185313,-1.5691961345816132,0.0002480119647163548,-0.0006291487155234421,-0.0006971667446702412,-1.570800018358585,-0.07947525438399003,0.1759040908941097,0.023781011142985253,-0.03285771359454365,0.013017258312870705,-0.0831388990857137,0.0,0.0,0.0,0.0,0.0,0.0
1057,511000000,,shoulder_pan_joint,shoulder_lift_joint,elbow_joint,wrist_1_joint,wrist_2_joint,wrist_3_joint,0.7852602393185322,-1.5691961345816132,0.0002480119647163548,-0.0006291487155216657,-0.000697166744669353,-1.570800018358586,-0.07947525438399597,0.1759040908941069,0.023781011142982922,-0.03285771359410855,0.013017258312897129,-0.08313889908570365,0.0,0.0,0.0,0.0,0.0,0.0
1057,531000000,,shoulder_pan_joint,shoulder_lift_joint,elbow_joint,wrist_1_joint,wrist_2_joint,wrist_3_joint,0.7852602393185313,-1.5691961345816114,0.0002480119647154666,-0.0006291487155234421,-0.0006971667446702412,-1.570800018358586,-0.07947525438399183,0.17590409089412562,0.023781011142990194,-0.032857713595262905,0.013017258312830515,-0.08313889908491634,0.0,0.0,0.0,0.0,0.0,0.0
1057,551000000,,shoulder_pan_joint,shoulder_lift_joint,elbow_joint,wrist_1_joint,wrist_2_joint,wrist_3_joint,0.7852602393185322,-1.5691961345816132,0.00024801196471724296,-0.0006291487155225539,-0.0006971667446702412,-1.570800018358586,-0.07947525438399411,0.17590409089410491,0.023781011142982755,-0.032857713594152016,0.01301725831289291,-0.0831388990858215,0.0,0.0,0.0,0.0,0.0,0.0
1057,571000000,,shoulder_pan_joint,shoulder_lift_joint,elbow_joint,wrist_1_joint,wrist_2_joint,wrist_3_joint,0.7852602393185322,-1.5691961345816132,0.0002480119647163548,-0.0006291487155234421,-0.000697166744669353,-1.570800018358586,-0.0794752543839897,0.17590409089411396,0.023781011142986364,-0.03285771359464612,0.013017258312864266,-0.08313889908540018,0.0,0.0,0.0,0.0,0.0,0.0
1057,591000000,,shoulder_pan_joint,shoulder_lift_joint,elbow_joint,wrist_1_joint,wrist_2_joint,wrist_3_joint,0.7852602393185331,-1.5691961345816123,0.0002480119647163548,-0.0006291487155225539,-0.0006971667446702412,-1.570800018358586,-0.07947525438399772,0.17590409089411718,0.023781011142985364,-0.03285771359427292,0.013017258312887137,-0.08313889908562083,0.0,0.0,0.0,0.0,0.0,0.0
1057,611000000,,shoulder_pan_joint,shoulder_lift_joint,elbow_joint,wrist_1_joint,wrist_2_joint,wrist_3_joint,0.7852602393185322,-1.5691961345816114,0.0002480119647163548,-0.0006291487155234421,-0.0006971667446702412,-1.570800018358585,-0.07947525438399147,0.1759040908941223,0.023781011142988473,-0.03285771359493006,0.013017258312848501,-0.08313889908521344,0.0,0.0,0.0,0.0,0.0,0.0
1057,631000000,,shoulder_pan_joint,shoulder_lift_joint,elbow_joint,wrist_1_joint,wrist_2_joint,wrist_3_joint,0.7852602393185313,-1.5691961345816123,0.0002480119647154666,-0.0006291487155216657,-0.0006971667446702412,-1.570800018358586,-0.0794752543839933,0.17590409089411352,0.023781011142985253,-0.03285771359444656,0.013017258312877145,-0.08313889908576555,0.0,0.0,0.0,0.0,0.0,0.0
1057,651000000,,shoulder_pan_joint,shoulder_lift_joint,elbow_joint,wrist_1_joint,wrist_2_joint,wrist_3_joint,0.7852602393185322,-1.5691961345816132,0.0002480119647154666,-0.0006291487155216657,-0.0006971667446702412,-1.570800018358586,-0.07947525438399225,0.1759040908941038,0.023781011142983643,-0.03285771359426376,0.01301725831288647,-0.08313889908573824,0.0,0.0,0.0,0.0,0.0,0.0
1057,671000000,,shoulder_pan_joint,shoulder_lift_joint,elbow_joint,wrist_1_joint,wrist_2_joint,wrist_3_joint,0.7852602393185331,-1.5691961345816123,0.0002480119647163548,-0.0006291487155225539,-0.0006971667446702412,-1.570800018358586,-0.07947525438399383,0.1759040908941092,0.023781011142984365,-0.03285771359442741,0.013017258312878477,-0.08313889908570643,0.0,0.0,0.0,0.0,0.0,0.0
1057,691000000,,shoulder_pan_joint,shoulder_lift_joint,elbow_joint,wrist_1_joint,wrist_2_joint,wrist_3_joint,0.7852602393185322,-1.5691961345816132,0.0002480119647154666,-0.0006291487155216657,-0.000697166744669353,-1.570800018358586,-0.07947525438398967,0.1759040908940988,0.023781011142981923,-0.03285771359401973,0.013017258312899349,-0.08313889908623512,0.0,0.0,0.0,0.0,0.0,0.0
1057,711000000,,shoulder_pan_joint,shoulder_lift_joint,elbow_joint,wrist_1_joint,wrist_2_joint,wrist_3_joint,0.7852602393185313,-1.569196134581614,0.0002480119647154666,-0.0006291487155225539,-0.000697166744669353,-1.570800018358585,-0.07947525438399011,0.17590409089410952,0.023781011142985642,-0.032857713594714955,0.01301725831286138,-0.08313889908527328,0.0,0.0,0.0,0.0,0.0,0.0
1057,731000000,,shoulder_pan_joint,shoulder_lift_joint,elbow_joint,wrist_1_joint,wrist_2_joint,wrist_3_joint,0.7852602393185322,-1.5691961345816114,0.0002480119647145784,-0.0006291487155225539,-0.0006971667446702412,-1.570800018358586,-0.07947525438399397,0.17590409089412212,0.023781011142987696,-0.03285771359464473,0.013017258312865376,-0.08313889908546057,0.0,0.0,0.0,0.0,0.0,0.0
1057,751000000,,shoulder_pan_joint,shoulder_lift_joint,elbow_joint,wrist_1_joint,wrist_2_joint,wrist_3_joint,0.7852602393185313,-1.569196134581614,0.0002480119647154666,-0.0006291487155234421,-0.0006971667446711294,-1.570800018358586,-0.07947525438399547,0.17590409089409953,0.02378101114298109,-0.03285771359388712,0.013017258312907787,-0.08313889908610517,0.0,0.0,0.0,0.0,0.0,0.0
1057,771000000,,shoulder_pan_joint,shoulder_lift_joint,elbow_joint,wrist_1_joint,wrist_2_joint,wrist_3_joint,0.7852602393185322,-1.5691961345816123,0.0002480119647154666,-0.0006291487155225539,-0.000697166744669353,-1.570800018358586,-0.07947525438399183,0.17590409089411907,0.02378101114298714,-0.032857713594705795,0.01301725831286138,-0.08313889908567929,0.0,0.0,0.0,0.0,0.0,0.0
1057,791000000,,shoulder_pan_joint,shoulder_lift_joint,elbow_joint,wrist_1_joint,wrist_2_joint,wrist_3_joint,0.7852602393185313,-1.569196134581614,0.0002480119647154666,-0.0006291487155216657,-0.0006971667446702412,-1.570800018358585,-0.07947525438399242,0.17590409089411063,0.02378101114298453,-0.032857713594367954,0.013017258312880475,-0.08313889908568639,0.0,0.0,0.0,0.0,0.0,0.0
1057,811000000,,shoulder_pan_joint,shoulder_lift_joint,elbow_joint,wrist_1_joint,wrist_2_joint,wrist_3_joint,0.7852602393185322,-1.5691961345816132,0.0002480119647163548,-0.0006291487155243303,-0.0006971667446702412,-1.570800018358586,-0.07947525438399083,0.17590409089410863,0.023781011142985087,-0.03285771359453893,0.01301725831287004,-0.08313889908557948,0.0,0.0,0.0,0.0,0.0,0.0
1057,831000000,,shoulder_pan_joint,shoulder_lift_joint,elbow_joint,wrist_1_joint,wrist_2_joint,wrist_3_joint,0.7852602393185322,-1.5691961345816132,0.0002480119647163548,-0.0006291487155216657,-0.0006971667446711294,-1.570800018358586,-0.07947525438399175,0.17590409089410303,0.023781011142983255,-0.03285771359423284,0.01301725831288758,-0.08313889908591388,0.0,0.0,0.0,0.0,0.0,0.0
1057,851000000,,shoulder_pan_joint,shoulder_lift_joint,elbow_joint,wrist_1_joint,wrist_2_joint,wrist_3_joint,0.7852602393185331,-1.5691961345816123,0.0002480119647163548,-0.0006291487155225539,-0.000697166744669353,-1.570800018358586,-0.07947525438398778,0.17590409089411357,0.02378101114298692,-0.0328577135948267,0.01301725831285272,-0.08313889908528765,0.0,0.0,0.0,0.0,0.0,0.0
1057,871000000,,shoulder_pan_joint,shoulder_lift_joint,elbow_joint,wrist_1_joint,wrist_2_joint,wrist_3_joint,0.7852602393185322,-1.569196134581614,0.00024801196471724296,-0.0006291487155225539,-0.0006971667446711294,-1.570800018358586,-0.07947525438398934,0.17590409089410708,0.02378101114298581,-0.03285771359473827,0.01301725831286027,-0.0831388990853606,0.0,0.0,0.0,0.0,0.0,0.0
1057,891000000,,shoulder_pan_joint,shoulder_lift_joint,elbow_joint,wrist_1_joint,wrist_2_joint,wrist_3_joint,0.7852602393185331,-1.5691961345816132,0.0002480119647163548,-0.0006291487155234421,-0.0006971667446702412,-1.570800018358586,-0.0794752543839907,0.17590409089410747,0.02378101114298503,-0.03285771359464773,0.013017258312866042,-0.0831388990855228,0.0,0.0,0.0,0.0,0.0,0.0
1057,911000000,,shoulder_pan_joint,shoulder_lift_joint,elbow_joint,wrist_1_joint,wrist_2_joint,wrist_3_joint,0.7852602393185322,-1.5691961345816114,0.0002480119647154666,-0.0006291487155234421,-0.0006971667446702412,-1.570800018358586,-0.07947525438398925,0.1759040908941154,0.023781011142987862,-0.03285771359503059,0.013017258312843616,-0.08313889908525257,0.0,0.0,0.0,0.0,0.0,0.0
1057,931000000,,shoulder_pan_joint,shoulder_lift_joint,elbow_joint,wrist_1_joint,wrist_2_joint,wrist_3_joint,0.7852602393185313,-1.569196134581614,0.0002480119647154666,-0.0006291487155216657,-0.000697166744669353,-1.570800018358585,-0.07947525438398267,0.17590409089409698,0.02378101114298381,-0.03285771359476314,0.013017258312857827,-0.0831388990852962,0.0,0.0,0.0,0.0,0.0,0.0
1057,951000000,,shoulder_pan_joint,shoulder_lift_joint,elbow_joint,wrist_1_joint,wrist_2_joint,wrist_3_joint,0.7852602393185322,-1.5691961345816114,0.0002480119647154666,-0.0006291487155216657,-0.0006971667446702412,-1.570800018358586,-0.07947525438399042,0.17590409089412024,0.02378101114298775,-0.03285771359478584,0.013017258312856494,-0.08313889908518196,0.0,0.0,0.0,0.0,0.0,0.0
1057,971000000,,shoulder_pan_joint,shoulder_lift_joint,elbow_joint,wrist_1_joint,wrist_2_joint,wrist_3_joint,0.7852602393185313,-1.5691961345816132,0.0002480119647163548,-0.0006291487155216657,-0.0006971667446711294,-1.570800018358586,-0.07947525438399639,0.17590409089411502,0.023781011142985475,-0.03285771359436512,0.013017258312880697,-0.08313889908579064,0.0,0.0,0.0,0.0,0.0,0.0
1057,991000000,,shoulder_pan_joint,shoulder_lift_joint,elbow_joint,wrist_1_joint,wrist_2_joint,wrist_3_joint,0.7852602393185322,-1.5691961345816123,0.0002480119647163548,-0.0006291487155234421,-0.0006971667446702412,-1.570800018358585,-0.07947525438398897,0.17590409089410647,0.023781011142985087,-0.032857713594604376,0.013017258312866486,-0.08313889908539718,0.0,0.0,0.0,0.0,0.0,0.0
1058,11000000,,shoulder_pan_joint,shoulder_lift_joint,elbow_joint,wrist_1_joint,wrist_2_joint,wrist_3_joint,0.7852602393185322,-1.5691961345816123,0.0002480119647154666,-0.0006291487155225539,-0.0006971667446711294,-1.570800018358586,-0.0794752543839938,0.1759040908941059,0.0237810111429832,-0.032857713594179994,0.01301725831289069,-0.08313889908591948,0.0,0.0,0.0,0.0,0.0,0.0
1058,31000000,,shoulder_pan_joint,shoulder_lift_joint,elbow_joint,wrist_1_joint,wrist_2_joint,wrist_3_joint,0.7852602393185331,-1.5691961345816132,0.0002480119647154666,-0.0006291487155243303,-0.0006971667446702412,-1.570800018358586,-0.07947525438398834,0.1759040908940988,0.0237810111429827,-0.032857713594321714,0.013017258312882252,-0.08313889908562,0.0,0.0,0.0,0.0,0.0,0.0
1058,51000000,,shoulder_pan_joint,shoulder_lift_joint,elbow_joint,wrist_1_joint,wrist_2_joint,wrist_3_joint,0.7852602393185322,-1.5691961345816132,0.0002480119647154666,-0.0006291487155234421,-0.0006971667446702412,-1.570800018358585,-0.07947525438398817,0.1759040908941117,0.02378101114298714,-0.03285771359507028,0.01301725831284184,-0.08313889908500866,0.0,0.0,0.0,0.0,0.0,0.0
1058,71000000,,shoulder_pan_joint,shoulder_lift_joint,elbow_joint,wrist_1_joint,wrist_2_joint,wrist_3_joint,0.7852602393185313,-1.5691961345816123,0.0002480119647154666,-0.0006291487155243303,-0.0006971667446711294,-1.570800018358585,-0.07947525438399258,0.17590409089410214,0.023781011142982977,-0.03285771359419393,0.013017258312890023,-0.08313889908558902,0.0,0.0,0.0,0.0,0.0,0.0
1058,91000000,,shoulder_pan_joint,shoulder_lift_joint,elbow_joint,wrist_1_joint,wrist_2_joint,wrist_3_joint,0.7852602393185322,-1.5691961345816132,0.00024801196471724296,-0.0006291487155234421,-0.0006971667446702412,-1.570800018358585,-0.07947525438399183,0.1759040908941144,0.023781011142986863,-0.03285771359473433,0.013017258312861157,-0.08313889908526612,0.0,0.0,0.0,0.0,0.0,0.0
1058,111000000,,shoulder_pan_joint,shoulder_lift_joint,elbow_joint,wrist_1_joint,wrist_2_joint,wrist_3_joint,0.7852602393185313,-1.5691961345816123,0.0002480119647163548,-0.0006291487155225539,-0.0006971667446711294,-1.570800018358586,-0.07947525438399955,0.17590409089411857,0.023781011142985087,-0.03285771359415668,0.013017258312890467,-0.0831388990860863,0.0,0.0,0.0,0.0,0.0,0.0
1058,131000000,,shoulder_pan_joint,shoulder_lift_joint,elbow_joint,wrist_1_joint,wrist_2_joint,wrist_3_joint,0.7852602393185322,-1.5691961345816132,0.0002480119647154666,-0.0006291487155216657,-0.0006971667446702412,-1.570800018358586,-0.07947525438399236,0.1759040908941038,0.02378101114298259,-0.032857713594026505,0.013017258312898461,-0.08313889908585076,0.0,0.0,0.0,0.0,0.0,0.0
1058,151000000,,shoulder_pan_joint,shoulder_lift_joint,elbow_joint,wrist_1_joint,wrist_2_joint,wrist_3_joint,0.7852602393185322,-1.5691961345816123,0.00024801196471724296,-0.0006291487155234421,-0.0006971667446702412,-1.570800018358586,-0.07947525438399058,0.17590409089411857,0.023781011142987585,-0.03285771359489409,0.013017258312851387,-0.0831388990850091,0.0,0.0,0.0,0.0,0.0,0.0
1058,171000000,,shoulder_pan_joint,shoulder_lift_joint,elbow_joint,wrist_1_joint,wrist_2_joint,wrist_3_joint,0.7852602393185331,-1.569196134581614,0.00024801196471724296,-0.0006291487155234421,-0.0006971667446711294,-1.570800018358586,-0.07947525438399217,0.17590409089411474,0.02378101114298603,-0.03285771359461548,0.013017258312867153,-0.0831388990855681,0.0,0.0,0.0,0.0,0.0,0.0
1058,191000000,,shoulder_pan_joint,shoulder_lift_joint,elbow_joint,wrist_1_joint,wrist_2_joint,wrist_3_joint,0.7852602393185322,-1.5691961345816123,0.0002480119647154666,-0.0006291487155234421,-0.0006971667446711294,-1.570800018358586,-0.07947525438398903,0.17590409089411585,0.023781011142988195,-0.03285771359521533,0.013017258312834068,-0.0831388990850867,0.0,0.0,0.0,0.0,0.0,0.0
1058,211000000,,shoulder_pan_joint,shoulder_lift_joint,elbow_joint,wrist_1_joint,wrist_2_joint,wrist_3_joint,0.7852602393185331,-1.5691961345816132,0.0002480119647163548,-0.0006291487155234421,-0.0006971667446702412,-1.570800018358586,-0.07947525438398897,0.17590409089411546,0.023781011142987585,-0.03285771359495737,0.013017258312848057,-0.0831388990853339,0.0,0.0,0.0,0.0,0.0,0.0
1058,231000000,,shoulder_pan_joint,shoulder_lift_joint,elbow_joint,wrist_1_joint,wrist_2_joint,wrist_3_joint,0.7852602393185322,-1.5691961345816132,0.0002480119647154666,-0.0006291487155225539,-0.0006971667446711294,-1.570800018358585,-0.07947525438398959,0.17590409089411058,0.02378101114298603,-0.03285771359475803,0.013017258312860047,-0.08313889908549393,0.0,0.0,0.0,0.0,0.0,0.0
1058,251000000,,shoulder_pan_joint,shoulder_lift_joint,elbow_joint,wrist_1_joint,wrist_2_joint,wrist_3_joint,0.7852602393185313,-1.5691961345816132,0.0002480119647163548,-0.0006291487155216657,-0.000697166744669353,-1.570800018358586,-0.07947525438399139,0.17590409089411346,0.023781011142986086,-0.032857713594583615,0.013017258312867819,-0.08313889908553757,0.0,0.0,0.0,0.0,0.0,0.0
1058,271000000,,shoulder_pan_joint,shoulder_lift_joint,elbow_joint,wrist_1_joint,wrist_2_joint,wrist_3_joint,0.7852602393185322,-1.5691961345816132,0.0002480119647154666,-0.0006291487155234421,-0.0006971667446702412,-1.570800018358586,-0.07947525438399461,0.17590409089410253,0.023781011142982256,-0.03285771359405759,0.013017258312898461,-0.08313889908606448,0.0,0.0,0.0,0.0,0.0,0.0
1058,291000000,,shoulder_pan_joint,shoulder_lift_joint,elbow_joint,wrist_1_joint,wrist_2_joint,wrist_3_joint,0.7852602393185313,-1.5691961345816114,0.0002480119647163548,-0.0006291487155216657,-0.0006971667446702412,-1.570800018358586,-0.07947525438399783,0.17590409089411824,0.023781011142985364,-0.03285771359423889,0.01301725831288758,-0.08313889908609728,0.0,0.0,0.0,0.0,0.0,0.0
1058,311000000,,shoulder_pan_joint,shoulder_lift_joint,elbow_joint,wrist_1_joint,wrist_2_joint,wrist_3_joint,0.7852602393185322,-1.569196134581614,0.0002480119647154666,-0.0006291487155234421,-0.0006971667446711294,-1.570800018358586,-0.07947525438399072,0.1759040908941129,0.023781011142986253,-0.0328577135947567,0.013017258312858493,-0.08313889908516597,0.0,0.0,0.0,0.0,0.0,0.0
1058,331000000,,shoulder_pan_joint,shoulder_lift_joint,elbow_joint,wrist_1_joint,wrist_2_joint,wrist_3_joint,0.7852602393185322,-1.5691961345816132,0.0002480119647154666,-0.0006291487155234421,-0.0006971667446702412,-1.570800018358586,-0.07947525438398775,0.17590409089412717,0.02378101114299036,-0.03285771359528844,0.013017258312826963,-0.08313889908491529,0.0,0.0,0.0,0.0,0.0,0.0
1058,351000000,,shoulder_pan_joint,shoulder_lift_joint,elbow_joint,wrist_1_joint,wrist_2_joint,wrist_3_joint,0.7852602393185331,-1.5691961345816132,0.0002480119647163548,-0.0006291487155216657,-0.000697166744669353,-1.570800018358586,-0.07947525438398725,0.17590409089411357,0.02378101114298703,-0.032857713594951155,0.013017258312846725,-0.08313889908531574,0.0,0.0,0.0,0.0,0.0,0.0
1058,371000000,,shoulder_pan_joint,shoulder_lift_joint,elbow_joint,wrist_1_joint,wrist_2_joint,wrist_3_joint,0.7852602393185322,-1.569196134581614,0.0002480119647145784,-0.0006291487155234421,-0.000697166744669353,-1.570800018358586,-0.07947525438399136,0.17590409089410186,0.02378101114298331,-0.032857713594292626,0.013017258312884916,-0.08313889908564948,0.0,0.0,0.0,0.0,0.0,0.0
1058,391000000,,shoulder_pan_joint,shoulder_lift_joint,elbow_joint,wrist_1_joint,wrist_2_joint,wrist_3_joint,0.7852602393185313,-1.5691961345816132,0.0002480119647163548,-0.0006291487155225539,-0.0006971667446702412,-1.570800018358586,-0.07947525438398761,0.17590409089411263,0.023781011142986697,-0.03285771359476147,0.01301725831285716,-0.08313889908523775,0.0,0.0,0.0,0.0,0.0,0.0
1058,411000000,,shoulder_pan_joint,shoulder_lift_joint,elbow_joint,wrist_1_joint,wrist_2_joint,wrist_3_joint,0.7852602393185322,-1.5691961345816132,0.0002480119647163548,-0.0006291487155225539,-0.0006971667446702412,-1.570800018358586,-0.07947525438399347,0.17590409089409736,0.02378101114298098,-0.03285771359388456,0.013017258312908231,-0.08313889908614563,0.0,0.0,0.0,0.0,0.0,0.0
1058,431000000,,shoulder_pan_joint,shoulder_lift_joint,elbow_joint,wrist_1_joint,wrist_2_joint,wrist_3_joint,0.7852602393185313,-1.5691961345816132,0.0002480119647163548,-0.0006291487155216657,-0.0006971667446711294,-1.570800018358585,-0.07947525438398784,0.17590409089411635,0.02378101114298825,-0.03285771359507739,0.013017258312838953,-0.08313889908507571,0.0,0.0,0.0,0.0,0.0,0.0
1058,451000000,,shoulder_pan_joint,shoulder_lift_joint,elbow_joint,wrist_1_joint,wrist_2_joint,wrist_3_joint,0.7852602393185322,-1.5691961345816123,0.0002480119647154666,-0.0006291487155225539,-0.0006971667446702412,-1.570800018358585,-0.07947525438399355,0.1759040908941082,0.023781011142984143,-0.03285771359430245,0.013017258312883806,-0.08313889908581917,0.0,0.0,0.0,0.0,0.0,0.0
1058,471000000,,shoulder_pan_joint,shoulder_lift_joint,elbow_joint,wrist_1_joint,wrist_2_joint,wrist_3_joint,0.7852602393185322,-1.5691961345816132,0.0002480119647154666,-0.0006291487155225539,-0.0006971667446702412,-1.570800018358585,-0.0794752543839849,0.1759040908941124,0.023781011142987973,-0.032857713595238536,0.01301725831283096,-0.0831388990848349,0.0,0.0,0.0,0.0,0.0,0.0
1058,491000000,,shoulder_pan_joint,shoulder_lift_joint,elbow_joint,wrist_1_joint,wrist_2_joint,wrist_3_joint,0.7852602393185331,-1.5691961345816114,0.00024801196471724296,-0.0006291487155234421,-0.000697166744669353,-1.570800018358586,-0.07947525438399466,0.17590409089411924,0.023781011142986586,-0.032857713594666826,0.013017258312865376,-0.08313889908551708,0.0,0.0,0.0,0.0,0.0,0.0
1058,511000000,,shoulder_pan_joint,shoulder_lift_joint,elbow_joint,wrist_1_joint,wrist_2_joint,wrist_3_joint,0.7852602393185322,-1.5691961345816132,0.0002480119647163548,-0.0006291487155216657,-0.000697166744669353,-1.570800018358586,-0.07947525438399364,0.1759040908941067,0.0237810111429832,-0.032857713594149685,0.013017258312892244,-0.0831388990860829,0.0,0.0,0.0,0.0,0.0,0.0
1058,531000000,,shoulder_pan_joint,shoulder_lift_joint,elbow_joint,wrist_1_joint,wrist_2_joint,wrist_3_joint,0.7852602393185313,-1.5691961345816132,0.0002480119647154666,-0.0006291487155234421,-0.0006971667446702412,-1.570800018358586,-0.07947525438399092,0.17590409089411696,0.023781011142987085,-0.03285771359477663,0.013017258312857605,-0.08313889908516342,0.0,0.0,0.0,0.0,0.0,0.0
1058,551000000,,shoulder_pan_joint,shoulder_lift_joint,elbow_joint,wrist_1_joint,wrist_2_joint,wrist_3_joint,0.7852602393185322,-1.5691961345816123,0.0002480119647154666,-0.0006291487155234421,-0.0006971667446702412,-1.570800018358586,-0.07947525438399172,0.17590409089411907,0.023781011142987307,-0.032857713594723836,0.013017258312860491,-0.08313889908545447,0.0,0.0,0.0,0.0,0.0,0.0
1058,571000000,,shoulder_pan_joint,shoulder_lift_joint,elbow_joint,wrist_1_joint,wrist_2_joint,wrist_3_joint,0.7852602393185331,-1.5691961345816114,0.0002480119647154666,-0.0006291487155225539,-0.0006971667446711294,-1.570800018358586,-0.07947525438399525,0.17590409089412096,0.023781011142987807,-0.032857713594802274,0.013017258312856717,-0.08313889908555466,0.0,0.0,0.0,0.0,0.0,0.0
1058,591000000,,shoulder_pan_joint,shoulder_lift_joint,elbow_joint,wrist_1_joint,wrist_2_joint,wrist_3_joint,0.7852602393185322,-1.5691961345816132,0.0002480119647163548,-0.0006291487155225539,-0.0006971667446702412,-1.570800018358585,-0.07947525438399233,0.1759040908940983,0.023781011142981756,-0.03285771359402373,0.013017258312899793,-0.08313889908598876,0.0,0.0,0.0,0.0,0.0,0.0
1058,611000000,,shoulder_pan_joint,shoulder_lift_joint,elbow_joint,wrist_1_joint,wrist_2_joint,wrist_3_joint,0.7852602393185322,-1.5691961345816132,0.0002480119647154666,-0.0006291487155234421,-0.0006971667446684648,-1.570800018358585,-0.07947525438399089,0.17590409089411552,0.023781011142986697,-0.032857713594739546,0.013017258312859603,-0.08313889908536715,0.0,0.0,0.0,0.0,0.0,0.0
1058,631000000,,shoulder_pan_joint,shoulder_lift_joint,elbow_joint,wrist_1_joint,wrist_2_joint,wrist_3_joint,0.7852602393185331,-1.5691961345816132,0.00024801196471813114,-0.0006291487155225539,-0.0006971667446702412,-1.570800018358586,-0.0794752543839918,0.17590409089411507,0.023781011142986697,-0.03285771359485751,0.013017258312854052,-0.08313889908513655,0.0,0.0,0.0,0.0,0.0,0.0
1058,651000000,,shoulder_pan_joint,shoulder_lift_joint,elbow_joint,wrist_1_joint,wrist_2_joint,wrist_3_joint,0.7852602393185322,-1.5691961345816114,0.0002480119647163548,-0.0006291487155216657,-0.0006971667446702412,-1.570800018358586,-0.07947525438399583,0.17590409089409964,0.023781011142980812,-0.032857713593843596,0.013017258312910673,-0.08313889908623023,0.0,0.0,0.0,0.0,0.0,0.0
1058,671000000,,shoulder_pan_joint,shoulder_lift_joint,elbow_joint,wrist_1_joint,wrist_2_joint,wrist_3_joint,0.7852602393185313,-1.5691961345816123,0.00024801196471724296,-0.0006291487155216657,-0.0006971667446711294,-1.570800018358586,-0.07947525438399239,0.1759040908941033,0.02378101114298309,-0.03285771359425599,0.013017258312888247,-0.08313889908576572,0.0,0.0,0.0,0.0,0.0,0.0
1058,691000000,,shoulder_pan_joint,shoulder_lift_joint,elbow_joint,wrist_1_joint,wrist_2_joint,wrist_3_joint,0.7852602393185322,-1.5691961345816123,0.0002480119647163548,-0.0006291487155216657,-0.0006971667446702412,-1.570800018358586,-0.07947525438398811,0.17590409089410913,0.023781011142985864,-0.03285771359478801,0.013017258312856494,-0.08313889908531868,0.0,0.0,0.0,0.0,0.0,0.0
1058,711000000,,shoulder_pan_joint,shoulder_lift_joint,elbow_joint,wrist_1_joint,wrist_2_joint,wrist_3_joint,0.7852602393185313,-1.5691961345816132,0.0002480119647154666,-0.0006291487155234421,-0.000697166744669353,-1.570800018358586,-0.07947525438398803,0.1759040908941204,0.023781011142989084,-0.032857713595227045,0.013017258312831848,-0.0831388990851355,0.0,0.0,0.0,0.0,0.0,0.0
1058,731000000,,shoulder_pan_joint,shoulder_lift_joint,elbow_joint,wrist_1_joint,wrist_2_joint,wrist_3_joint,0.7852602393185322,-1.5691961345816132,0.0002480119647154666,-0.0006291487155234421,-0.000697166744669353,-1.570800018358586,-0.07947525438398875,0.17590409089410602,0.02378101114298492,-0.03285771359455658,0.013017258312869817,-0.08313889908574668,0.0,0.0,0.0,0.0,0.0,0.0
1058,751000000,,shoulder_pan_joint,shoulder_lift_joint,elbow_joint,wrist_1_joint,wrist_2_joint,wrist_3_joint,0.7852602393185322,-1.5691961345816114,0.0002480119647154666,-0.0006291487155234421,-0.0006971667446702412,-1.570800018358586,-0.07947525438398953,0.17590409089412323,0.023781011142989805,-0.032857713595282056,0.013017258312830071,-0.08313889908501931,0.0,0.0,0.0,0.0,0.0,0.0
1058,771000000,,shoulder_pan_joint,shoulder_lift_joint,elbow_joint,wrist_1_joint,wrist_2_joint,wrist_3_joint,0.7852602393185322,-1.5691961345816132,0.0002480119647154666,-0.0006291487155234421,-0.0006971667446702412,-1.570800018358586,-0.07947525438399566,0.17590409089412007,0.02378101114298653,-0.03285771359454742,0.013017258312870927,-0.08313889908527528,0.0,0.0,0.0,0.0,0.0,0.0
1058,791000000,,shoulder_pan_joint,shoulder_lift_joint,elbow_joint,wrist_1_joint,wrist_2_joint,wrist_3_joint,0.7852602393185322,-1.5691961345816114,0.00024801196471724296,-0.0006291487155216657,-0.0006971667446702412,-1.570800018358585,-0.07947525438398892,0.1759040908941109,0.023781011142986308,-0.032857713594811155,0.013017258312855162,-0.08313889908557714,0.0,0.0,0.0,0.0,0.0,0.0
1058,811000000,,shoulder_pan_joint,shoulder_lift_joint,elbow_joint,wrist_1_joint,wrist_2_joint,wrist_3_joint,0.7852602393185331,-1.5691961345816132,0.00024801196471724296,-0.0006291487155234421,-0.0006971667446702412,-1.570800018358586,-0.07947525438399375,0.1759040908941189,0.023781011142986752,-0.03285771359456846,0.013017258312867597,-0.08313889908552985,0.0,0.0,0.0,0.0,0.0,0.0
1058,831000000,,shoulder_pan_joint,shoulder_lift_joint,elbow_joint,wrist_1_joint,wrist_2_joint,wrist_3_joint,0.7852602393185322,-1.5691961345816123,0.0002480119647154666,-0.0006291487155216657,-0.0006971667446711294,-1.570800018358586,-0.07947525438399508,0.17590409089410197,0.023781011142982034,-0.032857713594022786,0.01301725831290046,-0.08313889908612915,0.0,0.0,0.0,0.0,0.0,0.0
1058,851000000,,shoulder_pan_joint,shoulder_lift_joint,elbow_joint,wrist_1_joint,wrist_2_joint,wrist_3_joint,0.7852602393185331,-1.5691961345816123,0.0002480119647163548,-0.0006291487155225539,-0.0006971667446702412,-1.570800018358586,-0.07947525438399072,0.17590409089410736,0.023781011142984587,-0.032857713594562354,0.013017258312869817,-0.08313889908557587,0.0,0.0,0.0,0.0,0.0,0.0
1058,871000000,,shoulder_pan_joint,shoulder_lift_joint,elbow_joint,wrist_1_joint,wrist_2_joint,wrist_3_joint,0.7852602393185322,-1.5691961345816123,0.0002480119647163548,-0.0006291487155225539,-0.0006971667446702412,-1.570800018358586,-0.07947525438399367,0.17590409089412057,0.023781011142987196,-0.032857713594667215,0.013017258312862934,-0.08313889908542582,0.0,0.0,0.0,0.0,0.0,0.0
1058,891000000,,shoulder_pan_joint,shoulder_lift_joint,elbow_joint,wrist_1_joint,wrist_2_joint,wrist_3_joint,0.7852602393185313,-1.5691961345816123,0.00024801196471724296,-0.0006291487155225539,-0.0006971667446702412,-1.570800018358586,-0.07947525438399666,0.17590409089411763,0.02378101114298603,-0.03285771359435247,0.01301725831288203,-0.08313889908553557,0.0,0.0,0.0,0.0,0.0,0.0
1058,911000000,,shoulder_pan_joint,shoulder_lift_joint,elbow_joint,wrist_1_joint,wrist_2_joint,wrist_3_joint,0.7852602393185322,-1.5691961345816123,0.0002480119647163548,-0.0006291487155243303,-0.000697166744669353,-1.570800018358586,-0.07947525438398725,0.17590409089411574,0.023781011142988195,-0.03285771359521844,0.013017258312832958,-0.08313889908510164,0.0,0.0,0.0,0.0,0.0,0.0
1058,931000000,,shoulder_pan_joint,shoulder_lift_joint,elbow_joint,wrist_1_joint,wrist_2_joint,wrist_3_joint,0.7852602393185313,-1.5691961345816114,0.0002480119647154666,-0.0006291487155225539,-0.000697166744669353,-1.570800018358586,-0.07947525438399347,0.17590409089410125,0.023781011142982367,-0.032857713594025395,0.013017258312898461,-0.08313889908591743,0.0,0.0,0.0,0.0,0.0,0.0
1058,951000000,,shoulder_pan_joint,shoulder_lift_joint,elbow_joint,wrist_1_joint,wrist_2_joint,wrist_3_joint,0.7852602393185322,-1.5691961345816123,0.0002480119647163548,-0.0006291487155243303,-0.0006971667446702412,-1.570800018358586,-0.07947525438399156,0.1759040908941052,0.023781011142984032,-0.032857713594465876,0.013017258312874924,-0.08313889908556577,0.0,0.0,0.0,0.0,0.0,0.0
1058,971000000,,shoulder_pan_joint,shoulder_lift_joint,elbow_joint,wrist_1_joint,wrist_2_joint,wrist_3_joint,0.7852602393185322,-1.5691961345816132,0.0002480119647145784,-0.0006291487155243303,-0.0006971667446702412,-1.570800018358585,-0.07947525438399455,0.17590409089410902,0.023781011142983866,-0.032857713594218796,0.013017258312888691,-0.08313889908583405,0.0,0.0,0.0,0.0,0.0,0.0
1058,991000000,,shoulder_pan_joint,shoulder_lift_joint,elbow_joint,wrist_1_joint,wrist_2_joint,wrist_3_joint,0.7852602393185322,-1.5691961345816132,0.0002480119647163548,-0.0006291487155234421,-0.0006971667446711294,-1.570800018358586,-0.07947525438398936,0.1759040908941198,0.023781011142988973,-0.03285771359521472,0.013017258312832514,-0.08313889908513927,0.0,0.0,0.0,0.0,0.0,0.0
1059,11000000,,shoulder_pan_joint,shoulder_lift_joint,elbow_joint,wrist_1_joint,wrist_2_joint,wrist_3_joint,0.7852602393185322,-1.5691961345816114,0.0002480119647163548,-0.0006291487155234421,-0.0006971667446702412,-1.570800018358586,-0.07947525438398947,0.1759040908941108,0.023781011142986086,-0.03285771359478734,0.013017258312856939,-0.08313889908533906,0.0,0.0,0.0,0.0,0.0,0.0
1059,31000000,,shoulder_pan_joint,shoulder_lift_joint,elbow_joint,wrist_1_joint,wrist_2_joint,wrist_3_joint,0.7852602393185331,-1.5691961345816114,0.0002480119647163548,-0.0006291487155234421,-0.0006971667446711294,-1.570800018358586,-0.07947525438399741,0.17590409089412207,0.023781011142986475,-0.03285771359451661,0.013017258312872704,-0.08313889908571764,0.0,0.0,0.0,0.0,0.0,0.0
1059,51000000,,shoulder_pan_joint,shoulder_lift_joint,elbow_joint,wrist_1_joint,wrist_2_joint,wrist_3_joint,0.7852602393185322,-1.5691961345816132,0.0002480119647163548,-0.0006291487155234421,-0.0006971667446711294,-1.570800018358586,-0.07947525438399333,0.17590409089410858,0.0237810111429842,-0.03285771359433759,0.013017258312882252,-0.08313889908594313,0.0,0.0,0.0,0.0,0.0,0.0
1059,71000000,,shoulder_pan_joint,shoulder_lift_joint,elbow_joint,wrist_1_joint,wrist_2_joint,wrist_3_joint,0.7852602393185322,-1.5691961345816132,0.0002480119647163548,-0.0006291487155234421,-0.0006971667446702412,-1.570800018358586,-0.07947525438399158,0.17590409089411257,0.023781011142985475,-0.03285771359471379,0.013017258312860713,-0.08313889908551869,0.0,0.0,0.0,0.0,0.0,0.0
1059,91000000,,shoulder_pan_joint,shoulder_lift_joint,elbow_joint,wrist_1_joint,wrist_2_joint,wrist_3_joint,0.7852602393185322,-1.5691961345816132,0.0002480119647154666,-0.0006291487155234421,-0.0006971667446702412,-1.570800018358586,-0.07947525438399242,0.1759040908941218,0.023781011142988084,-0.032857713594877325,0.01301725831285161,-0.08313889908519695,0.0,0.0,0.0,0.0,0.0,0.0
1059,111000000,,shoulder_pan_joint,shoulder_lift_joint,elbow_joint,wrist_1_joint,wrist_2_joint,wrist_3_joint,0.7852602393185331,-1.5691961345816123,0.0002480119647163548,-0.0006291487155216657,-0.0006971667446711294,-1.570800018358586,-0.07947525438399405,0.1759040908941168,0.02378101114298664,-0.032857713594629134,0.013017258312866709,-0.0831388990856563,0.0,0.0,0.0,0.0,0.0,0.0
1059,131000000,,shoulder_pan_joint,shoulder_lift_joint,elbow_joint,wrist_1_joint,wrist_2_joint,wrist_3_joint,0.7851223093238602,-1.5675986613973727,0.00019185887361583553,-0.0013894453547003138,-0.0005999867953576654,-1.570803697053016,-0.07950045034391118,0.17570155451888358,0.02374672884208584,-0.03412742812451158,0.012969499748143098,-0.08088784299251744,0.0,0.0,0.0,0.0,0.0,0.0
1059,151000000,,shoulder_pan_joint,shoulder_lift_joint,elbow_joint,wrist_1_joint,wrist_2_joint,wrist_3_joint,0.783658160589261,-1.5676061394415042,-0.0004664676837231596,-0.0017505341901848936,0.000674613001413249,-1.5693403165660484,-0.07931023995173575,0.17528006713925043,0.023689262252708898,-0.03429817440801908,0.012964399301272467,-0.07920784051483643,0.0,0.0,0.0,0.0,0.0,0.0
1059,171000000,,shoulder_pan_joint,shoulder_lift_joint,elbow_joint,wrist_1_joint,wrist_2_joint,wrist_3_joint,0.775716816543472,-1.5676446927306733,-0.004470106693827525,-0.005808189903159011,0.008693452518571121,-1.5613996626886788,-0.07839462953802659,0.1733036682792236,0.023417491283956426,-0.03496862050399374,0.012897483565948553,-0.07029328334903318,0.0,0.0,0.0,0.0,0.0,0.0
1059,191000000,,shoulder_pan_joint,shoulder_lift_joint,elbow_joint,wrist_1_joint,wrist_2_joint,wrist_3_joint,0.7598597648594172,-1.5677234481933535,-0.01240355089056333,-0.013726114408644463,0.024564040716743563,-1.5455423042192997,-0.07650744229677894,0.1691576403992206,0.022843271282098954,-0.037377201290406004,0.012749371376705732,-0.05241534869793646,0.0,0.0,0.0,0.0,0.0,0.0
1059,211000000,,shoulder_pan_joint,shoulder_lift_joint,elbow_joint,wrist_1_joint,wrist_2_joint,wrist_3_joint,0.7375299447842254,-1.5678469623177769,-0.023574228943412656,-0.02486863608582457,0.04691092034355293,-1.5232011144420845,-0.0739619486831021,0.16342613077051543,0.02204285844626047,-0.04274454706282832,0.012492277372104121,-0.0280226787234098,0.0,0.0,0.0,0.0,0.0,0.0
1059,231000000,,shoulder_pan_joint,shoulder_lift_joint,elbow_joint,wrist_1_joint,wrist_2_joint,wrist_3_joint,0.7101735559472218,-1.5680252444737501,-0.037266746474769796,-0.038519084812680404,0.07429940604211538,-1.4958328763458972,-0.07087516029683404,0.15598296774572623,0.020972142891307666,-0.05008758642283484,0.012258033770838894,0.001771414041438768,0.0,0.0,0.0,0.0,0.0,0.0
1059,251000000,,shoulder_pan_joint,shoulder_lift_joint,elbow_joint,wrist_1_joint,wrist_2_joint,wrist_3_joint,0.6771763099025998,-1.5686115823578124,-0.05384283649952071,-0.05484919101314478,0.10729115066442763,-1.4628488551076249,-0.06500617605257707,0.14290312680254186,0.019175612550352328,-0.07046490917503734,0.011326383798329065,0.001445223464779155,0.0,0.0,0.0,0.0,0.0,0.0
1059,271000000,,shoulder_pan_joint,shoulder_lift_joint,elbow_joint,wrist_1_joint,wrist_2_joint,wrist_3_joint,0.6382141049238346,-1.569065713502244,-0.07320284250162157,-0.07431362396651942,0.14629060705475183,-1.4238659580815725,-0.05352294394011789,0.11127831602698804,0.014427080186783958,-0.07663011401415698,0.011988821114897075,-0.0006269427944490258,0.0,0.0,0.0,0.0,0.0,0.0
1059,291000000,,shoulder_pan_joint,shoulder_lift_joint,elbow_joint,wrist_1_joint,wrist_2_joint,wrist_3_joint,0.5932358898981072,-1.5691285065012934,-0.09570231559436326,-0.09677863520741514,0.1912894801587237,-1.3788857855504606,-0.051268218259670637,0.10922977548441867,0.014281685613985018,-0.07587594872307768,0.01194101550095339,-0.0007572653243613225,0.0,0.0,0.0,0.0,0.0,0.0
1059,311000000,,shoulder_pan_joint,shoulder_lift_joint,elbow_joint,wrist_1_joint,wrist_2_joint,wrist_3_joint,0.5422492056444455,-1.569202861796474,-0.1212024779352383,-0.12226129324839885,0.242287630035662,-1.3279083859740144,-0.044735910939740664,0.09961173835265541,0.013240690349007045,-0.08177705359913068,0.011949906596421478,-0.00021904538603001455,0.0,0.0,0.0,0.0,0.0,0.0
1059,331000000,,shoulder_pan_joint,shoulder_lift_joint,elbow_joint,wrist_1_joint,wrist_2_joint,wrist_3_joint,0.4852937238343751,-1.569315975786079,-0.14970644008166012,-0.15058907282210843,0.29928748389749416,-1.270933061941844,-0.06756541729866154,0.07038867248514113,0.009660599242728107,0.02082342037555862,0.016800274298973683,0.0005420366394248144,0.0,0.0,0.0,0.0,0.0,0.0
1059,351000000,,shoulder_pan_joint,shoulder_lift_joint,elbow_joint,wrist_1_joint,wrist_2_joint,wrist_3_joint,0.4232858909563424,-1.5693004463571576,-0.18069622720500078,-0.18151264266646638,0.3612973047550687,-1.2089512111344725,-0.02630023040937482,0.06152857750610158,0.0073238096554077425,-0.00512738972975868,0.01614876654115749,0.0005915068003963797,0.0,0.0,0.0,0.0,0.0,0.0
1059,371000000,,shoulder_pan_joint,shoulder_lift_joint,elbow_joint,wrist_1_joint,wrist_2_joint,wrist_3_joint,0.3599879236205288,-1.5694807444717433,-0.2123796915729983,-0.21316105312173583,0.42463714516584794,-1.1456983150513178,-0.06929893538889911,0.08067286937225063,0.011120175236081109,0.025018624990002514,0.0147247290664696,0.0006249000867568077,0.0,0.0,0.0,0.0,0.0,0.0
1059,391000000,,shoulder_pan_joint,shoulder_lift_joint,elbow_joint,wrist_1_joint,wrist_2_joint,wrist_3_joint,0.29712624170576873,-1.5695842261918838,-0.24382837240806143,-0.24441965245004127,0.48752974541950245,-1.0828624865184064,-0.057138012704829697,0.06300172001504961,0.008734269834024533,0.021510082226524507,0.015892346005558222,0.000598841730475419,0.0,0.0,0.0,0.0,0.0,0.0
1059,411000000,,shoulder_pan_joint,shoulder_lift_joint,elbow_joint,wrist_1_joint,wrist_2_joint,wrist_3_joint,0.23462398413177077,-1.56972559168947,-0.2750990562168578,-0.27566410416853415,0.5500588631635539,-1.020417087105967,-0.06122799073319235,0.05664254266641555,0.00814637921683134,0.021007429835484676,0.014708558097954016,0.0006054055955703741,0.0,0.0,0.0,0.0,0.0,0.0
1059,431000000,,shoulder_pan_joint,shoulder_lift_joint,elbow_joint,wrist_1_joint,wrist_2_joint,wrist_3_joint,0.17187730883094066,-1.569766493497145,-0.30645033909721775,-0.3069772592008162,0.61277427899239,-0.9578897082133873,-0.06030379795521863,0.0740793875412709,0.010467398005671869,0.02635518526945832,0.013031011315369101,-0.029898802489308096,0.0,0.0,0.0,0.0,0.0,0.0
1059,451000000,,shoulder_pan_joint,shoulder_lift_joint,elbow_joint,wrist_1_joint,wrist_2_joint,wrist_3_joint,0.10899366281851641,-1.569854022207629,-0.33786546441170096,-0.338359875843083,0.6756078864039026,-0.89518363540396,-0.05714497456416075,0.06513512626561639,0.009232783931185956,0.024702938753406373,0.012727808143196295,-0.12460886701091062,0.0,0.0,0.0,0.0,0.0,0.0
1059,471000000,,shoulder_pan_joint,shoulder_lift_joint,elbow_joint,wrist_1_joint,wrist_2_joint,wrist_3_joint,0.045919365321702266,-1.5699997561205947,-0.3692882295613531,-0.369757169883445,0.7384420978905126,-0.8322998463506659,-0.002767251620924782,0.04414710276302002,0.006692630775230815,0.020861943141727596,0.0134802115326631,-0.04764320411986073,0.0,0.0,0.0,0.0,0.0,0.0
1059,491000000,,shoulder_pan_joint,shoulder_lift_joint,elbow_joint,wrist_1_joint,wrist_2_joint,wrist_3_joint,-0.014796306329604825,-1.5700586693601863,-0.40069923308448807,-0.401131659233112,0.8012728202562363,-0.7697182493853827,-0.04797348012628096,0.05370908880234228,0.007877089610053345,0.02398558525286197,0.011908646772213483,-0.23200111959630826,0.0,0.0,0.0,0.0,0.0,0.0
1059,511000000,,shoulder_pan_joint,shoulder_lift_joint,elbow_joint,wrist_1_joint,wrist_2_joint,wrist_3_joint,-0.07887154531766072,-1.5700406741754076,-0.43210064307297813,-0.43249148222799505,0.8641057512267469,-0.7068433161769283,-0.01946617533977507,0.012871978591676138,0.0020841578212182563,0.013938908100707699,0.013398864292304524,-0.189588714393844,0.0,0.0,0.0,0.0,0.0,0.0
1059,531000000,,shoulder_pan_joint,shoulder_lift_joint,elbow_joint,wrist_1_joint,wrist_2_joint,wrist_3_joint,-0.141788342179324,-1.5701295287224681,-0.4635157358740223,-0.4638729499997787,0.9269385592634682,-0.6442769003621125,-0.023648474021303975,0.006993046277232101,0.001337087272248944,0.013103679265868022,0.01172143380313495,-0.4049933154898232,0.0,0.0,0.0,0.0,0.0,0.0
1059,551000000,,shoulder_pan_joint,shoulder_lift_joint,elbow_joint,wrist_1_joint,wrist_2_joint,wrist_3_joint,-0.2046330004136534,-1.5702557340541548,-0.4949358811280815,-0.4952650160373757,0.9897714791689287,-0.5815113473938132,-0.01482522820657406,-0.033091905359366076,-0.004038721804905766,0.0043073524086158395,0.011989775524884783,-0.4129587648688672,0.0,0.0,0.0,0.0,0.0,0.0
1059,571000000,,shoulder_pan_joint,shoulder_lift_joint,elbow_joint,wrist_1_joint,wrist_2_joint,wrist_3_joint,-0.2674566575057664,-1.5703522432555408,-0.5263522085572312,-0.526649288600578,1.052605411679953,-0.5187822345680679,-0.014041867038281683,-0.042846467722921236,-0.005397417522009361,0.002918658126557651,0.012000647057236469,-0.4763945153197919,0.0,0.0,0.0,0.0,0.0,0.0
1059,591000000,,shoulder_pan_joint,shoulder_lift_joint,elbow_joint,wrist_1_joint,wrist_2_joint,wrist_3_joint,-0.33026175302226335,-1.5704657519680367,-0.5577709181057262,-0.5580383377287115,1.1154398435725357,-0.4560420345036551,-0.001361622295431325,-0.07517232393054502,-0.009993509609423967,-0.004813296617851681,0.011626646705560573,-0.5427327461583685,0.0,0.0,0.0,0.0,0.0,0.0
1059,611000000,,shoulder_pan_joint,shoulder_lift_joint,elbow_joint,wrist_1_joint,wrist_2_joint,wrist_3_joint,-0.3930498345974067,-1.570596129925434,-0.5891919964107162,-0.5894308218918631,1.1782736231653663,-0.3932734560541089,0.05758439709165483,-0.11004907768514427,-0.014727521318149528,-0.012165194030564902,0.01270817500360405,-0.5602834207673941,0.0,0.0,0.0,0.0,0.0,0.0
1059,631000000,,shoulder_pan_joint,shoulder_lift_joint,elbow_joint,wrist_1_joint,wrist_2_joint,wrist_3_joint,-0.45584790952705045,-1.5706913043675819,-0.6206083009584669,-0.6208140556117918,1.2411079288900542,-0.33054824905140734,0.06260346297203602,-0.121517067261485,-0.01646080958903212,-0.013731458028594073,0.01253191742074733,-0.6348730070982941,0.0,0.0,0.0,0.0,0.0,0.0
1059,651000000,,shoulder_pan_joint,shoulder_lift_joint,elbow_joint,wrist_1_joint,wrist_2_joint,wrist_3_joint,-0.5171661004087191,-1.5708210299486325,-0.6513036961787977,-0.6514818747974065,1.3024902311037527,-0.2692241788851284,0.04116837595326452,-0.15816336484665003,-0.021960746494964323,-0.022687418131773385,0.011807373156996426,-0.6737554019073,0.0,0.0,0.0,0.0,0.0,0.0
1059,671000000,,shoulder_pan_joint,shoulder_lift_joint,elbow_joint,wrist_1_joint,wrist_2_joint,wrist_3_joint,-0.5721074706609652,-1.571596289689353,-0.6786849113462452,-0.6788045003368604,1.357437966915307,-0.21429379367436496,0.04366874751113643,-0.17920788042198438,-0.024939919897949525,-0.0269975657464131,0.011555963822344834,-0.6681606221296329,0.0,0.0,0.0,0.0,0.0,0.0
1059,691000000,,shoulder_pan_joint,shoulder_lift_joint,elbow_joint,wrist_1_joint,wrist_2_joint,wrist_3_joint,-0.6191160397555375,-1.5719366197418267,-0.7022345796098026,-0.7023200437100536,1.4045378879070771,-0.16723299746633824,0.047964639885354106,-0.18682080308485027,-0.02592128256568843,-0.028165467183555504,0.011115187889256167,-0.6667890253164273,0.0,0.0,0.0,0.0,0.0,0.0
1059,711000000,,shoulder_pan_joint,shoulder_lift_joint,elbow_joint,wrist_1_joint,wrist_2_joint,wrist_3_joint,-0.6597077294923022,-1.5720714426808202,-0.7225253942186143,-0.7225841239461781,1.4451096242821553,-0.1265877006295062,0.08873805009202827,-0.20434404005062978,-0.028482598486310573,-0.03169082926709371,0.009583475695248617,-0.5747861957916256,0.0,0.0,0.0,0.0,0.0,0.0
1059,731000000,,shoulder_pan_joint,shoulder_lift_joint,elbow_joint,wrist_1_joint,wrist_2_joint,wrist_3_joint,-0.6952173744629109,-1.5721608982835313,-0.7402852401352993,-0.7403231515675595,1.480624846992085,-0.09102067196075048,0.08547159671048304,-0.21286179823204252,-0.029718256328042758,-0.033714621426302105,0.007468156299465636,-0.5245002607171872,0.0,0.0,0.0,0.0,0.0,0.0
1059,751000000,,shoulder_pan_joint,shoulder_lift_joint,elbow_joint,wrist_1_joint,wrist_2_joint,wrist_3_joint,-0.7251045645997385,-1.57231283043122,-0.7552340961767534,-0.7552576698413347,1.5105210812440584,-0.06109215267439971,0.08150399116271234,-0.21710848892768295,-0.030655672837835435,-0.034512503096533476,0.005320817938819111,-0.5103528577548149,0.0,0.0,0.0,0.0,0.0,0.0
1059,771000000,,shoulder_pan_joint,shoulder_lift_joint,elbow_joint,wrist_1_joint,wrist_2_joint,wrist_3_joint,-0.74899686391025,-1.5724218743432248,-0.7671827316866304,-0.7671926325306906,1.5344204356948161,-0.03717681827893404,0.0814837230387154,-0.2205385464684672,-0.03113465279458194,-0.035027785583594984,0.005018689083185632,-0.5058049460959289,0.0,0.0,0.0,0.0,0.0,0.0
1059,791000000,,shoulder_pan_joint,shoulder_lift_joint,elbow_joint,wrist_1_joint,wrist_2_joint,wrist_3_joint,-0.7668874613590759,-1.5724985722702574,-0.7761312757784964,-0.7761310989160766,1.5523199983234495,-0.019265535568896652,0.0811478537320564,-0.22342752810167882,-0.03160861099728768,-0.03550355690050255,0.0044126736166249445,-0.5000097872857712,0.0,0.0,0.0,0.0,0.0,0.0
1059,811000000,,shoulder_pan_joint,shoulder_lift_joint,elbow_joint,wrist_1_joint,wrist_2_joint,wrist_3_joint,-0.7787514343084281,-1.5731536401857973,-0.782080814297883,-0.7820574092083596,1.5642219237318624,-0.0072859667588227595,0.0817478735746461,-0.22514538312579613,-0.03192472494797527,-0.03564435785405007,0.0043802707225108085,-0.5115588571432388,0.0,0.0,0.0,0.0,0.0,0.0
1059,831000000,,shoulder_pan_joint,shoulder_lift_joint,elbow_joint,wrist_1_joint,wrist_2_joint,wrist_3_joint,-0.7846607237458425,-1.5725241251442146,-0.7850288835455848,-0.7850189405126562,1.5701171173339192,-0.0012687932912189837,0.08719073764843306,-0.22901648899273913,-0.03257378512255227,-0.03646114743105611,0.005000113929545986,-0.5182341116751008,0.0,0.0,0.0,0.0,0.0,0.0
1059,851000000,,shoulder_pan_joint,shoulder_lift_joint,elbow_joint,wrist_1_joint,wrist_2_joint,wrist_3_joint,-0.7853719647204302,-1.5725610562512404,-0.7853789187671971,-0.7853676060937431,1.5708177894495972,-0.0009645519942527159,0.0836695555477254,-0.22602079656744278,-0.03210390000175145,-0.035670300038737945,0.004464655535122096,-0.5230675159065459,0.0,0.0,0.0,0.0,0.0,0.0
1059,871000000,,shoulder_pan_joint,shoulder_lift_joint,elbow_joint,wrist_1_joint,wrist_2_joint,wrist_3_joint,-0.7853550953660013,-1.5724425882499933,-0.7853770051127116,-0.7853666012510336,1.570816070631179,-0.0009254275077346108,0.08935580076992082,-0.23142301234240853,-0.03293592973698334,-0.03688870498795527,0.005118216772194161,-0.49729038409192855,0.0,0.0,0.0,0.0,0.0,0.0
1059,891000000,,shoulder_pan_joint,shoulder_lift_joint,elbow_joint,wrist_1_joint,wrist_2_joint,wrist_3_joint,-0.7853426614970624,-1.5743209991417393,-0.7853599127306143,-0.7853367277670698,1.5708388195867524,-0.0016442380911465548,0.08410316443380297,-0.22590754371801758,-0.03210787681374294,-0.035568473044286786,0.004602493286000212,-0.5286753600104517,0.0,0.0,0.0,0.0,0.0,0.0
1059,911000000,,shoulder_pan_joint,shoulder_lift_joint,elbow_joint,wrist_1_joint,wrist_2_joint,wrist_3_joint,-0.7853348812925844,-1.5727649722437054,-0.7896828769862276,-0.7826274445652208,1.5708386245068962,-0.001530888604173164,0.09604791061548056,-0.23918287761324053,-0.034163814995956665,-0.03752506863026406,0.005180880466609361,-0.40409507352428875,0.0,0.0,0.0,0.0,0.0,0.0
1059,931000000,,shoulder_pan_joint,shoulder_lift_joint,elbow_joint,wrist_1_joint,wrist_2_joint,wrist_3_joint,-0.7853221951595719,-1.5650846568207424,-0.8100813489180254,-0.7698372220553047,1.5708269122095375,-0.0016577303130027587,0.08567128105753884,-0.22661175514750437,-0.032446128488536674,-0.035174357165156045,0.004798442019261575,-0.5309360895239028,0.0,0.0,0.0,0.0,0.0,0.0
1059,951000000,,shoulder_pan_joint,shoulder_lift_joint,elbow_joint,wrist_1_joint,wrist_2_joint,wrist_3_joint,-0.7852899320330478,-1.553684929081241,-0.8422692840518975,-0.749639331616029,1.570815375903897,-0.0015491886224276996,0.08346926959877571,-0.22606622050538455,-0.03261315721658897,-0.0344052602507241,0.004359329669453963,-0.519125140520529,0.0,0.0,0.0,0.0,0.0,0.0
1059,971000000,,shoulder_pan_joint,shoulder_lift_joint,elbow_joint,wrist_1_joint,wrist_2_joint,wrist_3_joint,-0.7852891525042907,-1.5414282739634775,-0.873384514376375,-0.7301473174627784,1.5707975594124326,-0.0016719297024483382,0.08877968353665874,-0.22895567005856876,-0.03337135839138161,-0.034378683611629324,0.004990529171515875,-0.5226693854745648,0.0,0.0,0.0,0.0,0.0,0.0
1059,991000000,,shoulder_pan_joint,shoulder_lift_joint,elbow_joint,wrist_1_joint,wrist_2_joint,wrist_3_joint,-0.7852884953227894,-1.5326474986035725,-0.8969984711258867,-0.7153409076064268,1.5707873165050428,-0.0016677936177869057,0.08581377357549105,-0.226033333827931,-0.03312541206398378,-0.033100862570743184,0.004466813047996272,-0.5276984612067235,0.0,0.0,0.0,0.0,0.0,0.0
1060,11000000,,shoulder_pan_joint,shoulder_lift_joint,elbow_joint,wrist_1_joint,wrist_2_joint,wrist_3_joint,-0.7852580705575187,-1.5230580871178203,-0.9228358930834064,-0.6989758813794342,1.5707730561711566,-0.0016726717409385472,0.0921334505792759,-0.23177278333132711,-0.03426289443100117,-0.03372063425024163,0.005122353654757203,-0.5025225021684252,0.0,0.0,0.0,0.0,0.0,0.0
1060,31000000,,shoulder_pan_joint,shoulder_lift_joint,elbow_joint,wrist_1_joint,wrist_2_joint,wrist_3_joint,-0.7852544974962647,-1.5111323729526518,-0.9571267732544833,-0.6767038118202828,1.570756410295548,-0.0016890470324355533,0.0872403685983752,-0.2260174345115235,-0.03369661402434454,-0.031662038295703465,0.004494179269611095,-0.5316030794822559,0.0,0.0,0.0,0.0,0.0,0.0
1060,51000000,,shoulder_pan_joint,shoulder_lift_joint,elbow_joint,wrist_1_joint,wrist_2_joint,wrist_3_joint,-0.7852193376476198,-1.4976346302588723,-0.9964456002219864,-0.6508317634268153,1.570733550671095,-0.0017147379036375199,0.09154745992102067,-0.2287835586905954,-0.03452619442889249,-0.031354531635866545,0.005036556004133934,-0.53219747732868,0.0,0.0,0.0,0.0,0.0,0.0
1060,71000000,,shoulder_pan_joint,shoulder_lift_joint,elbow_joint,wrist_1_joint,wrist_2_joint,wrist_3_joint,-0.785200418804215,-1.484572928814183,-1.0348208086214523,-0.6255908545766777,1.5707138832993204,-0.001609017281926306,0.10159018287825938,-0.24026107243329697,-0.036770009199665665,-0.03162980304671936,0.005213261835284144,-0.41901406368997896,0.0,0.0,0.0,0.0,0.0,0.0
1060,91000000,,shoulder_pan_joint,shoulder_lift_joint,elbow_joint,wrist_1_joint,wrist_2_joint,wrist_3_joint,-0.7851840026727519,-1.4723443673055616,-1.069799216924082,-0.6027635586760374,1.5706934999634496,-0.001735546680182054,0.09040998800209349,-0.2260665403972671,-0.034827640785014324,-0.02888434096506609,0.004615377536317649,-0.5429591700711802,0.0,0.0,0.0,0.0,0.0,0.0
1060,111000000,,shoulder_pan_joint,shoulder_lift_joint,elbow_joint,wrist_1_joint,wrist_2_joint,wrist_3_joint,-0.785154715149563,-1.4605726183833454,-1.1040839337988437,-0.5802065056222521,1.5706733661482284,-0.0017495917509116055,0.09389332996640191,-0.22875391957829921,-0.03559085222141134,-0.028717709457551366,0.004974855336625318,-0.5381059347000097,0.0,0.0,0.0,0.0,0.0,0.0
1060,131000000,,shoulder_pan_joint,shoulder_lift_joint,elbow_joint,wrist_1_joint,wrist_2_joint,wrist_3_joint,-0.7851399449724585,-1.450870060968521,-1.1348210682497237,-0.5592470822114581,1.5706564794614204,-0.0016382386958140316,0.10362817408120158,-0.2407291765583075,-0.037891530329612455,-0.029180040221708392,0.0050894907199145745,-0.42279636438872564,0.0,0.0,0.0,0.0,0.0,0.0
1060,151000000,,shoulder_pan_joint,shoulder_lift_joint,elbow_joint,wrist_1_joint,wrist_2_joint,wrist_3_joint,-0.7851235090745234,-1.442635553251506,-1.1623152710949025,-0.5399065588350762,1.5706365263607802,-0.0017658025647486753,0.09219304026967885,-0.2259271328452212,-0.03574207106566929,-0.026582670303845868,0.004489108737230383,-0.5469899259235662,0.0,0.0,0.0,0.0,0.0,0.0
1060,171000000,,shoulder_pan_joint,shoulder_lift_joint,elbow_joint,wrist_1_joint,wrist_2_joint,wrist_3_joint,-0.7850952814041285,-1.434369700239218,-1.189837814978155,-0.5206057828252391,1.5706170278576694,-0.0017785064057607158,0.09537878396635205,-0.22842939559771935,-0.03642106019634306,-0.026477125667418666,0.004841496387424808,-0.5423255825736353,0.0,0.0,0.0,0.0,0.0,0.0
1060,191000000,,shoulder_pan_joint,shoulder_lift_joint,elbow_joint,wrist_1_joint,wrist_2_joint,wrist_3_joint,-0.7850819704608076,-1.4252231399391722,-1.2193171591931717,-0.5003476418675668,1.5706006977538447,-0.001665252843114473,0.10510024206802823,-0.24074489531388055,-0.038808713511936266,-0.02694409678173415,0.004921982879071668,-0.42620366790128456,0.0,0.0,0.0,0.0,0.0,0.0
1060,211000000,,shoulder_pan_joint,shoulder_lift_joint,elbow_joint,wrist_1_joint,wrist_2_joint,wrist_3_joint,-0.7850646573864664,-1.4162398427037335,-1.2483703879241537,-0.4801963876775215,1.5705803663304918,-0.001794321608600491,0.0937801165959784,-0.2257047933634207,-0.036589719126061904,-0.024428110132171388,0.004309823235835848,-0.5510018531948351,0.0,0.0,0.0,0.0,0.0,0.0
1060,231000000,,shoulder_pan_joint,shoulder_lift_joint,elbow_joint,wrist_1_joint,wrist_2_joint,wrist_3_joint,-0.7850355540034872,-1.4086773516583655,-1.2752256105299704,-0.4608608971732844,1.570560447729748,-0.0018055632464628601,0.09692259121686897,-0.2281628695409173,-0.03726335580963691,-0.02428412684800796,0.004649967591254547,-0.546544578938664,0.0,0.0,0.0,0.0,0.0,0.0
1060,251000000,,shoulder_pan_joint,shoulder_lift_joint,elbow_joint,wrist_1_joint,wrist_2_joint,wrist_3_joint,-0.7850221383296665,-1.4020931326363222,-1.3007118428292888,-0.44201455424880187,1.5705437804952114,-0.0016905154876987183,0.10650624219108046,-0.23937916806455461,-0.03961888071782804,-0.023876183128132777,0.004665371386785647,-0.42794174411724695,0.0,0.0,0.0,0.0,0.0,0.0
1060,271000000,,shoulder_pan_joint,shoulder_lift_joint,elbow_joint,wrist_1_joint,wrist_2_joint,wrist_3_joint,-0.7850048795330657,-1.3952469843875335,-1.326423807749677,-0.42308086577501847,1.5705237026799557,-0.0018204908207639647,0.09520726747683939,-0.22546056525583075,-0.037385826487921214,-0.022310960798053947,0.004114308178947406,-0.5549498761186604,0.0,0.0,0.0,0.0,0.0,0.0
1060,291000000,,shoulder_pan_joint,shoulder_lift_joint,elbow_joint,wrist_1_joint,wrist_2_joint,wrist_3_joint,-0.7849755703399373,-1.38784210220836,-1.3530478934738932,-0.4038171598810134,1.570503719875398,-0.0018303603959175518,0.0985277743796189,-0.22792030800057744,-0.03809108359756441,-0.022012755521239713,0.0044290389269371275,-0.5504954751365823,0.0,0.0,0.0,0.0,0.0,0.0
1060,311000000,,shoulder_pan_joint,shoulder_lift_joint,elbow_joint,wrist_1_joint,wrist_2_joint,wrist_3_joint,-0.784961262951871,-1.3808755607641139,-1.3791834252179633,-0.3846972824524242,1.5704868715985016,-0.001715481491838311,0.10816330256276532,-0.2386737531947935,-0.04054855454671291,-0.02086446285321053,0.00425910216650785,-0.43087670677557577,0.0,0.0,0.0,0.0,0.0,0.0
1060,331000000,,shoulder_pan_joint,shoulder_lift_joint,elbow_joint,wrist_1_joint,wrist_2_joint,wrist_3_joint,-0.7849453520925955,-1.374961924941907,-1.4036994199804136,-0.3660364508035956,1.5704669806316298,-0.0018474109438066932,0.09649949726697307,-0.2251364545226079,-0.038143210249149906,-0.020310670023418576,0.0038467204271261275,-0.5596652027880515,0.0,0.0,0.0,0.0,0.0,0.0
1060,351000000,,shoulder_pan_joint,shoulder_lift_joint,elbow_joint,wrist_1_joint,wrist_2_joint,wrist_3_joint,-0.784916702149351,-1.3698135799456956,-1.4271929233378575,-0.34764879007424554,1.5704469476025587,-0.001861930330378847,0.09965026188927664,-0.22755990500853013,-0.03882372991598926,-0.020003127510856977,0.004161579087289861,-0.5588346848634461,0.0,0.0,0.0,0.0,0.0,0.0
1060,371000000,,shoulder_pan_joint,shoulder_lift_joint,elbow_joint,wrist_1_joint,wrist_2_joint,wrist_3_joint,-0.7849012395892165,-1.3646569751410187,-1.450848239991461,-0.32920824075816046,1.5704303130878632,-0.0017641471455238644,0.10968777875525781,-0.23955055490328064,-0.04152096098308178,-0.018936348422152194,0.004036814111851625,-0.44586093888770817,0.0,0.0,0.0,0.0,0.0,0.0
1060,391000000,,shoulder_pan_joint,shoulder_lift_joint,elbow_joint,wrist_1_joint,wrist_2_joint,wrist_3_joint,-0.7848860356630496,-1.3588743470568652,-1.475181507534045,-0.3105860073975375,1.5704102000005662,-0.001876866585652337,0.09744474214917477,-0.22455997818580858,-0.03880505282872648,-0.01836618614882546,0.00356414828865189,-0.5640242154136751,0.0,0.0,0.0,0.0,0.0,0.0
1060,411000000,,shoulder_pan_joint,shoulder_lift_joint,elbow_joint,wrist_1_joint,wrist_2_joint,wrist_3_joint,-0.7848577078160446,-1.3534280395805878,-1.499136380666065,-0.292035044108947,1.570390123967499,-0.0018899438076234176,0.10074243372103563,-0.22697812701879272,-0.039513136737237775,-0.017938392050008023,0.003871294621300557,-0.5629703140178568,0.0,0.0,0.0,0.0,0.0,0.0
1060,431000000,,shoulder_pan_joint,shoulder_lift_joint,elbow_joint,wrist_1_joint,wrist_2_joint,wrist_3_joint,-0.7848418478948584,-1.3491445718501893,-1.5218141898835134,-0.27369691405928087,1.5703735582535767,-0.001798910892257588,0.11093500124009431,-0.2391678322137067,-0.04233140745329733,-0.01659362693622546,0.0037557707381295075,-0.45019966356527863,0.0,0.0,0.0,0.0,0.0,0.0
1060,451000000,,shoulder_pan_joint,shoulder_lift_joint,elbow_joint,wrist_1_joint,wrist_2_joint,wrist_3_joint,-0.7848256311916169,-1.3454003597474262,-1.5436759118550363,-0.2554843262912092,1.5703527376192055,-0.0019027400384139526,0.0984502494616244,-0.22220520173526426,-0.03944254578080619,-0.01493825711901453,0.003175285918276212,-0.5631065996292792,0.0,0.0,0.0,0.0,0.0,0.0
1060,471000000,,shoulder_pan_joint,shoulder_lift_joint,elbow_joint,wrist_1_joint,wrist_2_joint,wrist_3_joint,-0.784799085204515,-1.3416338026436927,-1.5656641794173156,-0.2372470570182763,1.5703333108969186,-0.0019302457369709813,0.10143939411700342,-0.22628137707650153,-0.04011408003103867,-0.01600798838966322,0.003569821375504656,-0.5687690927081608,0.0,0.0,0.0,0.0,0.0,0.0
1060,491000000,,shoulder_pan_joint,shoulder_lift_joint,elbow_joint,wrist_1_joint,wrist_2_joint,wrist_3_joint,-0.7847830632149213,-1.337486029072739,-1.5881904400261782,-0.21892214128192222,1.5703168221268662,-0.001831803345504035,0.11195598318034738,-0.23873060828736709,-0.043081911636967396,-0.014336792454066605,0.003460661768936904,-0.4540950794741428,0.0,0.0,0.0,0.0,0.0,0.0
1060,511000000,,shoulder_pan_joint,shoulder_lift_joint,elbow_joint,wrist_1_joint,wrist_2_joint,wrist_3_joint,-0.7847670577138128,-1.3334844303891673,-1.6104059333875558,-0.200615240437382,1.5702959447573956,-0.001919232898440093,0.0994106259310703,-0.2219298848486952,-0.04010305885657761,-0.013161841678479003,0.002854534227645124,-0.5649749957585087,0.0,0.0,0.0,0.0,0.0,0.0
1060,531000000,,shoulder_pan_joint,shoulder_lift_joint,elbow_joint,wrist_1_joint,wrist_2_joint,wrist_3_joint,-0.7847399338487353,-1.3305815669135121,-1.63156631940356,-0.18233729015750821,1.570276378489324,-0.0019403619442464048,0.10218791311602715,-0.2253446276137181,-0.04069681476353082,-0.013938960896033747,0.0032081747301655264,-0.5695151093455726,0.0,0.0,0.0,0.0,0.0,0.0
1060,551000000,,shoulder_pan_joint,shoulder_lift_joint,elbow_joint,wrist_1_joint,wrist_2_joint,wrist_3_joint,-0.7847249579885744,-1.3284246850610035,-1.6520460914074873,-0.16406002933476937,1.5702599044545984,-0.0018376409300477903,0.11259341394188696,-0.237312250168007,-0.043691876599936785,-0.011769625253759686,0.003103931327338688,-0.45159143393437745,0.0,0.0,0.0,0.0,0.0,0.0
1060,571000000,,shoulder_pan_joint,shoulder_lift_joint,elbow_joint,wrist_1_joint,wrist_2_joint,wrist_3_joint,-0.7847090126153029,-1.3260387873472972,-1.672626976884997,-0.14577870673421778,1.570238976682245,-0.001941931979589917,0.10002536944064383,-0.22107369695254753,-0.04069196750357329,-0.011059739898057641,0.002474597035150669,-0.5662716528972953,0.0,0.0,0.0,0.0,0.0,0.0
1060,591000000,,shoulder_pan_joint,shoulder_lift_joint,elbow_joint,wrist_1_joint,wrist_2_joint,wrist_3_joint,-0.7846813914996238,-1.3232776106827853,-1.6936579211835063,-0.12749246924124336,1.5702194909426783,-0.0019705800815428276,0.10257167588832715,-0.22435133890870762,-0.04120001144215213,-0.012037621644571339,0.0028336780225331135,-0.5730242741097697,0.0,0.0,0.0,0.0,0.0,0.0
1060,611000000,,shoulder_pan_joint,shoulder_lift_joint,elbow_joint,wrist_1_joint,wrist_2_joint,wrist_3_joint,-0.7846672848415155,-1.3209042920010647,-1.7138846950260813,-0.10968973867284948,1.5702037490295266,-0.0018773421037705518,0.11345952252735038,-0.23706335517496685,-0.04438879258909578,-0.009754535135368725,0.002752204613218845,-0.45735956076822376,0.0,0.0,0.0,0.0,0.0,0.0
1060,631000000,,shoulder_pan_joint,shoulder_lift_joint,elbow_joint,wrist_1_joint,wrist_2_joint,wrist_3_joint,-0.7846536098201913,-1.3194928354310607,-1.7311991956717074,-0.09368784655489115,1.5701847428632698,-0.001964944226076959,0.10068850924794945,-0.21969752329505465,-0.0412690579679732,-0.008519449863381934,0.0020066842216288697,-0.5667598770497155,0.0,0.0,0.0,0.0,0.0,0.0
1060,651000000,,shoulder_pan_joint,shoulder_lift_joint,elbow_joint,wrist_1_joint,wrist_2_joint,wrist_3_joint,-0.7846303780682522,-1.3189112947678208,-1.7464597145283962,-0.07900342794041659,1.5701694648219213,-0.00198745577899917,0.10281447449100968,-0.22329544181476674,-0.041614989694853,-0.010268990756613916,0.002473454196466447,-0.573960086674946,0.0,0.0,0.0,0.0,0.0,0.0
1060,671000000,,shoulder_pan_joint,shoulder_lift_joint,elbow_joint,wrist_1_joint,wrist_2_joint,wrist_3_joint,-0.7846203423627536,-1.3182915283534946,-1.7619386344556247,-0.06419389989817681,1.5701570058884888,-0.0018883136281244717,0.11374641966870513,-0.2358829312466006,-0.04483259951776297,-0.007721316995008887,0.002443345204261288,-0.4562794011570608,0.0,0.0,0.0,0.0,0.0,0.0
1060,691000000,,shoulder_pan_joint,shoulder_lift_joint,elbow_joint,wrist_1_joint,wrist_2_joint,wrist_3_joint,-0.7846069315456585,-1.3170399294791633,-1.7787384952998506,-0.048549554638950276,1.5701383190660287,-0.00197746606204241,0.10094060081071052,-0.21877508595125195,-0.04168244736816473,-0.0067874714955880044,0.0016786954871322868,-0.5658242760136922,0.0,0.0,0.0,0.0,0.0,0.0
1060,711000000,,shoulder_pan_joint,shoulder_lift_joint,elbow_joint,wrist_1_joint,wrist_2_joint,wrist_3_joint,-0.784589204255874,-1.3165287686802802,-1.787780874894561,-0.04001213046254026,1.5701291060977223,-0.001999107780598308,0.10312495248974138,-0.22185763701223565,-0.041996634372081565,-0.008145656464387474,0.002159934747254566,-0.5718787427493719,0.0,0.0,0.0,0.0,0.0,0.0
1060,731000000,,shoulder_pan_joint,shoulder_lift_joint,elbow_joint,wrist_1_joint,wrist_2_joint,wrist_3_joint,-0.7845961383011844,-1.3167857164571792,-1.786720852286507,-0.04089251768399116,1.5701331267419638,-0.0018973151556886947,0.11392057628153628,-0.23546805348486277,-0.04506824222397443,-0.00680544472014577,0.0022801346081059853,-0.4564182256823265,0.0,0.0,0.0,0.0,0.0,0.0
1060,751000000,,shoulder_pan_joint,shoulder_lift_joint,elbow_joint,wrist_1_joint,wrist_2_joint,wrist_3_joint,-0.7845993067520141,-1.316706488901108,-1.7867198701273317,-0.040893068711212344,1.5701304906826286,-0.0019790850383261116,0.10093269341281387,-0.21862703275180684,-0.041747253315363775,-0.006525713975747194,0.0016124395604020236,-0.5654332107078948,0.0,0.0,0.0,0.0,0.0,0.0
1060,771000000,,shoulder_pan_joint,shoulder_lift_joint,elbow_joint,wrist_1_joint,wrist_2_joint,wrist_3_joint,-0.7845904308793044,-1.316708000189669,-1.7867208832030919,-0.04089457424441978,1.5701300583358622,-0.001998823272467476,0.10304996552735296,-0.22189784140376434,-0.041982203482477276,-0.00822723941541259,0.002152783032186502,-0.5719643096175462,0.0,0.0,0.0,0.0,0.0,0.0
1060,791000000,,shoulder_pan_joint,shoulder_lift_joint,elbow_joint,wrist_1_joint,wrist_2_joint,wrist_3_joint,-0.7845349650853537,-1.3185864609316145,-1.7867098887539656,-0.0408489072562519,1.570146500452056,-0.0026146576266823374,0.11375138456562456,-0.23532171690711123,-0.045063948301584555,-0.006690493396217523,0.0022751699688442206,-0.45605946154957994,0.0,0.0,0.0,0.0,0.0,0.0
1060,811000000,,shoulder_pan_joint,shoulder_lift_joint,elbow_joint,wrist_1_joint,wrist_2_joint,wrist_3_joint,-0.786431228963977,-1.3207187384422783,-1.7850657851091665,-0.04028493658803267,1.5720362393005924,-0.002715275792875005,0.10064750774140022,-0.21878816606168422,-0.04178957742497491,-0.006414196598972133,0.0015801991461081577,-0.5638714322747935,0.0,0.0,0.0,0.0,0.0,0.0
1060,831000000,,shoulder_pan_joint,shoulder_lift_joint,elbow_joint,wrist_1_joint,wrist_2_joint,wrist_3_joint,-0.7953602862885969,-1.3311524753094686,-1.7773122824321872,-0.03762100682641112,1.5809665359479625,-0.0027474179000206433,0.10116835212682057,-0.2204552277992161,-0.04205259811158779,-0.0064333956682239846,0.0016685575081336404,-0.56898395468328,0.0,0.0,0.0,0.0,0.0,0.0
1060,851000000,,shoulder_pan_joint,shoulder_lift_joint,elbow_joint,wrist_1_joint,wrist_2_joint,wrist_3_joint,-0.8094545609575388,-1.3476201463017263,-1.7650770377683953,-0.03341775989892515,1.595057700964733,-0.0027775915985799315,0.10059415207517206,-0.22255117816815023,-0.04240002554001876,-0.0063379963557129715,0.001322434286154063,-0.5629712697930962,0.0,0.0,0.0,0.0,0.0,0.0
1060,871000000,,shoulder_pan_joint,shoulder_lift_joint,elbow_joint,wrist_1_joint,wrist_2_joint,wrist_3_joint,-0.8230798540194755,-1.363539503398334,-1.7532492459947306,-0.029354274184504092,1.6086795822654167,-0.002807788687784196,0.09991936994766042,-0.2246219130975865,-0.04273596324893125,-0.006290307597292655,0.0009088007086545669,-0.5573361807273582,0.0,0.0,0.0,0.0,0.0,0.0
1060,891000000,,shoulder_pan_joint,shoulder_lift_joint,elbow_joint,wrist_1_joint,wrist_2_joint,wrist_3_joint,-0.8334137521774441,-1.3757062841966157,-1.7442744441776004,-0.02626998849498019,1.6190201954431807,-0.0027550129300442094,0.11327462359050831,-0.24239174576863587,-0.04617436370683847,-0.006682040001632195,0.0013240274291766302,-0.4648756086859762,0.0,0.0,0.0,0.0,0.0,0.0
1060,911000000,,shoulder_pan_joint,shoulder_lift_joint,elbow_joint,wrist_1_joint,wrist_2_joint,wrist_3_joint,-0.8462335430296042,-1.391688001878439,-1.7315594535137482,-0.02294241711939904,1.6318366380032696,-0.0028777280515273063,0.10098829952356403,-0.23023305350757717,-0.04354481163737767,-0.006942025485793701,0.000777585842139869,-0.5592529425070227,0.0,0.0,0.0,0.0,0.0,0.0
1060,931000000,,shoulder_pan_joint,shoulder_lift_joint,elbow_joint,wrist_1_joint,wrist_2_joint,wrist_3_joint,-0.8683666093260376,-1.4227675524983763,-1.7048756978245212,-0.01867912270235017,1.6539664754977057,-0.002830211831734708,0.11194962688547826,-0.24722397110890343,-0.04687896539852976,-0.006687307897296435,0.0004297234472834949,-0.4491026527824912,0.0,0.0,0.0,0.0,0.0,0.0
1060,951000000,,shoulder_pan_joint,shoulder_lift_joint,elbow_joint,wrist_1_joint,wrist_2_joint,wrist_3_joint,-0.8967775345165023,-1.4645487747988124,-1.6683922079310651,-0.013864986308582239,1.6824080129209982,-0.0029595226168614985,0.09634153384062974,-0.23756929465770882,-0.04451499840350581,-0.007195748212104225,-0.0005693250383153187,-0.5366528969381474,0.0,0.0,0.0,0.0,0.0,0.0
1060,971000000,,shoulder_pan_joint,shoulder_lift_joint,elbow_joint,wrist_1_joint,wrist_2_joint,wrist_3_joint,-0.9244362821932937,-1.5046655119995886,-1.6329832022800002,-0.00918258612919054,1.7100613117527397,-0.003015779280453046,0.09390629716894257,-0.23970299026712832,-0.044774589911922624,-0.006847850277833745,-0.0013255061575831728,-0.5195985003339805,0.0,0.0,0.0,0.0,0.0,0.0
1060,991000000,,shoulder_pan_joint,shoulder_lift_joint,elbow_joint,wrist_1_joint,wrist_2_joint,wrist_3_joint,-0.9480145429643718,-1.5375721961688251,-1.603882509768476,-0.004888254787046797,1.733607713300433,-0.0030060137686067634,0.1075870459589138,-0.2543830015023554,-0.04770492588893849,-0.006519463388613311,-0.0017512733561623056,-0.41761936883957557,0.0,0.0,0.0,0.0,0.0,0.0
1061,11000000,,shoulder_pan_joint,shoulder_lift_joint,elbow_joint,wrist_1_joint,wrist_2_joint,wrist_3_joint,-0.9707549521995862,-1.571557049848498,-1.5730447014457685,-0.0017768277400858068,1.756341395080213,-0.003063067958005483,0.10231055988991009,-0.2540106890572774,-0.047346803449276886,-0.006802182663596668,-0.0026323291856784475,-0.41840385108902767,0.0,0.0,0.0,0.0,0.0,0.0
1061,31000000,,shoulder_pan_joint,shoulder_lift_joint,elbow_joint,wrist_1_joint,wrist_2_joint,wrist_3_joint,-0.9900961712365577,-1.6071151443362375,-1.5359845872475866,-0.0032799038867503683,1.7756791031740988,-0.0031209449245634957,0.10076443948331296,-0.2531940179415184,-0.047036414604387455,-0.006399444348535233,-0.0030140336677657933,-0.424770124240068,0.0,0.0,0.0,0.0,0.0,0.0
1061,51000000,,shoulder_pan_joint,shoulder_lift_joint,elbow_joint,wrist_1_joint,wrist_2_joint,wrist_3_joint,-1.0062574576494105,-1.6427515819201854,-1.49538584681261,-0.008239665706698318,1.7918392833034424,-0.0031537147006446276,0.09812772818501564,-0.2523373361127351,-0.046630962457843594,-0.006363138427823101,-0.0035274452085645516,-0.4132764737581959,0.0,0.0,0.0,0.0,0.0,0.0
1061,71000000,,shoulder_pan_joint,shoulder_lift_joint,elbow_joint,wrist_1_joint,wrist_2_joint,wrist_3_joint,-1.0224230195898896,-1.6779187887026934,-1.4555358603542388,-0.012915373526064755,1.8080011928158441,-0.0031866647795588676,0.0952581614880777,-0.2512082919951748,-0.04617287767829348,-0.0063830799830598695,-0.00409585331231279,-0.40091752072823095,0.0,0.0,0.0,0.0,0.0,0.0
1061,91000000,,shoulder_pan_joint,shoulder_lift_joint,elbow_joint,wrist_1_joint,wrist_2_joint,wrist_3_joint,-1.0405014862535564,-1.7128480206930492,-1.4181082740987812,-0.0154039924117777,1.826069744537854,-0.0032235763459071975,0.09262196176990398,-0.25000649435482886,-0.04573122696625631,-0.006363790705189998,-0.004709535344317423,-0.3868966198174947,0.0,0.0,0.0,0.0,0.0,0.0
1061,111000000,,shoulder_pan_joint,shoulder_lift_joint,elbow_joint,wrist_1_joint,wrist_2_joint,wrist_3_joint,-1.0563925430148933,-1.7440746889148864,-1.3842747777938547,-0.017997025052244098,1.8419536362162852,-0.0032556416870024307,0.09012715453074657,-0.24857966075784232,-0.04526546535009279,-0.006381374413123919,-0.005257386714600798,-0.3734911973305897,0.0,0.0,0.0,0.0,0.0,0.0
1061,131000000,,shoulder_pan_joint,shoulder_lift_joint,elbow_joint,wrist_1_joint,wrist_2_joint,wrist_3_joint,-1.063496437800472,-1.760569903485238,-1.364668599015694,-0.02109494430671699,1.8490536470187706,-0.0032703377521139387,0.0886516138288791,-0.24758751704068144,-0.04494921719326095,-0.006452416520297821,-0.005505841410718387,-0.36583154872656043,0.0,0.0,0.0,0.0,0.0,0.0
1061,151000000,,shoulder_pan_joint,shoulder_lift_joint,elbow_joint,wrist_1_joint,wrist_2_joint,wrist_3_joint,-1.064387935069007,-1.7661251044304773,-1.3559703020068516,-0.024229964718007757,1.849943601249901,-0.0032721384467482295,0.088065035995057,-0.24703056361318115,-0.0447730100146404,-0.006519319773883869,-0.005525631730427694,-0.3632227052473122,0.0,0.0,0.0,0.0,0.0,0.0
1061,171000000,,shoulder_pan_joint,shoulder_lift_joint,elbow_joint,wrist_1_joint,wrist_2_joint,wrist_3_joint,-1.0659405366984362,-1.772615870869327,-1.3464784017121305,-0.027222398106616197,1.851494654415367,-0.00327551606476284,0.08749914424545922,-0.24640066019548312,-0.04458262147875347,-0.006572164183569096,-0.005554502103293238,-0.3603708043129573,0.0,0.0,0.0,0.0,0.0,0.0
1061,191000000,,shoulder_pan_joint,shoulder_lift_joint,elbow_joint,wrist_1_joint,wrist_2_joint,wrist_3_joint,-1.0714841832994253,-1.78604411875091,-1.330124344665144,-0.030135491138528536,1.85703616015104,-0.0032873526570345035,0.08638962906094085,-0.24537156139777228,-0.044283440544998554,-0.006624264349709752,-0.005724615272550228,-0.35456031172661734,0.0,0.0,0.0,0.0,0.0,0.0
1061,211000000,,shoulder_pan_joint,shoulder_lift_joint,elbow_joint,wrist_1_joint,wrist_2_joint,wrist_3_joint,-1.0724430414217831,-1.788466854076149,-1.3271127014960182,-0.030722318558109585,1.8579945641864484,-0.003289262749540889,0.08616671211285223,-0.24521056885229298,-0.04423221164700486,-0.006636438867513972,-0.005759378509884006,-0.3533464770196529,0.0,0.0,0.0,0.0,0.0,0.0
1061,231000000,,shoulder_pan_joint,shoulder_lift_joint,elbow_joint,wrist_1_joint,wrist_2_joint,wrist_3_joint,-1.0724372713723191,-1.7884527589185861,-1.3271290540967833,-0.03071970382866862,1.8579886178407996,-0.0032890476910800714,0.08620856266666214,-0.24520373176509752,-0.04423342266405572,-0.006617368569570958,-0.005752875752213664,-0.35300971098304035,0.0,0.0,0.0,0.0,0.0,0.0
1061,251000000,,shoulder_pan_joint,shoulder_lift_joint,elbow_joint,wrist_1_joint,wrist_2_joint,wrist_3_joint,-1.0724373978069606,-1.7884523537710937,-1.3271290382537266,-0.030719685884450953,1.857988590159838,-0.0032889735090515515,0.08627044312093587,-0.24519482372063994,-0.04423438558630477,-0.006597456560741177,-0.005743538719884658,-0.3527454423468667,0.0,0.0,0.0,0.0,0.0,0.0
1061,271000000,,shoulder_pan_joint,shoulder_lift_joint,elbow_joint,wrist_1_joint,wrist_2_joint,wrist_3_joint,-1.0724375191491973,-1.7884519789218558,-1.3271290235752744,-0.030719669290384388,1.8579885647240584,-0.0032889139879905827,0.08633388751896301,-0.24518676164718384,-0.04423542053653007,-0.006578236510426327,-0.0057340291610620195,-0.3525037711923091,0.0,0.0,0.0,0.0,0.0,0.0
1061,291000000,,shoulder_pan_joint,shoulder_lift_joint,elbow_joint,wrist_1_joint,wrist_2_joint,wrist_3_joint,-1.072423737186596,-1.790404360413823,-1.3271092318940214,-0.03064662229285897,1.8579954758261152,-0.0037921553487736404,0.08626434338682748,-0.24492756463847964,-0.04421781483555143,-0.006415169314142433,-0.005731762944984238,-0.3518545651331247,0.0,0.0,0.0,0.0,0.0,0.0
1061,311000000,,shoulder_pan_joint,shoulder_lift_joint,elbow_joint,wrist_1_joint,wrist_2_joint,wrist_3_joint,-1.073878275575094,-1.7902487326936924,-1.3273080363775414,-0.03060980534861546,1.8594500752018384,-0.00379812030038007,0.08638116303424836,-0.2451367850724533,-0.04425547508608452,-0.006452389302517236,-0.00577782244217747,-0.35136915879381136,0.0,0.0,0.0,0.0,0.0,0.0
1061,331000000,,shoulder_pan_joint,shoulder_lift_joint,elbow_joint,wrist_1_joint,wrist_2_joint,wrist_3_joint,-1.0807342497606296,-1.7894473332673364,-1.3282447397823756,-0.03043858324226001,1.8663130779890746,-0.003824693817327862,0.08596962573442532,-0.24809660941447037,-0.044715408715363836,-0.007147252977634189,-0.006258753679993144,-0.3367068926226296,0.0,0.0,0.0,0.0,0.0,0.0
1061,351000000,,shoulder_pan_joint,shoulder_lift_joint,elbow_joint,wrist_1_joint,wrist_2_joint,wrist_3_joint,-1.0915655094955161,-1.7882909494593902,-1.329725213121102,-0.03016452091114541,1.8771445321691616,-0.003866068394965616,0.08609508711343335,-0.2497175987199367,-0.04498455831340076,-0.0075749366633490745,-0.006702350504402814,-0.33120756870261836,0.0,0.0,0.0,0.0,0.0,0.0
1061,371000000,,shoulder_pan_joint,shoulder_lift_joint,elbow_joint,wrist_1_joint,wrist_2_joint,wrist_3_joint,-1.1020355963444768,-1.7871672641041796,-1.3311560010629675,-0.02989938041228335,1.8876152958436982,-0.0039096281458892435,0.0863618606882658,-0.25125802082429105,-0.045242040271560535,-0.007978808015011274,-0.007111075375685338,-0.32666499378651387,0.0,0.0,0.0,0.0,0.0,0.0
1061,391000000,,shoulder_pan_joint,shoulder_lift_joint,elbow_joint,wrist_1_joint,wrist_2_joint,wrist_3_joint,-1.1099809175999695,-1.786314194985156,-1.3322417516201703,-0.029698228905828294,1.8955616436831857,-0.003941956910026079,0.08681793830018172,-0.25247859920811083,-0.0454460445604018,-0.008262651193506998,-0.007371295879755657,-0.3221689240302502,0.0,0.0,0.0,0.0,0.0,0.0
1061,411000000,,shoulder_pan_joint,shoulder_lift_joint,elbow_joint,wrist_1_joint,wrist_2_joint,wrist_3_joint,-1.1209579442127886,-1.7856231609322162,-1.3331375295928627,-0.02954117960326741,1.9065429362408608,-0.003987668992374793,0.08942431503701123,-0.25434067464917054,-0.045767830185938774,-0.008519004362793292,-0.007401654175859244,-0.31558417880452305,0.0,0.0,0.0,0.0,0.0,0.0
1061,431000000,,shoulder_pan_joint,shoulder_lift_joint,elbow_joint,wrist_1_joint,wrist_2_joint,wrist_3_joint,-1.1432760404835456,-1.7855175389077598,-1.3333346022822008,-0.02954680478007088,1.9288683037568788,-0.004089685907469054,0.09356881714566596,-0.25783192591889426,-0.046346064038543355,-0.009192723102220413,-0.007661034035251209,-0.30573937216200403,0.0,0.0,0.0,0.0,0.0,0.0
1061,451000000,,shoulder_pan_joint,shoulder_lift_joint,elbow_joint,wrist_1_joint,wrist_2_joint,wrist_3_joint,-1.1735194208544764,-1.7858819083233302,-1.3329654728698586,-0.029681244946597296,1.959119295623065,-0.004229300965729266,0.09907655188331214,-0.2630823539377235,-0.04719380257762984,-0.01018117020118292,-0.008071184708332166,-0.288401049234078,0.0,0.0,0.0,0.0,0.0,0.0
1061,471000000,,shoulder_pan_joint,shoulder_lift_joint,elbow_joint,wrist_1_joint,wrist_2_joint,wrist_3_joint,-1.2028810183799727,-1.7861924420345758,-1.3326246195681186,-0.0298078067293579,1.9884844533981454,-0.004407125685927049,0.10149916625375975,-0.2652747185379206,-0.047562806222186116,-0.010923900965098765,-0.008820160413103465,-0.30986435537519746,0.0,0.0,0.0,0.0,0.0,0.0
1061,491000000,,shoulder_pan_joint,shoulder_lift_joint,elbow_joint,wrist_1_joint,wrist_2_joint,wrist_3_joint,-1.2271060794933106,-1.786633338359314,-1.3326382442451807,-0.029837531928539995,2.012741279185846,-0.004623113805902079,0.08641862847164232,-0.2617590450280787,-0.04617651300782177,-0.014481666497725643,-0.009464903575079814,-0.3925179759929992,0.0,0.0,0.0,0.0,0.0,0.0
1061,511000000,,shoulder_pan_joint,shoulder_lift_joint,elbow_joint,wrist_1_joint,wrist_2_joint,wrist_3_joint,-1.2521529549749966,-1.787351523688418,-1.331608531793285,-0.030106416691863203,2.037797674708518,-0.0046621070801364795,0.10726314802699276,-0.2713132824627901,-0.048518412171424496,-0.012649740261628906,-0.009880802091338651,-0.30926517982371887,0.0,0.0,0.0,0.0,0.0,0.0
1061,531000000,,shoulder_pan_joint,shoulder_lift_joint,elbow_joint,wrist_1_joint,wrist_2_joint,wrist_3_joint,-1.2799747418887861,-1.7909515734952635,-1.3266591540449237,-0.03119488317338792,2.0655971434902103,-0.004812236569166295,0.11292733417204825,-0.2716753571366225,-0.048455381983801504,-0.013689802144557728,-0.009845286239875458,-0.3029813767764711,0.0,0.0,0.0,0.0,0.0,0.0
1061,551000000,,shoulder_pan_joint,shoulder_lift_joint,elbow_joint,wrist_1_joint,wrist_2_joint,wrist_3_joint,-1.3089285720753994,-1.7976791706668909,-1.3188937459368413,-0.03284789074480443,2.0945814661542848,-0.005088135270495897,0.09592148550309834,-0.2706198386946478,-0.04750765531107948,-0.017188136190168346,-0.011032870155633366,-0.36730257369399294,0.0,0.0,0.0,0.0,0.0,0.0
1061,571000000,,shoulder_pan_joint,shoulder_lift_joint,elbow_joint,wrist_1_joint,wrist_2_joint,wrist_3_joint,-1.3374459284214106,-1.8033731864724638,-1.3113975878583641,-0.034464604405457955,2.12310568618938,-0.005122618236774734,0.1186029420037563,-0.27575620837405057,-0.048971976496508085,-0.015620646877495648,-0.010951229446781332,-0.2737159181214765,0.0,0.0,0.0,0.0,0.0,0.0
1061,591000000,,shoulder_pan_joint,shoulder_lift_joint,elbow_joint,wrist_1_joint,wrist_2_joint,wrist_3_joint,-1.3650809596653932,-1.8082280747444353,-1.3057133932645772,-0.03569058069378972,2.150745535980004,-0.00542022848146928,0.10157149793568326,-0.2731801735901712,-0.047821588421515626,-0.01852990835021051,-0.011862162073771703,-0.351343568146189,0.0,0.0,0.0,0.0,0.0,0.0
1061,611000000,,shoulder_pan_joint,shoulder_lift_joint,elbow_joint,wrist_1_joint,wrist_2_joint,wrist_3_joint,-1.3898004400231931,-1.8125073792947575,-1.3003110342040962,-0.03686946500578525,2.1754772238036466,-0.005569168081840381,0.10302345735394274,-0.27419574955193404,-0.047944185055329824,-0.019240711652161013,-0.012451135899688838,-0.342924353368518,0.0,0.0,0.0,0.0,0.0,0.0
