case-a2/ros2TopicPlotting/vignettes/ur3_move_two/ur_controller_state.csv
1096,271000000,,shoulder_pan_joint,shoulder_lift_joint,elbow_joint,wrist_1_joint,wrist_2_joint,wrist_3_joint,0,0,0,0,0.00043606975675725135,-0.001624315745227145,-0.00016296226248949108,0.000753434493398264,0.0005587381498457084,-0.00010688694682614575,0.0,0.0,0.0,0.0,0.0,0.0,,,0,0,0,0,0.7853981633974473,-1.570796326794895,1.942890293094024e-16,1.1102230246251565e-16,-2.636779683484747e-16,-1.570796326794895,0.0,0.0,0.0,0.0,0.0,0.0,0.0,0.0,0.0,0.0,0.0,0.0,,0,0,0.7852602393185322,-1.5691961345816123,0.00024801196471724296,-0.0006291487155216657,-0.0006971667446711294,-1.570800018358585,-0.0794752543839918,0.17590409089412112,0.023781011142988195,-0.032857713594924065,0.013017258312849611,-0.0831388990852146,,,0,0,,0,0,0,0,0,0,0,0,0,0,0,0
1096,372000000,,shoulder_pan_joint,shoulder_lift_joint,elbow_joint,wrist_1_joint,wrist_2_joint,wrist_3_joint,0,0,0,0,0.00043606975675725135,-0.001624315745227145,-0.00016296226248949108,0.000753434493398264,0.0005587381498457084,-0.00010688694682614575,0.0,0.0,0.0,0.0,0.0,0.0,,,0,0,0,0,0.7853981633974473,-1.570796326794895,1.942890293094024e-16,1.1102230246251565e-16,-2.636779683484747e-16,-1.570796326794895,0.0,0.0,0.0,0.0,0.0,0.0,0.0,0.0,0.0,0.0,0.0,0.0,,0,0,0.7852602393185322,-1.5691961345816132,0.0002480119647163548,-0.0006291487155216657,-0.0006971667446711294,-1.570800018358586,-0.07947525438399064,0.17590409089410902,0.023781011142984032,-0.03285771359424711,0.013017258312885582,-0.08313889908564925,,,0,0,,0,0,0,0,0,0,0,0,0,0,0,0
1096,472000000,,shoulder_pan_joint,shoulder_lift_joint,elbow_joint,wrist_1_joint,wrist_2_joint,wrist_3_joint,0,0,0,0,0.00043606975675725135,-0.001624315745227145,-0.00016296226248949108,0.000753434493398264,0.0005587381498457084,-0.00010688694682614575,0.0,0.0,0.0,0.0,0.0,0.0,,,0,0,0,0,0.7853981633974473,-1.570796326794895,1.942890293094024e-16,1.1102230246251565e-16,-2.636779683484747e-16,-1.570796326794895,0.0,0.0,0.0,0.0,0.0,0.0,0.0,0.0,0.0,0.0,0.0,0.0,,0,0,0.7852602393185322,-1.5691961345816132,0.0002480119647163548,-0.0006291487155234421,-0.0006971667446702412,-1.570800018358585,-0.07947525438398925,0.17590409089410008,0.02378101114298259,-0.0328577135942989,0.013017258312883806,-0.08313889908572974,,,0,0,,0,0,0,0,0,0,0,0,0,0,0,0
1096,572000000,,shoulder_pan_joint,shoulder_lift_joint,elbow_joint,wrist_1_joint,wrist_2_joint,wrist_3_joint,0,0,0,0,0.00043606975675725135,-0.001624315745227145,-0.00016296226248949108,0.000753434493398264,0.0005587381498457084,-0.00010688694682614575,0.0,0.0,0.0,0.0,0.0,0.0,,,0,0,0,0,0.7853981633974473,-1.570796326794895,1.942890293094024e-16,1.1102230246251565e-16,-2.636779683484747e-16,-1.570796326794895,0.0,0.0,0.0,0.0,0.0,0.0,0.0,0.0,0.0,0.0,0.0,0.0,,0,0,0.7852602393185322,-1.5691961345816132,0.0002480119647154666,-0.0006291487155216657,-0.0006971667446702412,-1.570800018358585,-0.07947525438399539,0.17590409089411357,0.023781011142983977,-0.03285771359405726,0.013017258312895352,-0.08313889908598171,,,0,0,,0,0,0,0,0,0,0,0,0,0,0,0
1096,672000000,,shoulder_pan_joint,shoulder_lift_joint,elbow_joint,wrist_1_joint,wrist_2_joint,wrist_3_joint,0,0,0,0,0.00043606975675725135,-0.001624315745227145,-0.00016296226248949108,0.000753434493398264,0.0005587381498457084,-0.00010688694682614575,0.0,0.0,0.0,0.0,0.0,0.0,,,0,0,0,0,0.7853981633974473,-1.570796326794895,1.942890293094024e-16,1.1102230246251565e-16,-2.636779683484747e-16,-1.570796326794895,0.0,0.0,0.0,0.0,0.0,0.0,0.0,0.0,0.0,0.0,0.0,0.0,,0,0,0.7852602393185322,-1.5691961345816132,0.0002480119647154666,-0.0006291487155225539,-0.0006971667446711294,-1.570800018358586,-0.0794752543839867,0.17590409089410936,0.023781011142986253,-0.032857713594951876,0.013017258312847835,-0.08313889908506494,,,0,0,,0,0,0,0,0,0,0,0,0,0,0,0
1096,772000000,,shoulder_pan_joint,shoulder_lift_joint,elbow_joint,wrist_1_joint,wrist_2_joint,wrist_3_joint,0,0,0,0,0.00043606975675725135,-0.001624315745227145,-0.00016296226248949108,0.000753434493398264,0.0005587381498457084,-0.00010688694682614575,0.0,0.0,0.0,0.0,0.0,0.0,,,0,0,0,0,0.7853981633974473,-1.570796326794895,1.942890293094024e-16,1.1102230246251565e-16,-2.636779683484747e-16,-1.570796326794895,0.0,0.0,0.0,0.0,0.0,0.0,0.0,0.0,0.0,0.0,0.0,0.0,,0,0,0.7852602393185313,-1.5691961345816114,0.00024801196471813114,-0.0006291487155234421,-0.0006971667446702412,-1.570800018358585,-0.07947525438399206,0.1759040908941279,0.023781011142989417,-0.03285771359496048,0.013017258312846725,-0.08313889908521194,,,0,0,,0,0,0,0,0,0,0,0,0,0,0,0
1096,873000000,,shoulder_pan_joint,shoulder_lift_joint,elbow_joint,wrist_1_joint,wrist_2_joint,wrist_3_joint,0,0,0,0,0.00043606975675725135,-0.001624315745227145,-0.00016296226248949108,0.000753434493398264,0.0005587381498457084,-0.00010688694682614575,0.0,0.0,0.0,0.0,0.0,0.0,,,0,0,0,0,0.7853981633974473,-1.570796326794895,1.942890293094024e-16,1.1102230246251565e-16,-2.636779683484747e-16,-1.570796326794895,0.0,0.0,0.0,0.0,0.0,0.0,0.0,0.0,0.0,0.0,0.0,0.0,,0,0,0.7852602393185322,-1.5691961345816132,0.00024801196471724296,-0.0006291487155225539,-0.0006971667446702412,-1.570800018358586,-0.07947525438398761,0.1759040908941138,0.023781011142986974,-0.03285771359489498,0.013017258312850055,-0.08313889908514027,,,0,0,,0,0,0,0,0,0,0,0,0,0,0,0
1096,974000000,,shoulder_pan_joint,shoulder_lift_joint,elbow_joint,wrist_1_joint,wrist_2_joint,wrist_3_joint,0,0,0,0,0.00043606975675725135,-0.001624315745227145,-0.00016296226248949108,0.000753434493398264,0.0005587381498457084,-0.00010688694682614575,0.0,0.0,0.0,0.0,0.0,0.0,,,0,0,0,0,0.7853981633974473,-1.570796326794895,1.942890293094024e-16,1.1102230246251565e-16,-2.636779683484747e-16,-1.570796326794895,0.0,0.0,0.0,0.0,0.0,0.0,0.0,0.0,0.0,0.0,0.0,0.0,,0,0,0.7852602393185322,-1.5691961345816114,0.0002480119647163548,-0.0006291487155225539,-0.0006971667446702412,-1.570800018358586,-0.07947525438399419,0.17590409089413067,0.02378101114298975,-0.03285771359492895,0.013017258312849167,-0.08313889908488303,,,0,0,,0,0,0,0,0,0,0,0,0,0,0,0
1097,74000000,,shoulder_pan_joint,shoulder_lift_joint,elbow_joint,wrist_1_joint,wrist_2_joint,wrist_3_joint,0,0,0,0,0.00043606975675725135,-0.001624315745227145,-0.00016296226248949108,0.000753434493398264,0.0005587381498457084,-0.00010688694682614575,0.0,0.0,0.0,0.0,0.0,0.0,,,0,0,0,0,0.7853981633974473,-1.570796326794895,1.942890293094024e-16,1.1102230246251565e-16,-2.636779683484747e-16,-1.570796326794895,0.0,0.0,0.0,0.0,0.0,0.0,0.0,0.0,0.0,0.0,0.0,0.0,,0,0,0.7852602393185322,-1.5691961345816123,0.0002480119647154666,-0.0006291487155225539,-0.0006971667446711294,-1.570800018358586,-0.07947525438399261,0.1759040908941078,0.023781011142984088,-0.032857713594344806,0.013017258312881141,-0.08313889908578487,,,0,0,,0,0,0,0,0,0,0,0,0,0,0,0
1097,174000000,,shoulder_pan_joint,shoulder_lift_joint,elbow_joint,wrist_1_joint,wrist_2_joint,wrist_3_joint,0,0,0,0,0.00043606975675725135,-0.001624315745227145,-0.00016296226248949108,0.000753434493398264,0.0005587381498457084,-0.00010688694682614575,0.0,0.0,0.0,0.0,0.0,0.0,,,0,0,0,0,0.7853981633974473,-1.570796326794895,1.942890293094024e-16,1.1102230246251565e-16,-2.636779683484747e-16,-1.570796326794895,0.0,0.0,0.0,0.0,0.0,0.0,0.0,0.0,0.0,0.0,0.0,0.0,,0,0,0.7852602393185313,-1.5691961345816123,0.0002480119647154666,-0.0006291487155225539,-0.0006971667446702412,-1.570800018358585,-0.07947525438399333,0.1759040908941128,0.023781011142984698,-0.03285771359431633,0.013017258312881808,-0.0831388990859282,,,0,0,,0,0,0,0,0,0,0,0,0,0,0,0
1097,275000000,,shoulder_pan_joint,shoulder_lift_joint,elbow_joint,wrist_1_joint,wrist_2_joint,wrist_3_joint,0,0,0,0,0.00043606975675725135,-0.001624315745227145,-0.00016296226248949108,0.000753434493398264,0.0005587381498457084,-0.00010688694682614575,0.0,0.0,0.0,0.0,0.0,0.0,,,0,0,0,0,0.7853981633974473,-1.570796326794895,1.942890293094024e-16,1.1102230246251565e-16,-2.636779683484747e-16,-1.570796326794895,0.0,0.0,0.0,0.0,0.0,0.0,0.0,0.0,0.0,0.0,0.0,0.0,,0,0,0.7852602393185313,-1.5691961345816114,0.00024801196471724296,-0.0006291487155225539,-0.0006971667446711294,-1.570800018358586,-0.07947525438399455,0.17590409089411302,0.02378101114298453,-0.0328577135942793,0.013017258312885138,-0.08313889908546002,,,0,0,,0,0,0,0,0,0,0,0,0,0,0,0
1097,375000000,,shoulder_pan_joint,shoulder_lift_joint,elbow_joint,wrist_1_joint,wrist_2_joint,wrist_3_joint,0,0,0,0,0.00043606975675725135,-0.001624315745227145,-0.00016296226248949108,0.000753434493398264,0.0005587381498457084,-0.00010688694682614575,0.0,0.0,0.0,0.0,0.0,0.0,,,0,0,0,0,0.7853981633974473,-1.570796326794895,1.942890293094024e-16,1.1102230246251565e-16,-2.636779683484747e-16,-1.570796326794895,0.0,0.0,0.0,0.0,0.0,0.0,0.0,0.0,0.0,0.0,0.0,0.0,,0,0,0.7852602393185322,-1.5691961345816114,0.0002480119647154666,-0.0006291487155216657,-0.0006971667446702412,-1.570800018358585,-0.07947525438399383,0.17590409089410114,0.023781011142981534,-0.032857713593789084,0.01301725831291245,-0.08313889908628219,,,0,0,,0,0,0,0,0,0,0,0,0,0,0,0
1097,475000000,,shoulder_pan_joint,shoulder_lift_joint,elbow_joint,wrist_1_joint,wrist_2_joint,wrist_3_joint,0,0,0,0,0.00043606975675725135,-0.001624315745227145,-0.00016296226248949108,0.000753434493398264,0.0005587381498457084,-0.00010688694682614575,0.0,0.0,0.0,0.0,0.0,0.0,,,0,0,0,0,0.7853981633974473,-1.570796326794895,1.942890293094024e-16,1.1102230246251565e-16,-2.636779683484747e-16,-1.570796326794895,0.0,0.0,0.0,0.0,0.0,0.0,0.0,0.0,0.0,0.0,0.0,0.0,,0,0,0.7852602393185322,-1.5691961345816132,0.0002480119647145784,-0.0006291487155216657,-0.0006971667446711294,-1.570800018358585,-0.07947525438398828,0.17590409089411108,0.02378101114298581,-0.03285771359463141,0.013017258312864266,-0.08313889908534094,,,0,0,,0,0,0,0,0,0,0,0,0,0,0,0
1097,576000000,,shoulder_pan_joint,shoulder_lift_joint,elbow_joint,wrist_1_joint,wrist_2_joint,wrist_3_joint,0,0,0,0,0.00043606975675725135,-0.001624315745227145,-0.00016296226248949108,0.000753434493398264,0.0005587381498457084,-0.00010688694682614575,0.0,0.0,0.0,0.0,0.0,0.0,,,0,0,0,0,0.7853981633974473,-1.570796326794895,1.942890293094024e-16,1.1102230246251565e-16,-2.636779683484747e-16,-1.570796326794895,0.0,0.0,0.0,0.0,0.0,0.0,0.0,0.0,0.0,0.0,0.0,0.0,,0,0,0.7852602393185322,-1.5691961345816132,0.0002480119647154666,-0.0006291487155234421,-0.000697166744669353,-1.570800018358585,-0.07947525438399275,0.1759040908941188,0.023781011142986697,-0.032857713594619586,0.013017258312865376,-0.08313889908529337,,,0,0,,0,0,0,0,0,0,0,0,0,0,0,0
1097,676000000,,shoulder_pan_joint,shoulder_lift_joint,elbow_joint,wrist_1_joint,wrist_2_joint,wrist_3_joint,0,0,0,0,0.00043606975675725135,-0.001624315745227145,-0.00016296226248949108,0.000753434493398264,0.0005587381498457084,-0.00010688694682614575,0.0,0.0,0.0,0.0,0.0,0.0,,,0,0,0,0,0.7853981633974473,-1.570796326794895,1.942890293094024e-16,1.1102230246251565e-16,-2.636779683484747e-16,-1.570796326794895,0.0,0.0,0.0,0.0,0.0,0.0,0.0,0.0,0.0,0.0,0.0,0.0,,0,0,0.7852602393185313,-1.5691961345816132,0.00024801196471724296,-0.0006291487155225539,-0.0006971667446702412,-1.570800018358585,-0.07947525438399353,0.1759040908941194,0.023781011142987696,-0.032857713594875104,0.013017258312854052,-0.08313889908543759,,,0,0,,0,0,0,0,0,0,0,0,0,0,0,0
1097,776000000,,shoulder_pan_joint,shoulder_lift_joint,elbow_joint,wrist_1_joint,wrist_2_joint,wrist_3_joint,0,0,0,0,0.00043606975675725135,-0.001624315745227145,-0.00016296226248949108,0.000753434493398264,0.0005587381498457084,-0.00010688694682614575,0.0,0.0,0.0,0.0,0.0,0.0,,,0,0,0,0,0.7853981633974473,-1.570796326794895,1.942890293094024e-16,1.1102230246251565e-16,-2.636779683484747e-16,-1.570796326794895,0.0,0.0,0.0,0.0,0.0,0.0,0.0,0.0,0.0,0.0,0.0,0.0,,0,0,0.7852602393185313,-1.5691961345816114,0.0002480119647163548,-0.0006291487155225539,-0.0006971667446711294,-1.570800018358586,-0.07947525438398848,0.17590409089412357,0.02378101114298936,-0.03285771359510542,0.013017258312837843,-0.08313889908483707,,,0,0,,0,0,0,0,0,0,0,0,0,0,0,0
1097,876000000,,shoulder_pan_joint,shoulder_lift_joint,elbow_joint,wrist_1_joint,wrist_2_joint,wrist_3_joint,0,0,0,0,0.00043606975675725135,-0.001624315745227145,-0.00016296226248949108,0.000753434493398264,0.0005587381498457084,-0.00010688694682614575,0.0,0.0,0.0,0.0,0.0,0.0,,,0,0,0,0,0.7853981633974473,-1.570796326794895,1.942890293094024e-16,1.1102230246251565e-16,-2.636779683484747e-16,-1.570796326794895,0.0,0.0,0.0,0.0,0.0,0.0,0.0,0.0,0.0,0.0,0.0,0.0,,0,0,0.7852602393185331,-1.5691961345816114,0.00024801196471724296,-0.0006291487155216657,-0.000697166744669353,-1.570800018358585,-0.0794752543839922,0.17590409089411796,0.023781011142986697,-0.03285771359445594,0.013017258312873148,-0.08313889908559374,,,0,0,,0,0,0,0,0,0,0,0,0,0,0,0
1097,976000000,,shoulder_pan_joint,shoulder_lift_joint,elbow_joint,wrist_1_joint,wrist_2_joint,wrist_3_joint,0,0,0,0,0.00043606975675725135,-0.001624315745227145,-0.00016296226248949108,0.000753434493398264,0.0005587381498457084,-0.00010688694682614575,0.0,0.0,0.0,0.0,0.0,0.0,,,0,0,0,0,0.7853981633974473,-1.570796326794895,1.942890293094024e-16,1.1102230246251565e-16,-2.636779683484747e-16,-1.570796326794895,0.0,0.0,0.0,0.0,0.0,0.0,0.0,0.0,0.0,0.0,0.0,0.0,,0,0,0.7852602393185322,-1.5691961345816132,0.0002480119647154666,-0.0006291487155234421,-0.0006971667446711294,-1.570800018358586,-0.0794752543839915,0.175904090894127,0.02378101114298986,-0.032857713595164484,0.013017258312836066,-0.08313889908492744,,,0,0,,0,0,0,0,0,0,0,0,0,0,0,0
1098,76000000,,shoulder_pan_joint,shoulder_lift_joint,elbow_joint,wrist_1_joint,wrist_2_joint,wrist_3_joint,0,0,0,0,0.00043606975675725135,-0.001624315745227145,-0.00016296226248949108,0.000753434493398264,0.0005587381498457084,-0.00010688694682614575,0.0,0.0,0.0,0.0,0.0,0.0,,,0,0,0,0,0.7853981633974473,-1.570796326794895,1.942890293094024e-16,1.1102230246251565e-16,-2.636779683484747e-16,-1.570796326794895,0.0,0.0,0.0,0.0,0.0,0.0,0.0,0.0,0.0,0.0,0.0,0.0,,0,0,0.7852602393185322,-1.5691961345816132,0.0002480119647154666,-0.0006291487155216657,-0.0006971667446720176,-1.570800018358586,-0.07947525438398995,0.1759040908941028,0.02378101114298281,-0.03285771359423745,0.013017258312885804,-0.08313889908584338,,,0,0,,0,0,0,0,0,0,0,0,0,0,0,0
1098,176000000,,shoulder_pan_joint,shoulder_lift_joint,elbow_joint,wrist_1_joint,wrist_2_joint,wrist_3_joint,0,0,0,0,0.00043606975675725135,-0.001624315745227145,-0.00016296226248949108,0.000753434493398264,0.0005587381498457084,-0.00010688694682614575,0.0,0.0,0.0,0.0,0.0,0.0,,,0,0,0,0,0.7853981633974473,-1.570796326794895,1.942890293094024e-16,1.1102230246251565e-16,-2.636779683484747e-16,-1.570796326794895,0.0,0.0,0.0,0.0,0.0,0.0,0.0,0.0,0.0,0.0,0.0,0.0,,0,0,0.7852602393185322,-1.5691961345816132,0.00024801196471724296,-0.0006291487155216657,-0.0006971667446702412,-1.570800018358586,-0.07947525438398981,0.17590409089410286,0.023781011142983144,-0.03285771359427897,0.013017258312885138,-0.08313889908563155,,,0,0,,0,0,0,0,0,0,0,0,0,0,0,0
1098,277000000,,shoulder_pan_joint,shoulder_lift_joint,elbow_joint,wrist_1_joint,wrist_2_joint,wrist_3_joint,0,0,0,0,0.00043606975675725135,-0.001624315745227145,-0.00016296226248949108,0.000753434493398264,0.0005587381498457084,-0.00010688694682614575,0.0,0.0,0.0,0.0,0.0,0.0,,,0,0,0,0,0.7853981633974473,-1.570796326794895,1.942890293094024e-16,1.1102230246251565e-16,-2.636779683484747e-16,-1.570796326794895,0.0,0.0,0.0,0.0,0.0,0.0,0.0,0.0,0.0,0.0,0.0,0.0,,0,0,0.7852602393185322,-1.5691961345816132,0.00024801196471724296,-0.0006291487155225539,-0.0006971667446702412,-1.570800018358585,-0.0794752543839857,0.17590409089410447,0.02378101114298492,-0.03285771359467132,0.013017258312862934,-0.08313889908553113,,,0,0,,0,0,0,0,0,0,0,0,0,0,0,0
1098,377000000,,shoulder_pan_joint,shoulder_lift_joint,elbow_joint,wrist_1_joint,wrist_2_joint,wrist_3_joint,0,0,0,0,0.00043606975675725135,-0.001624315745227145,-0.00016296226248949108,0.000753434493398264,0.0005587381498457084,-0.00010688694682614575,0.0,0.0,0.0,0.0,0.0,0.0,,,0,0,0,0,0.7853981633974473,-1.570796326794895,1.942890293094024e-16,1.1102230246251565e-16,-2.636779683484747e-16,-1.570796326794895,0.0,0.0,0.0,0.0,0.0,0.0,0.0,0.0,0.0,0.0,0.0,0.0,,0,0,0.7852602393185313,-1.5691961345816132,0.0002480119647154666,-0.0006291487155234421,-0.0006971667446711294,-1.570800018358585,-0.07947525438398875,0.17590409089410586,0.023781011142984254,-0.032857713594395876,0.013017258312876923,-0.08313889908563965,,,0,0,,0,0,0,0,0,0,0,0,0,0,0,0
1098,477000000,,shoulder_pan_joint,shoulder_lift_joint,elbow_joint,wrist_1_joint,wrist_2_joint,wrist_3_joint,0,0,0,0,0.00043606975675725135,-0.001624315745227145,-0.00016296226248949108,0.000753434493398264,0.0005587381498457084,-0.00010688694682614575,0.0,0.0,0.0,0.0,0.0,0.0,,,0,0,0,0,0.7853981633974473,-1.570796326794895,1.942890293094024e-16,1.1102230246251565e-16,-2.636779683484747e-16,-1.570796326794895,0.0,0.0,0.0,0.0,0.0,0.0,0.0,0.0,0.0,0.0,0.0,0.0,,0,0,0.7852602393185313,-1.569196134581614,0.00024801196471724296,-0.0006291487155225539,-0.0006971667446711294,-1.570800018358585,-0.07947525438399156,0.17590409089411008,0.0237810111429842,-0.0328577135943775,0.013017258312879365,-0.08313889908575578,,,0,0,,0,0,0,0,0,0,0,0,0,0,0,0
1098,578000000,,shoulder_pan_joint,shoulder_lift_joint,elbow_joint,wrist_1_joint,wrist_2_joint,wrist_3_joint,0,0,0,0,0.00043606975675725135,-0.001624315745227145,-0.00016296226248949108,0.000753434493398264,0.0005587381498457084,-0.00010688694682614575,0.0,0.0,0.0,0.0,0.0,0.0,,,0,0,0,0,0.7853981633974473,-1.570796326794895,1.942890293094024e-16,1.1102230246251565e-16,-2.636779683484747e-16,-1.570796326794895,0.0,0.0,0.0,0.0,0.0,0.0,0.0,0.0,0.0,0.0,0.0,0.0,,0,0,0.7852602393185331,-1.5691961345816132,0.0002480119647163548,-0.0006291487155225539,-0.000697166744669353,-1.570800018358586,-0.07947525438399225,0.17590409089412407,0.023781011142987807,-0.03285771359471684,0.013017258312859825,-0.08313889908549049,,,0,0,,0,0,0,0,0,0,0,0,0,0,0,0
1098,678000000,,shoulder_pan_joint,shoulder_lift_joint,elbow_joint,wrist_1_joint,wrist_2_joint,wrist_3_joint,0,0,0,0,0.00043606975675725135,-0.001624315745227145,-0.00016296226248949108,0.000753434493398264,0.0005587381498457084,-0.00010688694682614575,0.0,0.0,0.0,0.0,0.0,0.0,,,0,0,0,0,0.7853981633974473,-1.570796326794895,1.942890293094024e-16,1.1102230246251565e-16,-2.636779683484747e-16,-1.570796326794895,0.0,0.0,0.0,0.0,0.0,0.0,0.0,0.0,0.0,0.0,0.0,0.0,,0,0,0.7852602393185322,-1.5691961345816132,0.0002480119647163548,-0.0006291487155243303,-0.0006971667446711294,-1.570800018358585,-0.07947525438398984,0.17590409089411096,0.023781011142985142,-0.032857713594537596,0.013017258312869817,-0.08313889908547034,,,0,0,,0,0,0,0,0,0,0,0,0,0,0,0
1098,779000000,,shoulder_pan_joint,shoulder_lift_joint,elbow_joint,wrist_1_joint,wrist_2_joint,wrist_3_joint,0,0,0,0,0.00043606975675725135,-0.001624315745227145,-0.00016296226248949108,0.000753434493398264,0.0005587381498457084,-0.00010688694682614575,0.0,0.0,0.0,0.0,0.0,0.0,,,0,0,0,0,0.7853981633974473,-1.570796326794895,1.942890293094024e-16,1.1102230246251565e-16,-2.636779683484747e-16,-1.570796326794895,0.0,0.0,0.0,0.0,0.0,0.0,0.0,0.0,0.0,0.0,0.0,0.0,,0,0,0.7852602393185322,-1.5691961345816114,0.0002480119647154666,-0.0006291487155216657,-0.0006971667446720176,-1.570800018358586,-0.07947525438399078,0.17590409089411263,0.023781011142985253,-0.03285771359447398,0.013017258312871594,-0.08313889908572314,,,0,0,,0,0,0,0,0,0,0,0,0,0,0,0
1098,880000000,,shoulder_pan_joint,shoulder_lift_joint,elbow_joint,wrist_1_joint,wrist_2_joint,wrist_3_joint,0,0,0,0,0.00043606975675725135,-0.001624315745227145,-0.00016296226248949108,0.000753434493398264,0.0005587381498457084,-0.00010688694682614575,0.0,0.0,0.0,0.0,0.0,0.0,,,0,0,0,0,0.7853981633974473,-1.570796326794895,1.942890293094024e-16,1.1102230246251565e-16,-2.636779683484747e-16,-1.570796326794895,0.0,0.0,0.0,0.0,0.0,0.0,0.0,0.0,0.0,0.0,0.0,0.0,,0,0,0.7852602393185322,-1.5691961345816132,0.0002480119647154666,-0.0006291487155225539,-0.0006971667446711294,-1.570800018358585,-0.07947525438398695,0.1759040908941255,0.02378101114299036,-0.03285771359545131,0.013017258312819857,-0.0831388990845745,,,0,0,,0,0,0,0,0,0,0,0,0,0,0,0
1098,980000000,,shoulder_pan_joint,shoulder_lift_joint,elbow_joint,wrist_1_joint,wrist_2_joint,wrist_3_joint,0,0,0,0,0.00043606975675725135,-0.001624315745227145,-0.00016296226248949108,0.000753434493398264,0.0005587381498457084,-0.00010688694682614575,0.0,0.0,0.0,0.0,0.0,0.0,,,0,0,0,0,0.7853981633974473,-1.570796326794895,1.942890293094024e-16,1.1102230246251565e-16,-2.636779683484747e-16,-1.570796326794895,0.0,0.0,0.0,0.0,0.0,0.0,0.0,0.0,0.0,0.0,0.0,0.0,,0,0,0.7852602393185313,-1.5691961345816123,0.0002480119647154666,-0.0006291487155234421,-0.000697166744669353,-1.570800018358586,-0.07947525438399008,0.17590409089411224,0.023781011142986086,-0.03285771359463846,0.013017258312863822,-0.08313889908554917,,,0,0,,0,0,0,0,0,0,0,0,0,0,0,0
1099,80000000,,shoulder_pan_joint,shoulder_lift_joint,elbow_joint,wrist_1_joint,wrist_2_joint,wrist_3_joint,0,0,0,0,0.00043606975675725135,-0.001624315745227145,-0.00016296226248949108,0.000753434493398264,0.0005587381498457084,-0.00010688694682614575,0.0,0.0,0.0,0.0,0.0,0.0,,,0,0,0,0,0.7853981633974473,-1.570796326794895,1.942890293094024e-16,1.1102230246251565e-16,-2.636779683484747e-16,-1.570796326794895,0.0,0.0,0.0,0.0,0.0,0.0,0.0,0.0,0.0,0.0,0.0,0.0,,0,0,0.7852602393185313,-1.5691961345816123,0.0002480119647163548,-0.0006291487155225539,-0.0006971667446702412,-1.570800018358585,-0.07947525438399022,0.17590409089411868,0.023781011142988362,-0.03285771359528045,0.01301725831283096,-0.08313889908481853,,,0,0,,0,0,0,0,0,0,0,0,0,0,0,0
1099,180000000,,shoulder_pan_joint,shoulder_lift_joint,elbow_joint,wrist_1_joint,wrist_2_joint,wrist_3_joint,0,0,0,0,0.00043606975675725135,-0.001624315745227145,-0.00016296226248949108,0.000753434493398264,0.0005587381498457084,-0.00010688694682614575,0.0,0.0,0.0,0.0,0.0,0.0,,,0,0,0,0,0.7853981633974473,-1.570796326794895,1.942890293094024e-16,1.1102230246251565e-16,-2.636779683484747e-16,-1.570796326794895,0.0,0.0,0.0,0.0,0.0,0.0,0.0,0.0,0.0,0.0,0.0,0.0,,0,0,0.7852602393185331,-1.5691961345816132,0.00024801196471724296,-0.0006291487155225539,-0.0006971667446729057,-1.570800018358585,-0.07947525438399067,0.17590409089410364,0.0237810111429832,-0.03285771359427142,0.013017258312885804,-0.08313889908557781,,,0,0,,0,0,0,0,0,0,0,0,0,0,0,0
1099,280000000,,shoulder_pan_joint,shoulder_lift_joint,elbow_joint,wrist_1_joint,wrist_2_joint,wrist_3_joint,0,0,0,0,0.00043606975675725135,-0.001624315745227145,-0.00016296226248949108,0.000753434493398264,0.0005587381498457084,-0.00010688694682614575,0.0,0.0,0.0,0.0,0.0,0.0,,,0,0,0,0,0.7853981633974473,-1.570796326794895,1.942890293094024e-16,1.1102230246251565e-16,-2.636779683484747e-16,-1.570796326794895,0.0,0.0,0.0,0.0,0.0,0.0,0.0,0.0,0.0,0.0,0.0,0.0,,0,0,0.7852602393185322,-1.5691961345816132,0.00024801196471724296,-0.0006291487155216657,-0.0006971667446702412,-1.570800018358585,-0.07947525438399072,0.17590409089411785,0.023781011142986808,-0.032857713594718674,0.013017258312860047,-0.0831388990853949,,,0,0,,0,0,0,0,0,0,0,0,0,0,0,0
1099,380000000,,shoulder_pan_joint,shoulder_lift_joint,elbow_joint,wrist_1_joint,wrist_2_joint,wrist_3_joint,0,0,0,0,-0.007800921864431043,-0.001599574949636251,-0.003988918264561478,-0.003576761174039043,0.00803622025391651,0.007944146606116975,0.0,0.0,0.0,0.0,0.0,0.0,,,0,0,0,0,0.7758572387248308,-1.5692057143911413,-0.0044553859482846375,-0.005327295364223937,0.008710833255329758,-1.5613961699599306,-0.5996811603126493,-0.000610957240303124,-0.2999616015943944,-0.2996266995344703,0.5999999999999999,0.5997352295060149,-20.389159450629933,-0.020772546170193654,-10.198694454209413,-10.187307784171988,20.399999999999977,20.390997803204677,,0,0,0.7836581605892619,-1.567606139441505,-0.0004664676837231596,-0.0017505341901848936,0.000674613001413249,-1.5693403165660476,-0.07931023995173347,0.17528006713923816,0.023689262252706178,-0.03429817440782906,0.012964399301283569,-0.0792078405150814,,,0,0,,0,0,0,0,0,0,0,0,0,0,0,0
1099,480000000,,shoulder_pan_joint,shoulder_lift_joint,elbow_joint,wrist_1_joint,wrist_2_joint,wrist_3_joint,0,0,0,0,-0.03883795486066721,-0.0007342367476761424,-0.01939974392638863,-0.019188499088323013,0.03901168259090218,0.038983967978012624,0.0,0.0,0.0,0.0,0.0,0.0,,,0,0,0,0,0.6383383550419335,-1.5693458191054876,-0.07324258042591111,-0.07403769010146868,0.1463028332553298,-1.4238648871296131,-2.0988840610942807,-0.002138350341068903,-1.04986560558038,-1.048693448370647,2.100000000000001,2.09907330327102,-14.992029007816365,-0.015273931007861707,-7.499040039859878,-7.490667488361808,15.000000000000036,14.993380737649684,,0,0,0.6771763099026007,-1.5686115823578115,-0.053842836499522484,-0.05484919101314567,0.10729115066442763,-1.4628488551076257,-0.06500617605258574,0.14290312680255626,0.019175612550354104,-0.07046490917464426,0.011326383798337947,0.0014452234648847928,,,0,0,,0,0,0,0,0,0,0,0,0,0,0,0
1099,581000000,,shoulder_pan_joint,shoulder_lift_joint,elbow_joint,wrist_1_joint,wrist_2_joint,wrist_3_joint,0,0,0,0,-0.06315192518541057,-0.00032880834237292156,-0.0317046921835879,-0.031528018463496066,0.0633578340413829,0.06331579708357515,0.0,0.0,0.0,0.0,0.0,0.0,,,0,0,0,0,0.3601339657709327,-1.5696292546995305,-0.21240091938858868,-0.21304066112996245,0.42465513879644984,-1.1456354140508955,-3.158956916862855,-0.0032183562330962384,-1.580115966384278,-1.5783517936060034,3.160636477440002,3.1592417386375833,1.5136006217720057,0.0015420615489878655,0.7571057700802544,0.7562604742802317,-1.5144053759999165,-1.513737092900338,,0,0,0.4232858909563433,-1.5693004463571576,-0.18069622720500078,-0.18151264266646638,0.36129730475506694,-1.2089512111344707,-0.026300230409383618,0.06152857750609672,0.007323809655446545,-0.005127389728948661,0.016148766541152382,0.0005915068003963797,,,0,0,,0,0,0,0,0,0,0,0,0,0,0,0
1099,681000000,,shoulder_pan_joint,shoulder_lift_joint,elbow_joint,wrist_1_joint,wrist_2_joint,wrist_3_joint,0,0,0,0,-0.06249628457379939,-9.476653208029262e-05,-0.03141704362628833,-0.0313872182932774,0.06285059485142819,0.0632130873686122,0.0,0.0,0.0,0.0,0.0,0.0,,,0,0,0,0,0.04649737824471702,-1.5699487887397092,-0.3692825080379884,-0.3697470941363613,0.7384584812553299,-0.8319705480353469,-3.13993055539704,-0.0031989721102416947,-1.5705989459482481,-1.5688453987624824,3.1416000000000004,3.1402136616934597,7.815970093361101e-14,-3.874608967002756e-13,-4.796163466380676e-14,1.9717560917342778e-13,-3.5527136788004997e-14,-1.5276668818842151e-13,,0,0,0.10899366281851641,-1.569854022207629,-0.33786546441170007,-0.3383598758430839,0.6756078864039017,-0.8951836354039591,-0.05714497456416996,0.0651351262656267,0.00923278393118751,0.024702938753409037,0.012727808143196517,-0.12460886701092322,,,0,0,,0,0,0,0,0,0,0,0,0,0,0,0
1099,781000000,,shoulder_pan_joint,shoulder_lift_joint,elbow_joint,wrist_1_joint,wrist_2_joint,wrist_3_joint,0,0,0,0,-0.06286267688133368,-1.2951896576796074e-05,-0.03140652150473522,-0.03136661797523432,0.06284700208639937,0.06356216552781158,0.0,0.0,0.0,0.0,0.0,0.0,,,0,0,0,0,-0.2674956772949871,-1.5702686859507324,-0.5263424026328132,-0.52663163401261,1.0526184812553299,-0.5179491818660007,-3.1399305553970427,-0.003198972110224642,-1.5705989459482452,-1.5688453987624853,3.141600000000006,3.1402136616934633,-8.5265128291212e-14,4.651903862118444e-13,1.1546319456101623e-13,9.769962616701375e-14,4.19220214098459e-13,3.1974423109204496e-14,,0,0,-0.2046330004136534,-1.5702557340541556,-0.49493588112807796,-0.4952650160373757,0.9897714791689305,-0.5815113473938123,-0.014825228206562666,-0.03309190535932329,-0.004038721804900301,0.004307352408626296,0.011989775524886781,-0.41295876486914507,,,0,0,,0,0,0,0,0,0,0,0,0,0,0,0
1099,881000000,,shoulder_pan_joint,shoulder_lift_joint,elbow_joint,wrist_1_joint,wrist_2_joint,wrist_3_joint,0,0,0,0,-0.054988987235027764,0.00024195593688136618,-0.027429894833807977,-0.02737080540802672,0.054949642429356294,0.055961876445884545,0.0,0.0,0.0,0.0,0.0,0.0,,,0,0,0,0,-0.5721550876437469,-1.570579074011752,-0.6787335910126057,-0.6788526802054314,1.3574398735331081,-0.21326230243924296,-2.5442673384843775,-0.0025921083645672623,-1.2726471269135535,-1.2712262378994474,2.5456200796682285,2.544496737858213,20.293953339521806,0.0206755498549257,10.151072185144184,10.139738684565469,-20.30474326951471,-20.295783108005125,,0,0,-0.5171661004087191,-1.5708210299486334,-0.6513036961787977,-0.6514818747974047,1.3024902311037518,-0.2692241788851275,0.04116837595330304,-0.15816336484664556,-0.021960746494963768,-0.022687418131771275,0.011807373156993983,-0.6737554019073568,,,0,0,,0,0,0,0,0,0,0,0,0,0,0,0
1099,981000000,,shoulder_pan_joint,shoulder_lift_joint,elbow_joint,wrist_1_joint,wrist_2_joint,wrist_3_joint,0,0,0,0,-0.023918293090436915,0.0015535629235943205,-0.011969073479768277,-0.011965814218271476,0.02388059974774892,0.02471356725189164,0.0,0.0,0.0,0.0,0.0,0.0,,,0,0,0,0,-0.7490228576901745,-1.5707592675076256,-0.7672031696565226,-0.7672234840596053,1.5344016809918073,-0.036378585422508075,-1.0443559147451809,-0.0010639934181688056,-0.5223887184620187,-0.5218054802843173,1.0449111800017408,1.0444500772529006,14.992029007816184,0.01527393100707001,7.499040039859992,7.490667488361905,-15.000000000000403,-14.993380737650224,,0,0,-0.7251045645997376,-1.57231283043122,-0.7552340961767543,-0.7552576698413338,1.5105210812440584,-0.06109215267439971,0.08150399116271452,-0.21710848892768259,-0.03065567283783599,-0.03451250309653153,0.00532081793881755,-0.5103528577547919,,,0,0,,0,0,0,0,0,0,0,0,0,0,0,0
1100,81000000,,shoulder_pan_joint,shoulder_lift_joint,elbow_joint,wrist_1_joint,wrist_2_joint,wrist_3_joint,0,0,0,0,-0.0007374396516048876,0.001727798349320242,-0.00036927985186085976,-0.00037922288479030897,0.0006792094609759936,0.0012687932912180955,0.0,0.0,0.0,0.0,0.0,0.0,,,0,0,0,0,-0.7853981633974474,-1.5707963267948952,-0.7853981633974474,-0.7853981633974474,1.5707963267948952,0.0,0.0,0.0,0.0,0.0,0.0,0.0,0.0,0.0,0.0,0.0,0.0,0.0,,0,0,-0.7853719647204311,-1.5725610562512404,-0.7853789187671989,-0.7853676060937431,1.5708177894495972,-0.0009645519942571568,0.0836695555477261,-0.22602079656744217,-0.032103900001750785,-0.035670300038740166,0.004464655535123171,-0.5230675159063964,,,0,0,,0,0,0,0,0,0,0,0,0,0,0,0
1100,181000000,,shoulder_pan_joint,shoulder_lift_joint,elbow_joint,wrist_1_joint,wrist_2_joint,wrist_3_joint,0,0,0,0,-5.516356518098231e-05,0.013989977904284467,-0.031117156078760977,0.019440993364616244,-2.4057894331130925e-05,0.0005700894576162667,0.0,0.0,0.0,0.0,0.0,0.0,,,0,0,0,0,-0.7853719647322815,-1.5397129489757864,-0.8733554234929434,-0.7302392086434542,1.570817789461447,-0.0009645519942774812,-1.827655182751184e-10,0.506586069994786,-1.3567805111924915,0.8501944411976314,1.8272800161867007e-10,-3.1345530338011633e-13,3.1257556543096143e-09,-8.665288039387491,23.208087691450032,-14.542799652065327,-3.1276030654225906e-09,5.361032798245611e-12,,0,0,-0.7853168011671006,-1.5537029268800708,-0.8422382674141824,-0.7496802020080704,1.5708418473557781,-0.001534641451893748,0.08346852984249833,-0.2260706854266254,-0.03261352017182051,-0.03440690349998943,0.004358544470560397,-0.5191129790410964,,,0,0,,0,0,0,0,0,0,0,0,0,0,0,0
1100,281000000,,shoulder_pan_joint,shoulder_lift_joint,elbow_joint,wrist_1_joint,wrist_2_joint,wrist_3_joint,0,0,0,0,-4.479537355961405e-05,0.014928869561480207,-0.038373262964463306,0.02518212117491614,-2.0588013264877247e-05,0.0006991056796484919,0.0,0.0,0.0,0.0,0.0,0.0,,,0,0,0,0,-0.7853719647570025,-1.4827944249995706,-1.0347088692705888,-0.6258042868420228,1.5708177894861688,-0.0009645519943198743,-2.916732810831492e-10,0.6295405439792959,-1.8234913829282746,1.193950838948989,2.917125740964368e-10,-5.001847633995247e-13,2.201016258140953e-09,-3.037230553170815,10.4848937970404,-7.447663243869343,-2.198698112465536e-09,3.772457606715518e-12,,0,0,-0.7853271693834429,-1.4977232945610508,-0.9963356063061255,-0.650986408016939,1.5708383774994337,-0.0016636576739683662,0.08991607665530907,-0.22661402530619773,-0.03420265780723242,-0.030740592340400053,0.004871747687843212,-0.5419886800425459,,,0,0,,0,0,0,0,0,0,0,0,0,0,0,0
1100,381000000,,shoulder_pan_joint,shoulder_lift_joint,elbow_joint,wrist_1_joint,wrist_2_joint,wrist_3_joint,0,0,0,0,-6.830309448868643e-05,0.010640305917816395,-0.02752587364539716,0.019229311359437506,-2.346291053445526e-05,0.0006076639636329201,0.0,0.0,0.0,0.0,0.0,0.0,,,0,0,0,0,-0.7853719647841871,-1.4327104928759211,-1.1896521166993872,-0.5209449715368719,1.5708177895133515,-0.0009645519943664698,-2.6670059050104554e-10,0.43727084386887527,-1.424643613579887,0.9873727697111081,2.666293852371382e-10,-4.570078343535399e-13,-2.4118174124509923e-10,3.099650288112592,-6.062385271692534,2.9627349835839567,2.384030750590674e-10,-4.1805578096520806e-13,,0,0,-0.7853036616896985,-1.4433507987937375,-1.16212624305399,-0.5401742828963094,1.570841252423886,-0.00157221595799939,0.09089788409925047,-0.22603610332082763,-0.03573453122203274,-0.02669128752013239,0.004329819943060174,-0.5401130472084517,,,0,0,,0,0,0,0,0,0,0,0,0,0,0,0
1100,481000000,,shoulder_pan_joint,shoulder_lift_joint,elbow_joint,wrist_1_joint,wrist_2_joint,wrist_3_joint,0,0,0,0,-6.202911557340318e-05,0.008520401094479935,-0.025717233620421887,0.018880790176616147,-1.8703579209189414e-05,0.0006782714015434366,0.0,0.0,0.0,0.0,0.0,0.0,,,0,0,0,0,-0.7853719648112089,-1.393590565876804,-1.3261739126869099,-0.4235431025484695,1.570817789540375,-0.0009645519944127912,-2.705096946442609e-10,0.35541101898695604,-1.310050765413655,0.9546397464266463,2.705477264441925e-10,-4.637792667266939e-13,1.1426415369442107e-12,1.79609342637589,-2.8164669835920506,1.0203735572142119,6.563638521583925e-13,4.468213993247261e-15,,0,0,-0.7853099356956355,-1.402110966971284,-1.300456679066488,-0.44242389272508564,1.5708364931195842,-0.0016428233959562277,0.10013874442256143,-0.2315834495682465,-0.038121891324440216,-0.023968829877405562,0.0047553502609994115,-0.523833821139747,,,0,0,,0,0,0,0,0,0,0,0,0,0,0,0
1100,581000000,,shoulder_pan_joint,shoulder_lift_joint,elbow_joint,wrist_1_joint,wrist_2_joint,wrist_3_joint,0,0,0,0,-5.7167293684212694e-05,0.007052509573368226,-0.023657621245583238,0.01838280182683355,-1.8285275904306175e-05,0.0007055973551933088,0.0,0.0,0.0,0.0,0.0,0.0,,,0,0,0,0,-0.7853719648382627,-1.3629760280918175,-1.4505389229543335,-0.3297926300660305,1.570817789567429,-0.0009645519944591745,-2.705472645914142e-10,0.27491636560613103,-1.2007619585689078,0.9258455929627845,2.70544280311924e-10,-4.638694463265925e-13,-7.451816941284049e-13,1.5269831423362525,-2.09581329710241,0.5688301547657275,-2.042810365310288e-13,-3.859759734048396e-17,,0,0,-0.7853147975445784,-1.3700285376651857,-1.4268813017087503,-0.34817543189286404,1.5708360748433332,-0.0016701493496524833,0.09787804766459945,-0.2255695293571932,-0.03849226919471027,-0.01964507107197444,0.0039561339512167865,-0.5650520634513065,,,0,0,,0,0,0,0,0,0,0,0,0,0,0,0
1100,682000000,,shoulder_pan_joint,shoulder_lift_joint,elbow_joint,wrist_1_joint,wrist_2_joint,wrist_3_joint,0,0,0,0,-7.914444029544221e-05,0.006205936441021409,-0.021988195849480086,0.018158292792161634,-2.1539007283077893e-05,0.0006229738260635189,0.0,0.0,0.0,0.0,0.0,0.0,,,0,0,0,0,-0.7853719648653159,-1.340056995168278,-1.565298678363785,-0.23795190758011942,1.5708177895944817,-0.0009645519945055723,-2.705451951356963e-10,0.2004657787110204,-1.1135357070113376,0.9130699283002781,2.705466961572256e-10,-4.640360751900774e-13,-2.5712765250318636e-13,1.4052629361072917,-1.665594714565973,0.26033177845652933,7.53175299905706e-13,5.01204980296599e-15,,0,0,-0.7852928204250205,-1.3462629316092993,-1.543310482514305,-0.25611020037228105,1.5708393286017648,-0.0015875258205690912,0.09723455669279191,-0.22392393913949465,-0.03946293739775264,-0.016307529530659393,0.003103048383250963,-0.557065421691829,,,0,0,,0,0,0,0,0,0,0,0,0,0,0,0
1100,782000000,,shoulder_pan_joint,shoulder_lift_joint,elbow_joint,wrist_1_joint,wrist_2_joint,wrist_3_joint,0,0,0,0,-7.141373392216543e-05,0.0040674217576164295,-0.02058405795768614,0.018220498084886322,-1.4778868100639997e-05,0.0006940032895368854,0.0,0.0,0.0,0.0,0.0,0.0,,,0,0,0,0,-0.7853719648923685,-1.324490313698007,-1.6722078994052145,-0.14660936800895844,1.5708177896215336,-0.0009645519945519842,-2.7051064499516995e-10,0.12769883009992772,-1.0407645485786066,0.9130657184787719,2.7047521555800815e-10,-4.641572109304049e-13,5.959677196187839e-13,1.3686620928679574,-1.385846263148789,0.017184170285103835,-2.0001778011646812e-12,1.2169085183977239e-15,,0,0,-0.7853005511584463,-1.3285577354556235,-1.6516238414475284,-0.16482986609384476,1.5708325684896343,-0.0016585552840888695,0.10553854403880066,-0.2290607327433843,-0.041668324514650856,-0.013327070663649798,0.0032742155743393717,-0.5486207514421392,,,0,0,,0,0,0,0,0,0,0,0,0,0,0,0
1100,882000000,,shoulder_pan_joint,shoulder_lift_joint,elbow_joint,wrist_1_joint,wrist_2_joint,wrist_3_joint,0,0,0,0,-6.45232684157726e-05,0.002495541590147754,-0.01557214283978059,0.014831538972478686,-1.3974911658776179e-05,0.0007076490391547506,0.0,0.0,0.0,0.0,0.0,0.0,,,0,0,0,0,-0.7853719649164224,-1.316686700755423,-1.761727532289454,-0.06489334806730573,1.5708177896455882,-0.0009645519945932381,-2.2427326901884905e-10,0.047488538898461,-0.8127102640704276,0.7652217251719116,2.2427286933854167e-10,-3.8457781641335534e-13,-7.912522684966225e-10,1.4944900856037115,-4.020047102147245,2.5255570165417183,7.912416103593895e-10,-1.3612893330993933e-12,,0,0,-0.7853074416480066,-1.3191822423455708,-1.7461553894496733,-0.07972488703978442,1.570831764557247,-0.0016722010337479887,0.10149486089905738,-0.2200715265133184,-0.04147737400010565,-0.008186571334298232,0.0020615110630106265,-0.5735184558971624,,,0,0,,0,0,0,0,0,0,0,0,0,0,0,0
1100,983000000,,shoulder_pan_joint,shoulder_lift_joint,elbow_joint,wrist_1_joint,wrist_2_joint,wrist_3_joint,0,0,0,0,-6.463817710467001e-05,0.0016178125095667184,0.001026016376841632,-0.0008961743682772277,-1.3290731475157358e-05,0.0006980200862607594,0.0,0.0,0.0,0.0,0.0,0.0,,,0,0,0,0,-0.7853719649233298,-1.3151756109772545,-1.786812640746696,-0.04131932938823109,1.5708177896524955,-0.0009645519946050834,0.0,0.0,0.0,0.0,0.0,0.0,0.0,0.0,0.0,0.0,0.0,0.0,,0,0,-0.78528747121225,-1.3176138696514164,-1.7868044481070298,-0.041253594515978875,1.5708370115541683,-0.001573046201123418,0.09986259847522524,-0.21897555982693195,-0.04179114012272023,-0.006648028034132447,0.00150049920776716,-0.556340234730718,,,0,0,,0,0,0,0,0,0,0,0,0,0,0,0
1101,83000000,,shoulder_pan_joint,shoulder_lift_joint,elbow_joint,wrist_1_joint,wrist_2_joint,wrist_3_joint,0,0,0,0,-0.013666829854972806,-0.013415096459018283,0.011827354668168866,0.0039737377041577475,0.013564541819591769,0.0006050592291265929,0.0,0.0,0.0,0.0,0.0,0.0,,,0,0,0,0,-0.8237163535049737,-1.3625348491122966,-1.753323356523527,-0.029817518310112385,1.609265573800726,-0.0017299448886599392,-0.5926532171767462,-0.6927748455817575,0.5163480033170198,0.17636805836969516,0.5926482813998226,-0.0024197037850600244,10.137489241181243,11.85009604284582,-8.832268477790166,-3.0168220510605224,-10.13740481341901,0.04138967000760252,,0,0,-0.8100495236500009,-1.3491197526532783,-1.765150711191696,-0.03379125601427013,1.5957010319811342,-0.002335004117786532,0.09904098255384582,-0.22235677386562563,-0.042383049583817334,-0.006245714434749194,0.0010828121839372915,-0.5553024741880275,,,0,0,,0,0,0,0,0,0,0,0,0,0,0,0
1101,183000000,,shoulder_pan_joint,shoulder_lift_joint,elbow_joint,wrist_1_joint,wrist_2_joint,wrist_3_joint,0,0,0,0,-0.027638272314184475,-0.037968071094555134,0.03541922175299872,0.004578203604283522,0.027574065795422875,0.0004944567696348458,0.0,0.0,0.0,0.0,0.0,0.0,,,0,0,0,0,-0.9248610999971495,-1.5028934916038386,-1.6329886293793119,-0.009834148016769732,1.7104094693822427,-0.002147143684894479,-1.2694220823151303,-1.8251154860883245,1.6027661645169289,0.22175284066595785,1.2694113783684875,-0.005248254163976111,12.669065207514564,20.64634823190687,-19.535529875666953,-1.1015125194786286,-12.668957440686256,0.05284463690232444,,0,0,-0.897222827682965,-1.4649254205092834,-1.6684078511323106,-0.014412351621053254,1.6828354035868198,-0.002641600454529325,0.11068776089797924,-0.25110490503674643,-0.047354487637332854,-0.006972963523571574,-0.00023296751870208188,-0.4443292154832613,,,0,0,,0,0,0,0,0,0,0,0,0,0,0,0
1101,283000000,,shoulder_pan_joint,shoulder_lift_joint,elbow_joint,wrist_1_joint,wrist_2_joint,wrist_3_joint,0,0,0,0,-0.016177994651008998,-0.03310707214073649,0.03985372585518032,-0.004775837983238336,0.016126429009334142,0.0004890723607112579,0.0,0.0,0.0,0.0,0.0,0.0,,,0,0,0,0,-1.0226303203467357,-1.6765981468127589,-1.455463898575995,-0.013730016503565874,1.8081778458018856,-0.002560913994912444,-0.8545709697742252,-1.7480666689806295,1.925213748754051,-0.1780205599432101,0.8545634595451652,-0.003682096269732694,-5.892197660677056,0.7185810948131666,-7.480470598368129,6.767614718804737,5.892153301153087,-0.02175344115671568,,0,0,-1.0064523256957267,-1.6434910746720224,-1.4953176244311752,-0.008954178520327538,1.7920514167925514,-0.0030499863556237017,0.09804446578270584,-0.2522820091712552,-0.046630245196504494,-0.006318802988873662,-0.0035453234950547086,-0.41302990452605,,,0,0,,0,0,0,0,0,0,0,0,0,0,0,0
1101,384000000,,shoulder_pan_joint,shoulder_lift_joint,elbow_joint,wrist_1_joint,wrist_2_joint,wrist_3_joint,0,0,0,0,-0.0015677853614866066,-0.004515410887231619,0.009476941122825933,-0.0030690252339660683,0.0015422977197210308,0.0005022258592647937,0.0,0.0,0.0,0.0,0.0,0.0,,,0,0,0,0,-1.0660653483969975,-1.7713436832828358,-1.3463640854136394,-0.028130624421020708,1.8516124890207606,-0.0027495868398721974,-0.18375022059456025,-0.5078955987686467,0.6543215613817281,-0.146681027512026,0.1837485337221132,-0.0008269970447040177,-12.327339197649081,-21.483499718839198,21.257757330136883,0.21563139399665632,12.327232957453305,-0.05208851141434878,,0,0,-1.064497563035511,-1.7668282723956041,-1.3558410265364653,-0.02506159918705464,1.8500701913010396,-0.003251812699136991,0.08800044077589167,-0.24694978233310683,-0.04476679949496787,-0.00647645025092769,-0.005535298572054988,-0.3629892378695264,,,0,0,,0,0,0,0,0,0,0,0,0,0,0,0
1101,484000000,,shoulder_pan_joint,shoulder_lift_joint,elbow_joint,wrist_1_joint,wrist_2_joint,wrist_3_joint,0,0,0,0,-8.356604951131885e-06,0.0019703590482949007,-3.598092705536793e-05,-7.019664852589425e-05,-1.3043357182551674e-05,0.0005028170475382147,0.0,0.0,0.0,0.0,0.0,0.0,,,0,0,0,0,-1.0725518852101343,-1.7871954934537204,-1.3270075038590574,-0.0316432537046962,1.858098967439383,-0.002778215836994527,0.0,0.0,0.0,0.0,0.0,0.0,0.0,0.0,0.0,0.0,0.0,0.0,,0,0,-1.07253789510842,-1.7891513432284443,-1.3269878627603422,-0.03157041205311728,1.8581060438072967,-0.003280790199990058,0.08620845573772273,-0.24510592768482903,-0.044226811349005635,-0.00655330226046047,-0.005751573636192303,-0.35240236129778346,,,0,0,,0,0,0,0,0,0,0,0,0,0,0,0
1101,584000000,,shoulder_pan_joint,shoulder_lift_joint,elbow_joint,wrist_1_joint,wrist_2_joint,wrist_3_joint,0,0,0,0,-0.01048092445237736,0.003092843453454286,-0.00145707738585088,0.00019302724579084093,0.010452754513990747,0.00041426929224819666,0.0,0.0,0.0,0.0,0.0,0.0,,,0,0,0,0,-1.1021270386722704,-1.7858845704346757,-1.3310561730586494,-0.030826416093593604,1.887694627344609,-0.0034717255759808513,-0.4563260776892637,0.05038042457920383,-0.06274179843168554,0.01147396366148555,0.45631744091638327,-0.002944620246611237,7.80557764468378,-0.8617704204351888,1.0732149731735738,-0.196265167893809,-7.805429910408435,0.050368504218352705,,0,0,-1.091646114219893,-1.78897741388813,-1.3295990956727985,-0.031019443339384445,1.8772418728306182,-0.003885994868229048,0.08603356168938137,-0.24961937757455932,-0.04497593694036084,-0.007527057300000695,-0.0067090659389063625,-0.3308654136512382,,,0,0,,0,0,0,0,0,0,0,0,0,0,0,0
1101,685000000,,shoulder_pan_joint,shoulder_lift_joint,elbow_joint,wrist_1_joint,wrist_2_joint,wrist_3_joint,0,0,0,0,-0.029372221011264577,0.0018755008356237113,0.0003026626136370947,-0.00020898644353202836,0.029321824522560602,0.0002187338381640343,0.0,0.0,0.0,0.0,0.0,0.0,,,0,0,0,0,-1.2028862524558208,-1.7846378116096595,-1.3326070147871623,-0.030774951858394035,1.9884518329608827,-0.004156731904181562,-1.3302858670390245,-0.00546219688693611,0.006830514213721439,-0.00482933122162045,1.330259129528522,-0.009121158292953555,15.790702893896935,0.8623094666036764,-1.074367094197882,0.2577160355705841,-15.79037735122057,0.11108070716845275,,0,0,-1.1735140314445562,-1.7865133124452832,-1.3329096774007994,-0.030565965414862006,1.959130008438322,-0.004375465742345597,0.0990175354120188,-0.26294865746956975,-0.04718050376826732,-0.010122758217076533,-0.008074543994570943,-0.28816255517097644,,,0,0,,0,0,0,0,0,0,0,0,0,0,0,0
1101,785000000,,shoulder_pan_joint,shoulder_lift_joint,elbow_joint,wrist_1_joint,wrist_2_joint,wrist_3_joint,0,0,0,0,-0.028590220252922016,-0.0032496996719255655,0.007453749408163679,-0.0017205952385878284,0.028484970041830593,0.00028775931185813855,0.0,0.0,0.0,0.0,0.0,0.0,,,0,0,0,0,-1.3373733671787447,-1.8014471398318395,-1.3115190673242643,-0.03553183525815919,2.122935967137021,-0.00517361468884554,-1.3981708668789816,-0.2592043221021407,0.3251682754255747,-0.07159703588989802,1.3981384575139542,-0.011057786447223215,2.7388192853835918,4.447023324593545,-5.578179873696598,1.172989909151486,-2.738689531944466,0.04429688549253663,,0,0,-1.3087831469258226,-1.798197440159914,-1.318972816732428,-0.033811240019571365,2.0944509970951906,-0.005461374000703678,0.09587287793180341,-0.2705022593183999,-0.04749752649129968,-0.017131067538377565,-0.011034035833303599,-0.36731214355706215,,,0,0,,0,0,0,0,0,0,0,0,0,0,0,0
1101,886000000,,shoulder_pan_joint,shoulder_lift_joint,elbow_joint,wrist_1_joint,wrist_2_joint,wrist_3_joint,0,0,0,0,-0.005322913272261198,-1.5052838634455057e-05,0.003226750155752134,-0.0008468739861141467,0.005186714312256591,0.00033069696092998414,0.0,0.0,0.0,0.0,0.0,0.0,,,0,0,0,0,-1.4125631688279523,-1.8186542465922726,-1.289678694668882,-0.04050759115148615,2.198123922289782,-0.0058023907950566595,-0.40402205059481044,-0.1381083745545677,0.17717744045865935,-0.04140763798436714,0.4040108702178644,-0.003795722648963197,-16.973799908073147,-1.6044507219118245,1.9456217336112047,-0.3937666952634782,16.97344534790136,-0.12129369929242051,,0,0,-1.407240255555691,-1.8186391937536381,-1.2929054448246342,-0.039660717165372006,2.1929372079775256,-0.006133087755986644,0.11967461601820652,-0.2805295232466185,-0.049483947170135045,-0.018233934299396126,-0.012884599641859368,-0.26996515803799814,,,0,0,,0,0,0,0,0,0,0,0,0,0,0,0
1101,986000000,,shoulder_pan_joint,shoulder_lift_joint,elbow_joint,wrist_1_joint,wrist_2_joint,wrist_3_joint,0,0,0,0,0.0011247543113310776,0.003043697803034595,0.0009770748210147229,-0.0015459107523346574,-0.0012708379426777938,0.00037504045992201203,0.0,0.0,0.0,0.0,0.0,0.0,,,0,0,0,0,-1.4237692409506972,-1.8242717244660878,-1.284078169806903,-0.04296133056956695,2.209470629168883,-0.006296963314235874,0.17540576391507415,0.06964765059940145,0.13702272948938207,-0.20399999999999974,-0.17548908125696003,0.0017302219654314012,14.961079863344517,5.940534904066536,11.687232809388462,-17.399999999999967,-14.968186342505387,0.1475777558750311,,0,0,-1.4248939952620283,-1.8273154222691224,-1.2850552446279178,-0.04141541981723229,2.2107414671115606,-0.006672003774157886,0.12194756696180513,-0.2788474950792371,-0.04911554346573288,-0.01872049881954596,-0.012839269555897086,-0.2455563858503363,,,0,0,,0,0,0,0,0,0,0,0,0,0,0,0
1102,86000000,,shoulder_pan_joint,shoulder_lift_joint,elbow_joint,wrist_1_joint,wrist_2_joint,wrist_3_joint,0,0,0,0,0.028261946819821304,0.013785207890969264,0.022156021483629385,-0.03307564828561241,-0.028403423414184115,0.0006827131699659638,0.0,0.0,0.0,0.0,0.0,0.0,,,0,0,0,0,-1.3321661602425774,-1.7878992631707056,-1.2125200643712124,-0.14949733056956696,2.1178240372042176,-0.005393380337229993,1.5476979168977183,0.6145380935241405,1.2090240837298503,-1.8000000000000003,-1.5484330699143718,0.015266664400865288,12.897482640814413,5.1211507793677855,10.075200697748752,-15.000000000000034,-12.903608915953093,0.12722220334054432,,0,0,-1.3604281070623987,-1.8016844710616748,-1.2346760858548418,-0.11642168228395455,2.1462274606184018,-0.0060760935071959565,0.11250391977388827,-0.28415104225623034,-0.04865284439550066,-0.023384166519390792,-0.01192679984688469,-0.2885076819354115,,,0,0,,0,0,0,0,0,0,0,0,0,0,0,0
1102,186000000,,shoulder_pan_joint,shoulder_lift_joint,elbow_joint,wrist_1_joint,wrist_2_joint,wrist_3_joint,0,0,0,0,0.05319839308423657,0.023818954009470428,0.04159901070387195,-0.06202238049949643,-0.05331355313656028,0.0010395254161178228,0.0,0.0,0.0,0.0,0.0,0.0,,,0,0,0,0,-1.1138093270837162,-1.701197206850574,-1.041945001076421,-0.40345018234685953,1.8993634850425383,-0.003239484247381877,2.706158546374683,1.0745233263585665,2.1139854368458004,-3.147310163237976,-2.707443965575157,0.02669384890421484,0.5128761417458771,0.20364563583208706,0.400646405588311,-0.5964840070298179,-0.5131197567556405,0.005059067308780911,,0,0,-1.1670077201679527,-1.7250161608600445,-1.083544011780293,-0.3414278018473631,1.9526770381790985,-0.0042790096634997,0.08298934167314564,-0.27070180006817623,-0.043069112620951366,-0.030537252931682968,-0.007367360216379643,-0.39815928865386846,,,0,0,,0,0,0,0,0,0,0,0,0,0,0,0
1102,286000000,,shoulder_pan_joint,shoulder_lift_joint,elbow_joint,wrist_1_joint,wrist_2_joint,wrist_3_joint,0,0,0,0,0.0351046644691102,0.01594279138567911,0.027433684114056334,-0.04090401267668864,-0.03517987618693286,0.0009009943839811626,0.0,0.0,0.0,0.0,0.0,0.0,,,0,0,0,0,-0.8881532001448307,-1.6115968497479236,-0.8656679064757036,-0.6658922416501138,1.6736001719527673,-0.0010135871117958942,1.6280548533176709,0.6464450942183991,1.2717969739468309,-1.893456535656419,-1.628828175697725,0.016059314159717532,-12.897482640814324,-5.121150779367901,-10.075200697748848,15.00000000000004,12.903608915952788,-0.12722220334054443,,0,0,-0.9232578646139409,-1.6275396411336027,-0.8931015905897599,-0.6249882289734252,1.7087800481397002,-0.0019145814957770568,0.09553095787117107,-0.25606441006639513,-0.037942041487643574,-0.03659861073920878,0.0010197886044535642,-0.3889109605026034,,,0,0,,0,0,0,0,0,0,0,0,0,0,0,0
1102,387000000,,shoulder_pan_joint,shoulder_lift_joint,elbow_joint,wrist_1_joint,wrist_2_joint,wrist_3_joint,0,0,0,0,0.00964760012381738,0.0062490310100404844,0.007562728765233784,-0.011334059194982427,-0.009733881201985817,0.0009701339712041709,0.0,0.0,0.0,0.0,0.0,0.0,,,0,0,0,0,-0.7894758819246636,-1.572415449843575,-0.7885835782334107,-0.7806557047633356,1.574875982229206,-4.022306911220778e-05,0.3648019571610854,0.14485042385858113,0.28497444312880704,-0.4242711162952021,-0.36497523726720116,0.003598447081921856,-14.681989275086044,-5.82971754354773,-11.469214009296026,17.075412718863134,14.688963186848074,-0.144824775269533,,0,0,-0.7991234820484809,-1.5786644808536154,-0.7961463069986445,-0.7693216455683531,1.5846098634311918,-0.0010103570403163786,0.08147918728060305,-0.22803942701649327,-0.032480511667977496,-0.03598233842132226,0.0038371282560806623,-0.5243699450702237,,,0,0,,0,0,0,0,0,0,0,0,0,0,0,0
1102,487000000,,shoulder_pan_joint,shoulder_lift_joint,elbow_joint,wrist_1_joint,wrist_2_joint,wrist_3_joint,0,0,0,0,-3.3664380663989135e-05,0.0034399264409221697,-0.004339067010951103,0.002677514959084526,-2.3387989193768277e-05,0.0005568116911013977,0.0,0.0,0.0,0.0,0.0,0.0,,,0,0,0,0,-0.7853538029218323,-1.5708415112237815,-0.7896977254222113,-0.7826595674515264,1.5708164758587082,-0.0009197895200490546,-7.817810399046718e-11,0.21665726028428636,-0.5802262891624933,0.36356902887820614,7.817696712208997e-11,-1.2554452269442074e-13,-6.073857861110808e-09,16.832602529779127,-45.079119388778324,28.246516858999094,6.0736873308542255e-09,-9.753851372418243e-12,,0,0,-0.7853201385411683,-1.5742814376647036,-0.7853586584112602,-0.785337082410611,1.570839863847902,-0.0014766012111504523,0.0949778382555132,-0.23949274028428597,-0.034156774773307585,-0.03802213445310698,0.0049598334752903525,-0.4078956600561741,,,0,0,,0,0,0,0,0,0,0,0,0,0,0,0
1102,587000000,,shoulder_pan_joint,shoulder_lift_joint,elbow_joint,wrist_1_joint,wrist_2_joint,wrist_3_joint,0,0,0,0,-4.842483062639236e-05,0.011162813258939863,-0.025846477344779184,0.016316496888959753,-2.0077011143371237e-05,0.0006647925523790668,0.0,0.0,0.0,0.0,0.0,0.0,,,0,0,0,0,-0.7853538029399109,-1.5213096690152623,-0.9227855450543377,-0.6991035900279192,1.5708164758767866,-0.0009197895200780856,-2.225117068377358e-10,0.540092648309346,-1.5051547688967362,0.9650621205873907,2.225131368049915e-10,-3.571521637463215e-13,-4.618905702358233e-09,6.852312083764688,-22.914822252130758,16.06251016836621,4.61909266391558e-09,-7.403783749276858e-12,,0,0,-0.7853053781092845,-1.5324724822742022,-0.8969390677095586,-0.715420086916879,1.57083655288793,-0.0015845820724571524,0.09076011770983723,-0.2318946315738345,-0.03401880631826215,-0.03463897671663785,0.0049364664598259556,-0.504685905448595,,,0,0,,0,0,0,0,0,0,0,0,0,0,0,0
1102,688000000,,shoulder_pan_joint,shoulder_lift_joint,elbow_joint,wrist_1_joint,wrist_2_joint,wrist_3_joint,0,0,0,0,-4.981371364254361e-05,0.013511629228056599,-0.034286744901019794,0.02250357332099384,-2.06328876068973e-05,0.0006909990920211258,0.0,0.0,0.0,0.0,0.0,0.0,,,0,0,0,0,-0.7853538029688828,-1.4587757276952393,-1.1039494713881837,-0.5804736050140961,1.5708164759057586,-0.0009197895201245713,-2.783265262706891e-10,0.5464850102286153,-1.6453427982778437,1.0988577880492296,2.78326837133136e-10,-4.4662102141601604e-13,1.923092796118906e-10,-5.595416174930094,10.378632393952717,-4.7832162190225525,-1.9237234027968932e-10,3.064748975434291e-13,,0,0,-0.7853039892552403,-1.472287356923296,-1.0696627264871639,-0.6029771783350899,1.5708371087933655,-0.0016107886121456971,0.09251597571342438,-0.2288764263102186,-0.035243224385303806,-0.02982652305651079,0.004845451982702177,-0.5389102043871121,,,0,0,,0,0,0,0,0,0,0,0,0,0,0,0
1102,789000000,,shoulder_pan_joint,shoulder_lift_joint,elbow_joint,wrist_1_joint,wrist_2_joint,wrist_3_joint,0,0,0,0,-4.594624957554583e-05,0.010731516273993602,-0.02905747035319095,0.0200970101860094,-2.040504384126507e-05,0.0006900040206734257,0.0,0.0,0.0,0.0,0.0,0.0,,,0,0,0,0,-0.7853538029958224,-1.4144354425069863,-1.2481740754698825,-0.48058928612065066,1.5708164759326984,-0.0009197895201678055,-2.7062344365447186e-10,0.41178188457669535,-1.3975874902091683,0.9858056056324727,2.7062247553999437e-10,-4.3437407316881945e-13,4.662936703425656e-13,-3.788037851702696,6.002097397187739,-2.2140595454850285,-4.3431924723336114e-13,-5.1360825314983316e-15,,0,0,-0.7853078567462468,-1.4251669587809799,-1.2191166051166915,-0.5006862963066601,1.5708368809765396,-0.0016097935408412312,0.09269877468306235,-0.22588329395722206,-0.0362939171355634,-0.025389371427142038,0.004227838397958608,-0.5514629366864006,,,0,0,,0,0,0,0,0,0,0,0,0,0,0,0
1102,889000000,,shoulder_pan_joint,shoulder_lift_joint,elbow_joint,wrist_1_joint,wrist_2_joint,wrist_3_joint,0,0,0,0,-5.3962634879445304e-05,0.0088948999568077,-0.026139529869537048,0.019061922336845505,-2.0555205858752146e-05,0.0005697434712409063,0.0,0.0,0.0,0.0,0.0,0.0,,,0,0,0,0,-0.7853538030228842,-1.379052046969243,-1.3789315728344265,-0.38521518429384943,1.5708164759597598,-0.000919789520211252,-2.706221646775475e-10,0.323221427363926,-1.2663619038983012,0.9431404765343773,2.706187807177685e-10,-4.345362698138233e-13,-4.05009359383257e-13,-3.191791373504122,4.431147467676775,-1.2393560941726867,1.6342482922482294e-13,-6.89899526395976e-15,,0,0,-0.7852998403880047,-1.3879469469260508,-1.3527920429648894,-0.40427710663069494,1.5708370311656186,-0.0014895329914521582,0.1071642065550504,-0.2386430833936361,-0.040197354474117986,-0.021875169116282955,0.004276643034810804,-0.42958468856150694,,,0,0,,0,0,0,0,0,0,0,0,0,0,0,0
1102,989000000,,shoulder_pan_joint,shoulder_lift_joint,elbow_joint,wrist_1_joint,wrist_2_joint,wrist_3_joint,0,0,0,0,-6.240555765280043e-05,0.007225233259004815,-0.023957961823049878,0.018494684367838077,-1.728824626523462e-05,0.0007088308231354588,0.0,0.0,0.0,0.0,0.0,0.0,,,0,0,0,0,-0.785353803049947,-1.351690353208258,-1.4988328134548867,-0.2926756374343741,1.5708164759868226,-0.0009197895202547159,-2.706230972648882e-10,0.24516871590975978,-1.165958613307927,0.9207898973981662,2.7062455387749654e-10,-4.3463114184072446e-13,3.708144902248022e-13,-2.918716781789682,3.4998500245339086,-0.5811332427443947,-1.412203687323199e-13,-4.761815941556338e-16,,0,0,-0.7852913974922942,-1.3589155864672628,-1.4748748516318368,-0.31117032180221216,1.5708337642330878,-0.0016286203433901747,0.10001811932568383,-0.22732299590951027,-0.03927556309378244,-0.01884422402762853,0.003868505115495302,-0.5635895291306837,,,0,0,,0,0,0,0,0,0,0,0,0,0,0,0
1103,89000000,,shoulder_pan_joint,shoulder_lift_joint,elbow_joint,wrist_1_joint,wrist_2_joint,wrist_3_joint,0,0,0,0,-5.746876588252903e-05,0.0057368379506508305,-0.022219672409260927,0.018246241789401624,-1.6552981209505546e-05,0.0006896832590465773,0.0,0.0,0.0,0.0,0.0,0.0,,,0,0,0,0,-0.7853538030770086,-1.3317616411494138,-1.6100541684523493,-0.20138299449575545,1.5708164760138843,-0.0009197895202981787,-2.7061974883224593e-10,0.17139727217507414,-1.0845486375619373,0.9131513653868643,2.706206814195866e-10,-4.34584850744768e-13,-1.0436096431476466e-13,-2.8307205907026405,2.899986114958028,-0.06926552425531976,2.0428103653102873e-13,3.593045999616961e-15,,0,0,-0.7852963343111261,-1.3374984791000646,-1.5878344960430884,-0.21962923628515707,1.5708330289950938,-0.001609472779344756,0.09885910512897071,-0.22206400919694697,-0.03988618455639892,-0.013814187699621727,0.002877550827367445,-0.5645006789636347,,,0,0,,0,0,0,0,0,0,0,0,0,0,0,0
1103,189000000,,shoulder_pan_joint,shoulder_lift_joint,elbow_joint,wrist_1_joint,wrist_2_joint,wrist_3_joint,0,0,0,0,-6.386205840080983e-05,0.004330133637830524,-0.020241370770551992,0.017747108204660716,-1.7407953806225507e-05,0.0006205674673783092,0.0,0.0,0.0,0.0,0.0,0.0,,,0,0,0,0,-0.7853538031039238,-1.319126541983723,-1.7134977150920636,-0.11057454702173211,1.5708164760407997,-0.0009197895203413951,-2.5083425263839194e-10,0.09546678005910562,-0.9450985213344012,0.8496317412752928,2.5083485659970766e-10,-4.0281417330328435e-13,1.537417632516154e-09,-3.070083538254386,7.980628240609103,-4.910544702354914,-1.5374642618837768e-09,2.4644095660426273e-12,,0,0,-0.785289941045523,-1.3234566756215536,-1.6932563443215116,-0.12832165522639283,1.5708338839946059,-0.0015403569877197043,0.11306634641523663,-0.23742270833475065,-0.044181247665374124,-0.010581658946268835,0.0028166564835624824,-0.4562475476622418,,,0,0,,0,0,0,0,0,0,0,0,0,0,0,0
1103,289000000,,shoulder_pan_joint,shoulder_lift_joint,elbow_joint,wrist_1_joint,wrist_2_joint,wrist_3_joint,0,0,0,0,-6.956937274771313e-05,0.002332352385720826,-0.009271707445278832,0.008696131009867727,-1.3208509058504347e-05,0.0007049252519234575,0.0,0.0,0.0,0.0,0.0,0.0,,,0,0,0,0,-0.7853538031244749,-1.314817631752773,-1.7878962953255253,-0.0404848770192207,1.5708164760613506,-0.0009197895203744064,-4.99547184955542e-12,-0.011036233112468735,-0.008166836870331873,0.019203069982826892,4.959242919032522e-12,-8.062441506437217e-15,8.245426024030221e-09,-1.9738234602021958,30.072174094664547,-28.09835063446056,-8.249047882420103e-09,1.324681983125962e-11,,0,0,-0.7852842337517272,-1.317149984138494,-1.7786245878802465,-0.049181008029088424,1.570829684570409,-0.0016247147722978639,0.10295107751472629,-0.2223416207084477,-0.0419215203206601,-0.008732707109372573,0.0021781573076014235,-0.5722665889827548,,,0,0,,0,0,0,0,0,0,0,0,0,0,0,0
1103,389000000,,shoulder_pan_joint,shoulder_lift_joint,elbow_joint,wrist_1_joint,wrist_2_joint,wrist_3_joint,0,0,0,0,-5.646458379959807e-05,-0.0003178145545361666,0.007762591709552513,-0.015907644157246728,-2.3769072730051022e-05,0.0007325866731720228,0.0,0.0,0.0,0.0,0.0,0.0,,,0,0,0,0,-0.7852835114980613,-1.3200777476273085,-1.7755027275252258,-0.0657127871472027,1.5708163461043898,-0.0015127050454206451,0.00021857637311549236,-0.12985583863854677,0.47629486734281623,-0.9719999999999966,-0.0006245569814706236,0.0008150009031931847,0.003642939552411421,-2.1642639773098766,7.938247789046317,-16.199999999999868,-0.010409283024533332,0.013583348386553042,,0,0,-0.7852270469142617,-1.3197599330727723,-1.7832653192347783,-0.049805142989955975,1.5708401151771199,-0.002245291718592668,0.10056254596385611,-0.21855784796692423,-0.04172834563683481,-0.006499020533728972,0.0016144752304732626,-0.5633836981010967,,,0,0,,0,0,0,0,0,0,0,0,0,0,0,0
1103,489000000,,shoulder_pan_joint,shoulder_lift_joint,elbow_joint,wrist_1_joint,wrist_2_joint,wrist_3_joint,0,0,0,0,-5.163738302982335e-05,-0.0041499879583493104,0.022039495299110756,-0.04504319686696942,-4.67410171458571e-05,0.0006463064638521842,0.0,0.0,0.0,0.0,0.0,0.0,,,0,0,0,0,-0.7852460189038898,-1.3423520318500688,-1.6938034573170586,-0.23244078714720282,1.5707092153056166,-0.0013729072361741501,0.0005396947484014545,-0.32063170034201094,1.1760367094885287,-2.4000000000000017,-0.0015421160036364408,0.002012347909118978,0.003373092177289572,-2.00394812713654,7.35022943430433,-15.000000000000016,-0.009638225022351433,0.012577174431994024,,0,0,-0.78519438152086,-1.3382020438917195,-1.7158429526161694,-0.1873975902802334,1.5707559563227624,-0.0020192137000263344,0.11198440735634518,-0.2344927356814447,-0.04442427095092372,-0.007812815802059947,0.002627038597929232,-0.43484772417607914,,,0,0,,0,0,0,0,0,0,0,0,0,0,0,0
1103,589000000,,shoulder_pan_joint,shoulder_lift_joint,elbow_joint,wrist_1_joint,wrist_2_joint,wrist_3_joint,0,0,0,0,-4.4603000376230995e-05,-0.006672969810301854,0.03080399150854274,-0.06293229693950564,-5.882292348635687e-05,0.000693856730193558,0.0,0.0,0.0,0.0,0.0,0.0,,,0,0,0,0,-0.7851794013843363,-1.3819293829921073,-1.5486387160962065,-0.528686113606083,1.5705188633643927,-0.0011245119598050704,0.0007039755985058505,-0.4182306643064594,1.5340174216506286,-3.1305500774400037,-0.002011529739444303,0.002624898292803559,-0.0002265626461917746,0.13460046958787109,-0.49369757632061706,1.0075146239998585,0.0006473768428762947,-0.0008447791445898821,,0,0,-0.78513479838396,-1.3752564131818055,-1.5794427076047493,-0.46575381666657734,1.570577686287879,-0.0018183686899986284,0.09822819751855932,-0.2188357001289551,-0.04023698198558712,-0.010627833901971417,0.0033784691228471164,-0.4892902357126595,,,0,0,,0,0,0,0,0,0,0,0,0,0,0,0
1103,689000000,,shoulder_pan_joint,shoulder_lift_joint,elbow_joint,wrist_1_joint,wrist_2_joint,wrist_3_joint,0,0,0,0,-2.9606502280454805e-05,-0.006669961602369101,0.030771863227057716,-0.06286971046260015,-6.297716060310599e-05,0.000619226969580286,0.0,0.0,0.0,0.0,0.0,0.0,,,0,0,0,0,-0.7851088492662996,-1.423844272169185,-1.3949001796576643,-0.8424284351472029,1.5703172687581144,-0.0008614458328236513,0.0007064604256624663,-0.4197068957477189,1.539432052720433,-3.141599999999998,-0.002018629848771758,0.002634163413036744,1.5846698953048063e-14,3.3573144264664734e-13,-6.314948564067888e-13,2.2382096176443148e-13,-6.237198257874612e-14,5.152128723651116e-16,,0,0,-0.7850792427640192,-1.417174310566816,-1.425672042884722,-0.7795587246846027,1.5703802459187175,-0.0014806728024039373,0.09254165212117121,-0.21589472005184368,-0.03863404504291068,-0.013636866333538777,0.003090559002238036,-0.3986529158700807,,,0,0,,0,0,0,0,0,0,0,0,0,0,0,0
1103,789000000,,shoulder_pan_joint,shoulder_lift_joint,elbow_joint,wrist_1_joint,wrist_2_joint,wrist_3_joint,0,0,0,0,-2.8041737686557155e-05,-0.006605396247020279,0.03077259615120531,-0.06286916338832893,-6.43007806568896e-05,0.00037508675668230943,0.0,0.0,0.0,0.0,0.0,0.0,,,0,0,0,0,-0.785038203223734,-1.465814961743957,-1.2409569743856201,-1.156588435147203,1.570115405773238,-0.0005980294915199787,0.0007064604256471187,-0.41970689574771125,1.5394320527204388,-3.141600000000019,-0.0020186298487410623,0.00263416341303672,-6.875906094494508e-13,7.993605777301104e-14,-2.4780177909633484e-13,-9.272582701669305e-13,1.4724003266630699e-12,-2.966377143920339e-16,,0,0,-0.7850101614860474,-1.4592095654969368,-1.2717295705368254,-1.0937192717588742,1.570179706553895,-0.0009731162482022881,0.10310865908535818,-0.23081110765551816,-0.040210412239872984,-0.019196834126196438,0.002136264372299468,-0.1721635866164707,,,0,0,,0,0,0,0,0,0,0,0,0,0,0,0
1103,890000000,,shoulder_pan_joint,shoulder_lift_joint,elbow_joint,wrist_1_joint,wrist_2_joint,wrist_3_joint,0,0,0,0,-2.452835955502053e-05,-0.0066344851324537935,0.030768865683177937,-0.06308032697660715,-5.6880999110608954e-05,0.00033816621284467704,0.0,0.0,0.0,0.0,0.0,0.0,,,0,0,0,0,-0.7849675571811678,-1.5077856513187293,-1.087013769113576,-1.4707484351472024,1.5699135427883608,-0.00033461315021630537,0.0007064604256586294,-0.4197068957477189,1.5394320527204506,-3.1415999999999693,-0.002018629848771758,0.0026341634130367386,7.979554517145705e-14,3.3573144264664734e-13,6.474820679613912e-13,1.1191048088221574e-12,-6.237198257874612e-14,2.966377143920339e-16,,0,0,-0.7849430288216128,-1.5011511661862755,-1.1177826347967539,-1.4076681081705953,1.5699704237874714,-0.0006727793630609824,0.08958611901423222,-0.21972159447951423,-0.03681573316344666,-0.023468417997591362,0.0016674096431515961,-0.1281283395929801,,,0,0,,0,0,0,0,0,0,0,0,0,0,0,0
1103,990000000,,shoulder_pan_joint,shoulder_lift_joint,elbow_joint,wrist_1_joint,wrist_2_joint,wrist_3_joint,0,0,0,0,-1.3913081589156384e-05,-0.006603128519116153,0.03076717944451124,-0.06329276854035104,-5.4992770742945396e-05,4.98020957635735e-05,0.0,0.0,0.0,0.0,0.0,0.0,,,0,0,0,0,-0.7848969111386018,-1.549756340893502,-0.933070563841532,-1.7849084351472024,1.569711679803484,-7.119680891263261e-05,0.0007064604256624664,-0.4197068957477496,1.5394320527204293,-3.141599999999994,-0.002018629848771758,0.0026341634130367247,7.97955451714572e-14,-1.1990408665951687e-12,-6.314948564067889e-13,2.2382096176443156e-13,-6.237198257874612e-14,-7.806255641895617e-17,,0,0,-0.7848829980570127,-1.5431532123743859,-0.9638377432860432,-1.7216156666068514,1.569766672574227,-0.00012099890467620611,0.08623411247498833,-0.2205560437047403,-0.03538325582924051,-0.014504068348467625,0.00018954658349312759,0.0006436031415342214,,,0,0,,0,0,0,0,0,0,0,0,0,0,0,0
1104,90000000,,shoulder_pan_joint,shoulder_lift_joint,elbow_joint,wrist_1_joint,wrist_2_joint,wrist_3_joint,0,0,0,0,-2.220283063303352e-05,-0.006770512887738445,0.031028131523965774,-0.06392359233823841,-4.827204058277523e-05,7.029584200849039e-05,0.0,0.0,0.0,0.0,0.0,0.0,,,0,0,0,0,-0.7848259811814241,-1.5918957036395578,-0.7785086866130826,-2.100330991565205,1.5695090055650833,0.00019327815854433718,0.0007077403264400028,-0.42046728254935245,1.5422210557765599,-3.147291665303196,-0.002022287018822535,0.0026389357508585037,-0.0007704556185970204,0.45772632722717027,-1.6788825407579933,3.4261839492847264,0.0022014887916229344,-0.00287278087775095,,0,0,-0.7848037783507911,-1.5851251907518193,-0.8095368181370484,-2.0364073992269667,1.569557277605666,0.0001229823165358468,0.08856196295141733,-0.23062627598836372,-0.0345466950562755,0.07885945322338173,-0.0009379987705019355,7.639050660390723e-05,,,0,0,,0,0,0,0,0,0,0,0,0,0,0,0
1104,190000000,,shoulder_pan_joint,shoulder_lift_joint,elbow_joint,wrist_1_joint,wrist_2_joint,wrist_3_joint,0,0,0,0,-1.706161973091813e-05,-0.0036890937298736937,0.020020731994117802,-0.04156114098823238,-3.206482978534986e-05,6.187565220822761e-05,0.0,0.0,0.0,0.0,0.0,0.0,,,0,0,0,0,-0.7847672653283105,-1.6267786886537334,-0.6505622893309516,-2.361437937462048,1.569341231731779,0.00041221066547431746,0.00042616072813032483,-0.25318133868022363,0.9286372748787706,-1.895118954814272,-0.001217705528771209,0.0015890161109384357,-0.003373092358415633,2.003948234682023,-7.350229828763177,15.000000804995171,0.009638225539296824,-0.012577175106963913,,0,0,-0.7847502037085796,-1.6230895949238597,-0.6705830213250694,-2.3198767964738156,1.5693732965615643,0.00035033501326608985,0.08306397063757154,-0.22976090664145504,-0.03269372191101616,0.1045361662901439,-0.0028352303905069265,1.0831715870129877e-05,,,0,0,,0,0,0,0,0,0,0,0,0,0,0,0
1104,290000000,,shoulder_pan_joint,shoulder_lift_joint,elbow_joint,wrist_1_joint,wrist_2_joint,wrist_3_joint,0,0,0,0,-1.1615623941363395e-05,0.0003363542203671521,0.005391227565360146,-0.011735048655659774,-1.0793115944540688e-05,3.6246907283478576e-05,0.0,0.0,0.0,0.0,0.0,0.0,,,0,0,0,0,-0.7847411220090064,-1.642310388648729,-0.5935939691823414,-2.47769618625101,1.569266530187607,0.0005096906837527742,7.866994955223617e-05,-0.04673767859297964,0.17142792082952002,-0.3498419791417998,-0.0002247903811469925,0.0002933349063532914,-0.004568325569020084,2.71403418182915,-9.954735683433352,20.315152960345145,0.01305346770829148,-0.01703381482632843,,0,0,-0.784729506385065,-1.642646742869096,-0.5989851967477016,-2.4659611375953503,1.5692773233035515,0.0004734437764692956,0.07687248182402084,-0.22755178811313032,-0.03156659172407206,0.10345081129259726,-0.0040574347076224315,-5.788920425853217e-05,,,0,0,,0,0,0,0,0,0,0,0,0,0,0,0
1104,390000000,,shoulder_pan_joint,shoulder_lift_joint,elbow_joint,wrist_1_joint,wrist_2_joint,wrist_3_joint,0,0,0,0,4.877904551392476e-07,2.4527724853840027e-05,3.8344356578789984e-07,-1.3089407707056466e-05,-9.257880506652327e-08,1.2208593043183669e-06,0.0,0.0,0.0,0.0,0.0,0.0,,,0,0,0,0,-0.7847161886239888,-1.6445446719330494,-0.5918778230513384,-2.480473760200998,1.569267190686701,0.00048707964273120297,0.0,0.0,0.0,0.0,0.0,0.0,0.0,0.0,0.0,0.0,0.0,0.0,,0,0,-0.784716676414444,-1.6445691996579033,-0.5918782064949042,-2.480460670793291,1.5692672832655061,0.0004858587834268846,0.07950935963181208,-0.22813302484990633,-0.03163303188193356,0.1105273882904983,-0.004007962090752604,-4.0912466534683e-05,,,0,0,,0,0,0,0,0,0,0,0,0,0,0,0
1104,490000000,,shoulder_pan_joint,shoulder_lift_joint,elbow_joint,wrist_1_joint,wrist_2_joint,wrist_3_joint,0,0,0,0,-3.437372150516538e-05,0.013635066026613796,-0.02984664365189138,0.017241419048542372,-2.689818905610153e-06,1.7370937183394425e-05,0.0,0.0,0.0,0.0,0.0,0.0,,,0,0,0,0,-0.7847161886336864,-1.5882047740921252,-0.7328773767850758,-2.39581410430817,1.5692671906866573,0.00048707963303367384,-9.697576075495817e-11,0.5633989784092419,-1.409995537337374,0.8465965589282787,-4.374278717023117e-13,-9.697529129541749e-11,-9.697576075495817e-10,5.633989784092419,-14.09995537337374,8.465965589282787,-4.374278717023117e-12,-9.697529129541749e-10,,0,0,-0.7846818149121813,-1.601839840118739,-0.7030307331331844,-2.4130555233567126,1.569269880505563,0.0004697086958502794,0.08662473352122578,-0.2337299503177636,-0.0333417201721371,0.12936048790697213,-0.003955793864297785,-1.5925675513485393e-05,,,0,0,,0,0,0,0,0,0,0,0,0,0,0,0
1104,590000000,,shoulder_pan_joint,shoulder_lift_joint,elbow_joint,wrist_1_joint,wrist_2_joint,wrist_3_joint,0,0,0,0,-5.612847359715012e-05,0.017785507541390855,-0.040930464000528244,0.024707122098063472,-6.629528823465236e-06,1.9366202180660062e-05,0.0,0.0,0.0,0.0,0.0,0.0,,,0,0,0,0,-0.7847161886511425,-1.512077220178161,-0.9356633020829649,-2.2691557329242187,1.5692671906865787,0.00048707961557790166,-1.7456036616181336e-10,0.7612755391396431,-2.0278592529788906,1.2665837138395153,-7.860379014346108e-13,-1.7455772179271467e-10,-7.758460540685519e-10,1.9787656073040116,-6.178637156415165,4.199871549112366,-3.4861002973229915e-12,-7.758243049729718e-10,,0,0,-0.7846600601775453,-1.5298627277195518,-0.8947328380824366,-2.293862855022282,1.5692738202154022,0.0004677134133972416,0.08393570263204042,-0.22802957110724187,-0.03400258953259172,0.11658612018712988,-0.004378321875244007,-0.0001353830676756873,,,0,0,,0,0,0,0,0,0,0,0,0,0,0,0
1104,690000000,,shoulder_pan_joint,shoulder_lift_joint,elbow_joint,wrist_1_joint,wrist_2_joint,wrist_3_joint,0,0,0,0,-3.730602626017543e-05,0.013176199485959605,-0.032897464119154174,0.020897266232160927,-7.044106657305704e-06,1.531895860698172e-05,0.0,0.0,0.0,0.0,0.0,0.0,,,0,0,0,0,-0.7847161886685985,-1.454593993461262,-1.1028937673813177,-2.159408494342738,1.5692671906865001,0.0004870795981220215,-1.7456036616181336e-10,0.5748322671689898,-1.6723046529835284,1.0974723858148083,-7.860379014346108e-13,-1.7455880165807847e-10,0.0,-1.8644327197065325,3.555545999953622,-1.6911132802470696,0.0,-1.0798653637955624e-14,,0,0,-0.7846788826423383,-1.4677701929472216,-1.0699963032621636,-2.1803057605748988,1.5692742347931574,0.00047176063951503977,0.10217023602230974,-0.24379755961427124,-0.038398797021770514,0.1443306546822256,-0.004614558469438923,-0.00016425101521802543,,,0,0,,0,0,0,0,0,0,0,0,0,0,0,0
1104,790000000,,shoulder_pan_joint,shoulder_lift_joint,elbow_joint,wrist_1_joint,wrist_2_joint,wrist_3_joint,0,0,0,0,-4.2407054656190546e-05,0.010916016805850415,-0.02905493731474329,0.019314646280725878,-7.08966909779285e-06,1.4715280111610445e-05,0.0,0.0,0.0,0.0,0.0,0.0,,,0,0,0,0,-0.7847161886860546,-1.409332624931404,-1.248848751641528,-2.0587148786123586,1.5692671906864215,0.000487079580666028,-1.74561476384838e-10,0.4526136852985796,-1.4595498426021036,1.0069361573037927,-7.860379014346108e-13,-1.7455993464934871e-10,-1.1102230246251565e-14,-1.2221858187041024,2.1275481038142474,-0.9053622851101562,0.0,-1.1329912702473521e-14,,0,0,-0.7846737816313984,-1.4202486417372544,-1.2197938143267848,-2.0780295248930845,1.5692742803555193,0.0004723643005544176,0.10535218988932835,-0.24305427283934117,-0.039989117728437384,0.14416186396764918,-0.0047080131385915935,-0.00017777403714884857,,,0,0,,0,0,0,0,0,0,0,0,0,0,0,0
1104,890000000,,shoulder_pan_joint,shoulder_lift_joint,elbow_joint,wrist_1_joint,wrist_2_joint,wrist_3_joint,0,0,0,0,-5.153730345919261e-05,0.008954530899067947,-0.026149500301001938,0.018317233318556614,-6.0733490185871375e-06,1.7067669098735677e-05,0.0,0.0,0.0,0.0,0.0,0.0,,,0,0,0,0,-0.7847161887035107,-1.373523048695648,-1.3800857121973247,-1.9632874942922913,1.569267190686343,0.00048707956321017963,-1.7456036616181336e-10,0.3580957623575598,-1.312369605557966,0.9542738432006725,-7.860379014346108e-13,-1.7455848398684193e-10,1.1102230246251565e-14,-0.9451792294101979,1.4718023704413774,-0.5266231410312017,0.0,1.450662506785605e-14,,0,0,-0.7846646514000515,-1.382477579594716,-1.3539362118963227,-1.981604727610848,1.5692732640353615,0.00047001189411144395,0.09784411091190579,-0.2279435219001701,-0.03899128671063856,0.11652157418515419,-0.004227141764584275,-0.00023102353712264878,,,0,0,,0,0,0,0,0,0,0,0,0,0,0,0
1104,991000000,,shoulder_pan_joint,shoulder_lift_joint,elbow_joint,wrist_1_joint,wrist_2_joint,wrist_3_joint,0,0,0,0,-4.5842815198482434e-05,0.00737849531384005,-0.023980341054504528,0.017744669762189247,-6.380299874875206e-06,1.6226709931926116e-05,0.0,0.0,0.0,0.0,0.0,0.0,,,0,0,0,0,-0.7847161887209667,-1.345780334727826,-1.5003497999034794,-1.8707661205539319,1.5692671906862643,0.0004870795457543035,-1.7456036616181336e-10,0.2774271396782191,-1.202640877061547,0.9252137373835945,-7.860379014346108e-13,-1.7455876154259808e-10,0.0,-0.8066862267934072,1.097287284964188,-0.29060105817078075,0.0,-2.7755575615628914e-15,,0,0,-0.7846703459057682,-1.3531588300416661,-1.4763694588489749,-1.8885107903161211,1.5692735709861392,0.00047085283582237736,0.09662488065530207,-0.22365530952403317,-0.03987117658734496,0.0990338507516883,-0.004182417983058517,-0.0003426086740186893,,,0,0,,0,0,0,0,0,0,0,0,0,0,0,0
1105,91000000,,shoulder_pan_joint,shoulder_lift_joint,elbow_joint,wrist_1_joint,wrist_2_joint,wrist_3_joint,0,0,0,0,-4.7946325592129746e-05,0.005545132209088033,-0.021400132452953136,0.01699723392216046,-6.2056819662981155e-06,1.5641236960473048e-05,0.0,0.0,0.0,0.0,0.0,0.0,,,0,0,0,0,-0.7847161887418187,-1.3218353642860758,-1.6332782995969353,-1.7617825913021943,1.5692671906861702,0.00048707952490252283,-1.617958754376061e-10,0.15314796349118712,-0.99786897405371,0.8447210105627713,-7.30882025967894e-13,-1.617933803761327e-10,9.915680859892817e-10,-3.3816678896359798,8.560425900576092,-5.17875801094176,4.267696964186373e-12,9.91609655605272e-10,,0,0,-0.7846682424162266,-1.3273804964951639,-1.6118781671439821,-1.7787798252243547,1.5692733963681365,0.0004714382879420498,0.09779655720714524,-0.2209945592712636,-0.04116084795991681,0.09262286488385096,-0.003982427263603983,-0.00035366026301458103,,,0,0,,0,0,0,0,0,0,0,0,0,0,0,0
1105,191000000,,shoulder_pan_joint,shoulder_lift_joint,elbow_joint,wrist_1_joint,wrist_2_joint,wrist_3_joint,0,0,0,0,-5.961478319438385e-05,0.004118875066004168,-0.01778907630263271,0.014776248164931172,-5.98672337526196e-06,1.7066982935815737e-05,0.0,0.0,0.0,0.0,0.0,0.0,,,0,0,0,0,-0.784716188753424,-1.313851112793945,-1.7019012739811248,-1.7011438684101177,1.569267190686118,0.00048707951329742335,-1.5001333484189094e-10,0.11631943868857837,-0.9000845489120874,0.78376511022374,-6.772360439333224e-13,-1.5001196332615321e-10,2.454612076428671e-10,-0.8665350566702282,2.1534683854042656,-1.2869333287344147,1.0880277281951433e-12,2.4545072336436494e-10,,0,0,-0.7846565739702296,-1.3179699878599491,-1.684112197678492,-1.7159201165750488,1.5692731774094932,0.0004700125303616076,0.10067729965300995,-0.2218885368243131,-0.04206657547597248,0.11905008501363407,-0.003906745803575862,-0.00011093517215654547,,,0,0,,0,0,0,0,0,0,0,0,0,0,0,0
1105,291000000,,shoulder_pan_joint,shoulder_lift_joint,elbow_joint,wrist_1_joint,wrist_2_joint,wrist_3_joint,0,0,0,0,0.001404194203829534,0.0018714640863040088,-1.2747874880147947e-05,-0.0007509438704831339,-5.958530152838648e-06,1.728982109483468e-05,0.0,0.0,0.0,0.0,0.0,0.0,,,0,0,0,0,-0.7831980552510686,-1.3149320021323847,-1.7105518975144438,-1.6925216300985495,1.569273574683188,0.0004678552819266102,0.2039999999999998,0.0,0.0,0.0,0.0,0.0,17.399999999999974,0.0,0.0,0.0,0.0,0.0,,0,0,-0.7846022494548981,-1.3168034662186887,-1.7105391496395637,-1.6917706862280664,1.569279533213341,0.0004505654608317755,0.10056858253758509,-0.2209215871391656,-0.04228268392806789,0.11338522166913118,-0.0038471463084380764,-0.0001367132081874639,,,0,0,,0,0,0,0,0,0,0,0,0,0,0,0
1105,391000000,,shoulder_pan_joint,shoulder_lift_joint,elbow_joint,wrist_1_joint,wrist_2_joint,wrist_3_joint,0,0,0,0,0.02733916252461177,0.001748236432233874,-1.4883518208996804e-05,-0.0006541608358761053,-6.54191271109994e-06,1.662475809371955e-05,0.0,0.0,0.0,0.0,0.0,0.0,,,0,0,0,0,-0.7096620552510686,-1.3149320021323847,-1.7105518975144438,-1.6925216300985495,1.569273574683188,0.0004678552819266102,1.5,0.0,0.0,0.0,0.0,0.0,15.0,0.0,0.0,0.0,0.0,0.0,,0,0,-0.7370012177756804,-1.3166802385646186,-1.7105370139962348,-1.6918674692626734,1.5692801165958992,0.00045123052383289064,0.09350029588578918,-0.20670446230508094,-0.04082182445858484,0.04359364021829837,-0.004166204164410714,0.00012381385982077053,,,0,0,,0,0,0,0,0,0,0,0,0,0,0,0
1105,492000000,,shoulder_pan_joint,shoulder_lift_joint,elbow_joint,wrist_1_joint,wrist_2_joint,wrist_3_joint,0,0,0,0,0.039275501894507514,0.00036544529769155787,6.748711216530978e-06,-0.0003772836067383878,-5.332098708343835e-06,3.069141598022185e-05,0.0,0.0,0.0,0.0,0.0,0.0,,,0,0,0,0,-0.45833498950851376,-1.3149320021323847,-1.7105518975144438,-1.6925216300985495,1.569273574683188,0.0004678552819266102,1.8166335397324394,0.0,0.0,0.0,0.0,0.0,-15.000000000000007,0.0,0.0,0.0,0.0,0.0,,0,0,-0.49761049140302127,-1.3152974474300763,-1.7105586462256603,-1.6921443464918111,1.5692789067818964,0.00043716386594638834,0.08876642621606293,-0.15431283765699455,-0.03422670369445385,0.002628798654093323,-0.0011260684114799968,0.00014652833077330452,,,0,0,,0,0,0,0,0,0,0,0,0,0,0,0
1105,592000000,,shoulder_pan_joint,shoulder_lift_joint,elbow_joint,wrist_1_joint,wrist_2_joint,wrist_3_joint,0,0,0,0,0.009684775740771645,0.00016598977137860516,2.6064375281187324e-05,-0.00041014428029928496,-7.480261030146096e-06,4.643827995032268e-05,0.0,0.0,0.0,0.0,0.0,0.0,,,0,0,0,0,-0.3512868001713314,-1.3149320021323847,-1.7105518975144438,-1.6925216300985495,1.569273574683188,0.0004678552819266102,0.33789694288374467,0.0,0.0,0.0,0.0,0.0,-18.438716575328694,0.0,0.0,0.0,0.0,0.0,,0,0,-0.36097157591210305,-1.3150979919037633,-1.710577961889725,-1.6921114858182502,1.5692810549442182,0.0004214170019762875,0.06665063688062166,-0.09844428614676835,-0.023345156617912893,0.07930424403671213,-0.004619192301258623,0.0005396564137589432,,,0,0,,0,0,0,0,0,0,0,0,0,0,0,0
1105,692000000,,shoulder_pan_joint,shoulder_lift_joint,elbow_joint,wrist_1_joint,wrist_2_joint,wrist_3_joint,0,0,0,0,-0.0014935296811829923,0.00015725144404754587,2.4511167246998866e-05,-0.00041292908522549965,-7.568578552330507e-06,5.051651443199745e-05,0.0,0.0,0.0,0.0,0.0,0.0,,,0,0,0,0,-0.34976333840322715,-1.3150894444859151,-1.7105764352773054,-1.6921083263019803,1.569281148428371,0.0004214842293999155,-0.20399999999999985,0.0,0.0,0.0,0.0,0.0,-17.399999999999988,0.0,0.0,0.0,0.0,0.0,,0,0,-0.34826980872204416,-1.3152466959299627,-1.7106009464445524,-1.6916953972167548,1.5692887170069234,0.00037096771496791803,0.06544431848494707,-0.09260019241272387,-0.022093844066822715,0.09093089926608702,-0.0029618152216084326,0.0008534136556125338,,,0,0,,0,0,0,0,0,0,0,0,0,0,0,0
1105,792000000,,shoulder_pan_joint,shoulder_lift_joint,elbow_joint,wrist_1_joint,wrist_2_joint,wrist_3_joint,0,0,0,0,-0.03304055425322916,0.00022351536727249766,3.6774105049985906e-05,-0.00043273084215034174,-6.550267447558156e-06,5.071561462344221e-05,0.0,0.0,0.0,0.0,0.0,0.0,,,0,0,0,0,-0.4562993384032271,-1.3150894444859151,-1.7105764352773054,-1.6921083263019803,1.569281148428371,0.0004214842293999155,-1.7999999999999998,0.0,0.0,0.0,0.0,0.0,-14.99999999999998,0.0,0.0,0.0,0.0,0.0,,0,0,-0.42325878414999796,-1.3153129598531876,-1.7106132093823554,-1.69167559545983,1.5692876986958186,0.00037076861477647327,0.08344882467781031,-0.13026928633341217,-0.028635575809455638,0.07959650590609207,-0.0028603611412501007,0.0007954226508806728,,,0,0,,0,0,0,0,0,0,0,0,0,0,0,0
1105,893000000,,shoulder_pan_joint,shoulder_lift_joint,elbow_joint,wrist_1_joint,wrist_2_joint,wrist_3_joint,0,0,0,0,-0.06205799132574019,0.001368024568141557,-2.1601785448410737e-05,-0.000520760327011871,-1.701619530969367e-05,-1.3278800663485413e-06,0.0,0.0,0.0,0.0,0.0,0.0,,,0,0,0,0,-0.7103086530553873,-1.3150894444859151,-1.7105764352773054,-1.6921083263019803,1.569281148428371,0.0004214842293999155,-3.1599678566400007,0.0,0.0,0.0,0.0,0.0,-2.6524692480000605,0.0,0.0,0.0,0.0,0.0,,0,0,-0.6482506617296471,-1.3164574690540567,-1.710554833491857,-1.6915875659749684,1.5692981646236808,0.000422812109466264,0.09474208617863975,-0.18749509091655592,-0.03839131437468413,0.041464343255085245,-0.005061663279508299,0.000594978961442949,,,0,0,,0,0,0,0,0,0,0,0,0,0,0,0
1105,993000000,,shoulder_pan_joint,shoulder_lift_joint,elbow_joint,wrist_1_joint,wrist_2_joint,wrist_3_joint,0,0,0,0,-0.0629208730976678,0.0028672926356909656,-1.264305694625989e-05,-0.0011229486009707301,-5.1835670484834395e-06,6.632026043895678e-06,0.0,0.0,0.0,0.0,0.0,0.0,,,0,0,0,0,-1.0246229864032272,-1.3150894444859151,-1.7105764352773054,-1.6921083263019803,1.569281148428371,0.0004214842293999155,-3.141600000000001,0.0,0.0,0.0,0.0,0.0,-1.101341240428155e-13,0.0,0.0,0.0,0.0,0.0,,0,0,-0.9617021133055594,-1.317956737121606,-1.7105637922203591,-1.6909853777010095,1.5692863319954196,0.0004148522033560198,0.1109107020596233,-0.25754256697887556,-0.048336275483462754,0.11076569640395184,-0.004542824039713733,3.6940143577465084e-05,,,0,0,,0,0,0,0,0,0,0,0,0,0,0,0
1106,94000000,,shoulder_pan_joint,shoulder_lift_joint,elbow_joint,wrist_1_joint,wrist_2_joint,wrist_3_joint,0,0,0,0,-0.06292223803667918,0.002753139224444645,-8.43170465181231e-06,-0.0009307621486431827,-1.8149381686427546e-06,7.204498538193604e-06,0.0,0.0,0.0,0.0,0.0,0.0,,,0,0,0,0,-1.3387829864032272,-1.3150894444859151,-1.7105764352773054,-1.6921083263019803,1.569281148428371,0.0004214842293999155,-3.1415999999999986,0.0,0.0,0.0,0.0,0.0,7.460698725481048e-14,0.0,0.0,0.0,0.0,0.0,,0,0,-1.275860748366548,-1.3178425837103598,-1.7105680035726536,-1.691177564153337,1.5692829633665397,0.0004142797308617219,0.14388714832857172,-0.3148303694958102,-0.058016723805552006,0.06324392532913325,-0.0043329830858453156,-9.856618986175264e-05,,,0,0,,0,0,0,0,0,0,0,0,0,0,0,0
1106,194000000,,shoulder_pan_joint,shoulder_lift_joint,elbow_joint,wrist_1_joint,wrist_2_joint,wrist_3_joint,0,0,0,0,-0.06296197511925006,0.0031387455723752566,-1.0003394067759075e-05,-0.0006107641619941262,-3.0802853290268217e-06,9.417766174024678e-06,0.0,0.0,0.0,0.0,0.0,0.0,,,0,0,0,0,-1.6529429864032272,-1.3150894444859151,-1.7105764352773054,-1.6921083263019803,1.569281148428371,0.0004214842293999155,-3.141599999999997,0.0,0.0,0.0,0.0,0.0,3.446132268436485e-13,0.0,0.0,0.0,0.0,0.0,,0,0,-1.5899810112839772,-1.3182281900582904,-1.7105664318832376,-1.6914975621399861,1.5692842287137,0.0004120664632258908,0.13748705693588967,-0.31714469394556066,-0.05576503569105484,-0.04624883767642585,-0.004018412974296004,-0.0002911913978392751,,,0,0,,0,0,0,0,0,0,0,0,0,0,0,0
1106,295000000,,shoulder_pan_joint,shoulder_lift_joint,elbow_joint,wrist_1_joint,wrist_2_joint,wrist_3_joint,0,0,0,0,-0.06296770193718237,0.0028285918999042536,-6.806617971477635e-07,-5.976259503892578e-05,-6.4598877820287726e-06,-5.524302331583186e-05,0.0,0.0,0.0,0.0,0.0,0.0,,,0,0,0,0,-1.967102986403227,-1.3150894444859151,-1.7105764352773054,-1.6921083263019803,1.569281148428371,0.0004214842293999155,-3.141600000000004,0.0,0.0,0.0,0.0,0.0,-3.943512183468555e-13,0.0,0.0,0.0,0.0,0.0,,0,0,-1.9041352844660446,-1.3179180363858194,-1.7105757546155083,-1.6920485637069413,1.569287608316153,0.00047672725271574734,0.11313596656368859,-0.28644182675176477,-0.047555705230580614,-0.05193516386185848,-0.003335035767789929,-0.00041611794353666604,,,0,0,,0,0,0,0,0,0,0,0,0,0,0,0
1106,396000000,,shoulder_pan_joint,shoulder_lift_joint,elbow_joint,wrist_1_joint,wrist_2_joint,wrist_3_joint,0,0,0,0,-0.06296722944846289,0.002145770019883031,-8.369283701625818e-06,-3.176508819890955e-05,-3.4139590017190358e-06,-6.216545355108849e-05,0.0,0.0,0.0,0.0,0.0,0.0,,,0,0,0,0,-2.281262986585189,-1.3150894444859151,-1.7105764352773054,-1.6921083263019803,1.569281148428371,0.0004214842293999155,-3.141600024127486,0.0,0.0,0.0,0.0,0.0,-1.8095614752815714e-06,0.0,0.0,0.0,0.0,0.0,,0,0,-2.218295757136726,-1.3172352145057982,-1.7105680659936038,-1.6920765612137814,1.5692845623873728,0.00048364968295100397,0.0775103281447719,-0.22312416335289847,-0.03407226406516006,-0.0507104365815344,-0.002735842246197162,-0.00048781153795975085,,,0,0,,0,0,0,0,0,0,0,0,0,0,0,0
1106,497000000,,shoulder_pan_joint,shoulder_lift_joint,elbow_joint,wrist_1_joint,wrist_2_joint,wrist_3_joint,0,0,0,0,-0.06293763922821283,0.00025338470999436424,3.504440782542417e-05,7.063200884260823e-05,8.34013052131155e-06,-0.000160649307887617,0.0,0.0,0.0,0.0,0.0,0.0,,,0,0,0,0,-2.595422989726789,-1.3150894444859151,-1.7105764352773054,-1.6921083263019803,1.569281148428371,0.0004214842293999155,-3.141600024127494,0.0,0.0,0.0,0.0,0.0,-1.8095619944122001e-06,0.0,0.0,0.0,0.0,0.0,,0,0,-2.5324853504985763,-1.3153428291959095,-1.7106114796851308,-1.6921789583108229,1.5692728082978498,0.0005821335372875325,0.027158186379271573,-0.12304993723602142,-0.015390110892127495,-0.04037554006753746,-0.002897730934562137,-0.0004751608488191006,,,0,0,,0,0,0,0,0,0,0,0,0,0,0,0
1106,597000000,,shoulder_pan_joint,shoulder_lift_joint,elbow_joint,wrist_1_joint,wrist_2_joint,wrist_3_joint,0,0,0,0,-0.06248293371446145,6.568733626810541e-05,1.0736465564598063e-05,0.0005852385804328009,4.671079143925283e-06,-3.231965718430985e-05,0.0,0.0,0.0,0.0,0.0,0.0,,,0,0,0,0,-2.909199068914411,-1.3150894444859151,-1.7105764352773054,-1.6921083263019803,1.569281148428371,0.0004214842293999155,-3.0936098150903937,0.0,0.0,0.0,0.0,0.0,2.9993263759355946,0.0,0.0,0.0,0.0,0.0,,0,0,-2.8467161351999497,-1.3151551318221832,-1.71058717174287,-1.692693564882413,1.5692764773492272,0.0004538038865842253,0.0029691483905602,-0.07899957643237632,-0.005604720927149254,-0.04109966278958002,-0.0013575930345977039,-0.00048049068510883086,,,0,0,,0,0,0,0,0,0,0,0,0,0,0,0
1106,697000000,,shoulder_pan_joint,shoulder_lift_joint,elbow_joint,wrist_1_joint,wrist_2_joint,wrist_3_joint,0,0,0,0,-0.05987373428003506,5.835857355496188e-05,1.0353032612542279e-05,0.0008163246014021297,5.224489454391801e-06,-1.8577850555701048e-05,0.0,0.0,0.0,0.0,0.0,0.0,,,0,0,0,0,-3.2207422903887664,-1.3150894444859151,-1.7105764352773054,-1.6921083263019803,1.569281148428371,0.0004214842293999155,-2.841564876749838,0.0,0.0,0.0,0.0,0.0,15.000001233541523,0.0,0.0,0.0,0.0,0.0,,0,0,-3.1608685561087313,-1.31514780305947,-1.710586788309918,-1.6929246509033824,1.5692759239389167,0.0004400620799556165,-0.010198460257003772,-0.02850622688942339,-0.0005450377883056412,-0.2442632026222405,0.0019537180128810228,-0.00012064458449212445,,,0,0,,0,0,0,0,0,0,0,0,0,0,0,0
1106,797000000,,shoulder_pan_joint,shoulder_lift_joint,elbow_joint,wrist_1_joint,wrist_2_joint,wrist_3_joint,0,0,0,0,-0.029825050880634585,-8.743298719515735e-05,-1.5879904772475584e-05,0.0008484093456404551,2.5410289055116664e-06,5.322311826461146e-05,0.0,0.0,0.0,0.0,0.0,0.0,,,0,0,0,0,-3.4298987784897874,-1.3150894444859151,-1.7105764352773054,-1.6921083263019803,1.569281148428371,0.0004214842293999155,-1.3415649032698442,0.0,0.0,0.0,0.0,0.0,15.000000369541123,0.0,0.0,0.0,0.0,0.0,,0,0,-3.400073727609153,-1.31500201149872,-1.710560555372533,-1.6929567356476207,1.5692786073994656,0.000368261111135304,-0.029289801397369947,0.05088905643033066,0.013437838893400222,-0.18025591274949332,0.0034590646851326845,1.2217496321353938e-05,,,0,0,,0,0,0,0,0,0,0,0,0,0,0,0
1106,897000000,,shoulder_pan_joint,shoulder_lift_joint,elbow_joint,wrist_1_joint,wrist_2_joint,wrist_3_joint,0,0,0,0,-0.0006402661711559787,-0.00014302469911164906,-2.6014265154472582e-05,0.0008410422796245598,8.327804259522509e-07,5.477753777061167e-05,0.0,0.0,0.0,0.0,0.0,0.0,,,0,0,0,0,-3.4898919919930176,-1.3150894444859151,-1.7105764352773054,-1.6921083263019803,1.569281148428371,0.0004214842293999155,0.0,0.0,0.0,0.0,0.0,0.0,0.0,0.0,0.0,0.0,0.0,0.0,,0,0,-3.4892517258218616,-1.3149464197868035,-1.710550421012151,-1.6929493685816048,1.5692803156479451,0.0003667066916293038,-0.040088907454213424,0.08724668258528644,0.019952321293701003,-0.1602452013132702,0.0043752887432260135,0.00010173857383161816,,,0,0,,0,0,0,0,0,0,0,0,0,0,0,0
1106,997000000,,shoulder_pan_joint,shoulder_lift_joint,elbow_joint,wrist_1_joint,wrist_2_joint,wrist_3_joint,0,0,0,0,0.01589157682678577,-0.0010864093989857437,0.006322261645339999,0.007122950240096904,-0.005821863119438886,-0.005837756330687579,0.0,0.0,0.0,0.0,0.0,0.0,,,0,0,0,0,-3.4646482429439853,-1.3164584774394354,-1.7004390660273208,-1.6829415692498293,1.5600040791317948,-0.008920627023213687,0.9719999999999561,-0.05816792710886988,0.3888961705717887,0.3848944338278083,-0.35677821368106555,-0.3572062596570411,16.199999999998134,-0.9694654518137016,6.481602842863374,6.414907230462676,-5.946303561351023,-5.953437660950664,,0,0,-3.480539819770771,-1.3153720680404497,-1.7067613276726608,-1.6900645194899262,1.5658259422512337,-0.0030828706925261073,-0.03852838509300066,0.08310247012415872,0.0192243965329551,-0.16209372820221313,0.004373548167740049,8.492009440873305e-05,,,0,0,,0,0,0,0,0,0,0,0,0,0,0,0
1107,97000000,,shoulder_pan_joint,shoulder_lift_joint,elbow_joint,wrist_1_joint,wrist_2_joint,wrist_3_joint,0,0,0,0,0.044998199900318614,-0.0027423185347066337,0.017995701775349815,0.01868776873324607,-0.016512971300947088,-0.016774630895829173,0.0,0.0,0.0,0.0,0.0,0.0,,,0,0,0,0,-3.297920242943984,-1.3264360722450048,-1.633731369806033,-1.6169202943905192,1.498805603812231,-0.07019252543895368,2.4000000000000283,-0.14362451138000976,0.9602374582019061,0.9503566267354486,-0.8809338609408986,-0.8819907645852886,15.000000000000815,-0.897653196125484,6.001484113760749,5.939728917097656,-5.505836630881066,-5.512442278658075,,0,0,-3.3429184428443026,-1.3236937537102982,-1.6517270715813828,-1.6356080631237653,1.5153185751131781,-0.05341789454312451,-0.02401699943018265,0.025116398952234782,0.00861056871802516,-0.199126247191079,0.0022667261774667047,-0.00022622348195364128,,,0,0,,0,0,0,0,0,0,0,0,0,0,0,0
1107,197000000,,shoulder_pan_joint,shoulder_lift_joint,elbow_joint,wrist_1_joint,wrist_2_joint,wrist_3_joint,0,0,0,0,0.06284245033245472,-0.0036523939285040274,0.025183244237368063,0.025722307528171395,-0.023077214503442356,-0.023982918845928514,0.0,0.0,0.0,0.0,0.0,0.0,,,0,0,0,0,-3.001674916485105,-1.3441644431871984,-1.5152039284380836,-1.4996124989156905,1.3900670458026,-0.17906154293407284,3.1305500774399597,-0.18734321884289995,1.2525297704728433,1.239641254759226,-1.1490864860783279,-1.1504651068224343,-1.0075146240018054,0.060293248158333035,-0.40310553402176463,-0.39895758310423,0.3698140615313541,0.3702577473134978,,0,0,-3.06451736681756,-1.3405120492586944,-1.5403871726754517,-1.5253348064438619,1.4131442603060425,-0.15507862408814432,-0.01760219989949252,-0.036867671903119945,-0.002713112779988397,-0.24815658303810456,-0.0014783807015052997,0.25336511936692696,,,0,0,,0,0,0,0,0,0,0,0,0,0,0,0
1107,297000000,,shoulder_pan_joint,shoulder_lift_joint,elbow_joint,wrist_1_joint,wrist_2_joint,wrist_3_joint,0,0,0,0,0.06279010091723203,-0.0036207797132834507,0.025161735918648453,0.025252781000265845,-0.023055780648898905,-0.024337195437488357,0.0,0.0,0.0,0.0,0.0,0.0,,,0,0,0,0,-2.6879325949439843,-1.3629398963666017,-1.3896759578684916,-1.3753762095973756,1.2749061146960263,-0.29436063879191277,3.1416000000000324,-0.18800448539639994,1.2569508327863534,1.244016824396648,-1.1531424239716177,-1.1545259108421408,1.0551559626037484e-12,7.444045380111672e-13,1.1270984145994585e-12,-3.2773783686934606e-13,2.637889906509371e-13,1.4788170688007083e-13,,0,0,-2.7507226958612163,-1.3593191166533183,-1.41483769378714,-1.4006289905976415,1.2979618953449252,-0.2700234433544244,-0.008809250215306041,-0.09106871087750643,-0.008900777464752485,-0.041287442615809355,-0.005383778779944448,0.6660390530378353,,,0,0,,0,0,0,0,0,0,0,0,0,0,0,0
1107,397000000,,shoulder_pan_joint,shoulder_lift_joint,elbow_joint,wrist_1_joint,wrist_2_joint,wrist_3_joint,0,0,0,0,0.0627550491536355,-0.0025130100776502573,0.02510678749790962,0.02489343068108063,-0.023103546501675343,-0.024451554769168604,0.0,0.0,0.0,0.0,0.0,0.0,,,0,0,0,0,-2.373772594943985,-1.3817403449062438,-1.2639808745898584,-1.2509745271577106,1.1595918722988636,-0.409813229876127,3.141599999999994,-0.18800448539643064,1.2569508327863304,1.2440168243966538,-1.1531424239716486,-1.1545259108421468,3.197442310920491e-14,-7.903677712306486e-13,-6.634692795159935e-13,5.595524044110788e-14,-1.1430856261540608e-12,-2.997602166487922e-13,,0,0,-2.4365276440976205,-1.3792273348285935,-1.289087662087768,-1.2758679578387913,1.182695418800539,-0.3853616751069584,0.028870288117761322,-0.1755535372270292,-0.023436581130382328,-0.05171095889539401,-0.004417938806535626,0.869396545411854,,,0,0,,0,0,0,0,0,0,0,0,0,0,0,0
1107,497000000,,shoulder_pan_joint,shoulder_lift_joint,elbow_joint,wrist_1_joint,wrist_2_joint,wrist_3_joint,0,0,0,0,0.0627313126253517,-0.0012981910250640105,0.02512616482173513,0.024863697695144182,-0.02307603195798902,-0.024518238473518972,0.0,0.0,0.0,0.0,0.0,0.0,,,0,0,0,0,-2.0596125949439843,-1.400540793445885,-1.1382857913112252,-1.126572844718046,1.0442776299017014,-0.5252658209603409,3.141600000000025,-0.18800448539639994,1.2569508327863228,1.2440168243966347,-1.1531424239716275,-1.1545259108421313,1.3109513474773844e-12,8.723022304479853e-13,-2.7977620220553915e-13,-5.835332217429822e-13,7.993605777301127e-15,4.676259379721158e-13,,0,0,-2.122343907569336,-1.3992426024208209,-1.1634119561329603,-1.1514365424131903,1.0673536618596904,-0.5007475824868219,0.06633400799197717,-0.2644787265658178,-0.03722367910677704,-0.06506483307133837,-4.90874080922854e-05,0.9793616482850408,,,0,0,,0,0,0,0,0,0,0,0,0,0,0,0
1107,597000000,,shoulder_pan_joint,shoulder_lift_joint,elbow_joint,wrist_1_joint,wrist_2_joint,wrist_3_joint,0,0,0,0,0.06272625323153913,-0.0007635757621200501,0.025126240156151836,0.024846686125016948,-0.023075178925936357,-0.024409787962021312,0.0,0.0,0.0,0.0,0.0,0.0,,,0,0,0,0,-1.7454525949439843,-1.4193412419855271,-1.0125907080325913,-1.002171162278381,0.9289633875045394,-0.6407184120445555,3.1416000000000137,-0.18800448539643064,1.256950832786342,1.2440168243966347,-1.1531424239716082,-1.1545259108421564,5.435651928564765e-13,-7.903677712306486e-13,2.318145675417326e-13,-5.835332217429822e-13,6.474820679613911e-13,-6.195044477408371e-13,,0,0,-1.8081788481755234,-1.418577666223407,-1.0377169481887432,-1.027017848403398,0.9520385664304758,-0.6163086240825342,0.09891730324694827,-0.32758044958053645,-0.04646204774968199,-0.07365097407206167,0.005742165997161208,0.9734843244536799,,,0,0,,0,0,0,0,0,0,0,0,0,0,0,0
1107,698000000,,shoulder_pan_joint,shoulder_lift_joint,elbow_joint,wrist_1_joint,wrist_2_joint,wrist_3_joint,0,0,0,0,0.06271538762780526,-0.0006329407912233354,0.025124165244854613,0.024836975212183643,-0.023077043799675567,-0.02409661114547279,0.0,0.0,0.0,0.0,0.0,0.0,,,0,0,0,0,-1.4312925927996547,-1.4381416906534927,-0.8868956238960135,-0.8777694789895997,0.8136491443202881,-0.7561710039168028,3.1416000542868106,-0.18800448864511746,1.2569508545064492,1.2440168458932634,-1.15314244389792,-1.1545259307923472,-9.047825408021927e-07,5.414603871684808e-08,-3.6200149595117407e-07,-3.58276855075873e-07,3.321053321625838e-07,3.325036975331788e-07,,0,0,-1.49400798042746,-1.4375087498622694,-0.9120197891408681,-0.9026064542017833,0.8367261881199637,-0.73207439277133,0.12385686475783432,-0.3575941531220387,-0.050308576107158665,-0.07650434690178354,0.012775353504229219,0.7851454204014516,,,0,0,,0,0,0,0,0,0,0,0,0,0,0,0
1107,798000000,,shoulder_pan_joint,shoulder_lift_joint,elbow_joint,wrist_1_joint,wrist_2_joint,wrist_3_joint,0,0,0,0,0.06257692423315886,-0.0006683272185217248,0.025121406620823183,0.02483338851100836,-0.023079354195228774,-0.023661338395902565,0.0,0.0,0.0,0.0,0.0,0.0,,,0,0,0,0,-1.1171325896580542,-1.4569421393811393,-0.7612005393604293,-0.7533677953059179,0.6983349007699831,-0.8716235961555427,3.1416000542868456,-0.1880044886451481,1.2569508545064372,1.2440168458932688,-1.1531424438979379,-1.154525930792343,-9.047807052749435e-07,5.414463680546646e-08,-3.6200242441858716e-07,-3.5827644027595667e-07,3.3210440337278614e-07,3.3250360011495394e-07,,0,0,-1.179709513891213,-1.4562738121626175,-0.7863219459812525,-0.7782011838169263,0.7214142549652118,-0.8479622577596402,0.12087593453742732,-0.336346891718264,-0.04654832729100511,-0.07063452495143796,0.01653377945324348,0.4099118296633455,,,0,0,,0,0,0,0,0,0,0,0,0,0,0,0
1107,898000000,,shoulder_pan_joint,shoulder_lift_joint,elbow_joint,wrist_1_joint,wrist_2_joint,wrist_3_joint,0,0,0,0,0.0627679056834769,-0.0016221945113659153,0.025126045426479893,0.02485712399636142,-0.023084302248444932,-0.0230945575850654,0.0,0.0,0.0,0.0,0.0,0.0,,,0,0,0,0,-0.8029725886607844,-1.4757425879804607,-0.6355054556827893,-0.6289661124713525,0.5830206580067675,-0.9870761876062495,3.1416000000000195,-0.18800448539639994,1.256950832786335,1.2440168243966443,-1.153142423971611,-1.154525910842137,1.0551560297500377e-12,7.444045852067489e-13,1.678657397086171e-13,-2.637890074375096e-13,4.556355476914575e-13,1.998400072089571e-14,,0,0,-0.8657404943442613,-1.4741203934690947,-0.6606315011092692,-0.6538232364677139,0.6061049602552124,-0.9639816300211841,0.10296234463731448,-0.2694476483737087,-0.03690489746888859,-0.055150536296191044,0.016847226572516527,-0.0005087170517780459,,,0,0,,0,0,0,0,0,0,0,0,0,0,0,0
